;Generated by Cura LulzBot Edition GCodeWriter Version: 3.6.20
;FLAVOR:Marlin
;TIME:2622
;Filament used: 1.35997m
;Layer height: 0.25
;Generated with Cura_SteamEngine 3.6.20
M82 ;absolute extrusion mode
;This G-Code has been generated specifically for the LulzBot Mini 2 with SE 0.5mm Tool Head
M73 P0                  ; clear GLCD progress bar
M75 					; Start GLCD Print Timer
G26 					; clear potential 'probe fail' condition
M107 					; disable fans
M420 S0                 ; disable leveling matrix
G90 					; absolute positioning
M82 					; set extruder to absolute mode
G92 E0 					; set extruder position to 0
M140 S60.0 ; start bed heating up
G28 					; home all axes
G0 X0 Y187 Z156 F200 			; move away from endstops
M117 Mini 2 Wiping...			; progress indicator message on LCD
M109 R140 	; soften filament before retraction
G1 E-15 F75 				; retract filament
M109 R140 	; wait for extruder to reach wiping temp
G1 X45 Y176 F11520 			; move above wiper pad
G1 Z0 F1200 				; push nozzle into wiper
G1 X45 Y178 Z-.5 F4000		; wiping
G1 X55 Y176 Z-.5 F4000		; wiping
G1 X45 Y177 Z0 F4000		; wiping
G1 X55 Y176 F4000		; wiping
G1 X45 Y178 F4000		; wiping
G1 X55 Y176 F4000		; wiping
G1 X45 Y178 F4000		; wiping
G1 X55 Y176 F4000		; wiping
G1 X60 Y178 F4000		; wiping
G1 X80 Y176 F4000		; wiping
G1 X60 Y178 F4000		; wiping
G1 X80 Y176 F4000		; wiping
G1 X60 Y178 F4000		; wiping
G1 X90 Y176 F4000		; wiping
G1 X80 Y178 F4000		; wiping
G1 X100 Y176 F4000		; wiping
G1 X80 Y178 F4000		; wiping
G1 X100 Y176 F4000		; wiping
G1 X80 Y178 F4000		; wiping
G1 X100 Y176 F4000		; wiping
G1 X110 Y178 F4000		; wiping
G1 X100 Y176 F4000		; wiping
G1 X110 Y178 F4000		; wiping
G1 X100 Y176 F4000		; wiping
G1 X110 Y178 F4000		; wiping
G1 X115 Y176 Z-0.5 F1000	; wiping
G1 Z10					; raise extruder
G28 X0 Y0				; home X and Y
M109 R140	; wait for extruder to reach probe temp
M204 S300				; set probing acceleration
G29					; start auto-leveling sequence
M420 S1                     ; enable leveling matrix
M425 Z			     		; use measured Z backlash for compensation
M425 Z F0		     		; turn off measured Z backlash compensation. (if activated in the quality settings, this command will automatically be ignored)
M204 S2000				; restore standard acceleration
G1 X5 Y15 Z10 F5000			; move up off last probe point
G4 S1					; pause
M400					; wait for moves to finish
M117 Heating...				; progress indicator message on LCD
M109 R210 ; wait for extruder to reach initial printing temp
M190 R60.0 ; wait for bed to reach printing temp
G1 Z2 E0 F75				; prime tiny bit of filment into the nozzle
M117 Mini 2 Printing...		; progress indicator message on LCD

M221 S100 T0
G92 E0
G1 F600 E-1.75
;LAYER_COUNT:10
;LAYER:0
M107
G0 F2625 X58.964 Y33.36 Z0.425
;TYPE:SKIRT
G1 F600 E0
G1 F900 X59.23 Y32.925 E0.01698
G1 X59.56 Y32.538 E0.03393
G1 X59.947 Y32.206 E0.05091
G1 X60.382 Y31.94 E0.0679
G1 X60.852 Y31.744 E0.08486
G1 X61.347 Y31.625 E0.10182
G1 X61.86 Y31.584 E0.11896
G1 X103.592 Y31.585 E1.50907
G1 X104.1 Y31.625 E1.52604
G1 X104.595 Y31.744 E1.543
G1 X105.066 Y31.939 E1.55998
G1 X105.501 Y32.205 E1.57696
G1 X105.888 Y32.535 E1.59391
G1 X106.22 Y32.922 E1.61089
G1 X106.486 Y33.357 E1.62787
G1 X106.682 Y33.827 E1.64484
G1 X106.801 Y34.322 E1.6618
G1 X106.842 Y34.835 E1.67894
G1 X106.842 Y127.495 E4.76548
G1 X106.802 Y128.003 E4.78245
G1 X106.683 Y128.498 E4.79941
G1 X106.488 Y128.969 E4.81639
G1 X106.222 Y129.404 E4.83337
G1 X105.892 Y129.791 E4.85032
G1 X105.505 Y130.123 E4.8673
G1 X105.07 Y130.389 E4.88428
G1 X104.6 Y130.585 E4.90125
G1 X104.105 Y130.704 E4.91821
G1 X103.592 Y130.745 E4.93535
G1 X61.86 Y130.745 E6.32546
G1 X61.352 Y130.705 E6.34243
G1 X60.857 Y130.586 E6.35939
G1 X60.386 Y130.391 E6.37637
G1 X59.951 Y130.125 E6.39335
G1 X59.564 Y129.795 E6.4103
G1 X59.232 Y129.408 E6.42728
G1 X58.966 Y128.973 E6.44426
G1 X58.77 Y128.503 E6.46123
G1 X58.651 Y128.008 E6.47819
G1 X58.61 Y127.495 E6.49533
G1 X58.61 Y34.834 E9.5819
G1 X58.65 Y34.326 E9.59887
G1 X58.769 Y33.831 E9.61583
G1 X58.964 Y33.36 E9.63281
G1 F600 E7.88281
;MESH:
G0 F2625 X61.186 Y35.589
G0 X62.615 Y35.589
G0 X64.678 Y54.486
G0 X64.703 Y54.582
;TYPE:WALL-INNER
G1 F600 E9.63281
G1 F900 X64.097 Y54.834 E9.65467
G1 X63.579 Y55.232 E9.67643
G1 X63.181 Y55.751 E9.69822
G1 X63.094 Y55.96 E9.70576
G1 X62.93 Y56.355 E9.72001
G1 X62.845 Y57.004 E9.74181
G1 X62.93 Y57.653 E9.76361
G1 X63.094 Y58.047 E9.77783
G1 X63.182 Y58.258 E9.78545
G1 X63.579 Y58.776 E9.80719
G1 X64.097 Y59.173 E9.82892
G1 X64.702 Y59.425 E9.85076
G1 X65.351 Y59.51 E9.87256
G1 X66 Y59.425 E9.89436
G1 X66.604 Y59.174 E9.91615
G1 X67.123 Y58.776 E9.93794
G1 X67.521 Y58.258 E9.9597
G1 X67.773 Y57.652 E9.98156
G1 X67.857 Y57.004 E10.00332
G1 X67.773 Y56.356 E10.02509
G1 X67.522 Y55.751 E10.04691
G1 X67.124 Y55.231 E10.06872
G1 X66.604 Y54.833 E10.09053
G1 X65.999 Y54.582 E10.11235
G1 X65.351 Y54.498 E10.13412
G1 X64.703 Y54.582 E10.15588
G0 F2625 X64.678 Y54.486
G0 X65.351 Y54.458
G0 X66.009 Y54.544
G0 X66.182 Y54.616
G0 X80.023 Y61.501
G0 X80.053 Y61.596
G1 F900 X79.043 Y61.997 E10.19208
G1 X78.091 Y62.52 E10.22826
G1 X77.212 Y63.159 E10.26446
G1 X76.42 Y63.902 E10.30063
G1 X75.727 Y64.74 E10.33686
G1 X75.145 Y65.657 E10.37304
G1 X74.682 Y66.641 E10.40926
G1 X74.347 Y67.673 E10.4454
G1 X74.143 Y68.741 E10.48162
G1 X74.074 Y69.825 E10.5178
G1 X74.143 Y70.91 E10.55402
G1 X74.347 Y71.976 E10.59017
G1 X74.682 Y73.009 E10.62634
G1 X75.146 Y73.993 E10.66258
G1 X75.727 Y74.909 E10.69872
G1 X76.42 Y75.747 E10.73494
G1 X77.212 Y76.491 E10.77113
G1 X78.091 Y77.13 E10.80733
G1 X79.043 Y77.653 E10.84352
G1 X80.053 Y78.052 E10.87969
G1 X81.105 Y78.323 E10.91588
G1 X82.183 Y78.459 E10.95207
G1 X83.269 Y78.459 E10.98824
G1 X84.348 Y78.323 E11.02447
G1 X85.4 Y78.052 E11.06066
G1 X86.41 Y77.653 E11.09683
G1 X87.361 Y77.13 E11.13298
G1 X88.241 Y76.491 E11.16921
G1 X89.033 Y75.747 E11.20541
G1 X89.726 Y74.909 E11.24163
G1 X90.307 Y73.993 E11.27776
G1 X90.771 Y73.009 E11.314
G1 X91.106 Y71.976 E11.35017
G1 X91.31 Y70.909 E11.38636
G1 X91.377 Y69.825 E11.42254
G1 X91.31 Y68.741 E11.45871
G1 X91.106 Y67.673 E11.49493
G1 X90.771 Y66.641 E11.53107
G1 X90.308 Y65.657 E11.5673
G1 X89.726 Y64.74 E11.60348
G1 X89.033 Y63.902 E11.6397
G1 X88.241 Y63.159 E11.67587
G1 X87.361 Y62.52 E11.7121
G1 X86.41 Y61.997 E11.74825
G1 X85.4 Y61.596 E11.78445
G1 X84.348 Y61.327 E11.82062
G1 X83.27 Y61.19 E11.85682
G1 X82.182 Y61.19 E11.89306
G1 X81.105 Y61.327 E11.92922
G1 X80.053 Y61.596 E11.96539
G0 F2625 X80.023 Y61.501
G0 X99.428 Y54.486
G0 X99.453 Y54.582
G1 F900 X98.847 Y54.834 E11.98726
G1 X98.329 Y55.232 E12.00901
G1 X97.931 Y55.751 E12.0308
G1 X97.68 Y56.355 E12.05259
G1 X97.595 Y57.004 E12.07439
G1 X97.68 Y57.653 E12.09619
G1 X97.932 Y58.258 E12.11803
G1 X98.329 Y58.776 E12.13977
G1 X98.847 Y59.173 E12.1615
G1 X99.452 Y59.425 E12.18334
G1 X100.101 Y59.51 E12.20514
G1 X100.75 Y59.425 E12.22694
G1 X101.354 Y59.174 E12.24873
G1 X101.873 Y58.776 E12.27052
G1 X102.271 Y58.258 E12.29228
G1 X102.358 Y58.049 E12.29982
G1 X102.523 Y57.652 E12.31414
G1 X102.607 Y57.004 E12.3359
G1 X102.523 Y56.356 E12.35767
G1 X102.358 Y55.958 E12.37202
G1 X102.272 Y55.751 E12.37949
G1 X101.874 Y55.231 E12.4013
G1 X101.354 Y54.833 E12.42311
G1 X100.749 Y54.582 E12.44493
G1 X100.101 Y54.498 E12.4667
G1 X99.453 Y54.582 E12.48846
G0 F2625 X99.428 Y54.486
G0 X100.101 Y54.458
G0 X100.759 Y54.544
G0 X101.311 Y54.773
G0 X102.751 Y55.925
G0 X102.851 Y55.925
G1 F900 X102.851 Y56.356 E12.5004
G1 X102.851 Y57.004 E12.51273
G1 X102.851 Y57.652 E12.52506
G1 X102.851 Y58.082 E12.53697
G1 X102.851 Y102.925 E14.03071
G1 X102.851 Y103.356 E14.04507
G1 X102.851 Y104.004 E14.06665
G1 X102.851 Y104.652 E14.08824
G1 X102.851 Y105.082 E14.10256
G1 X102.851 Y126.754 E14.82446
G1 X62.601 Y126.754 E16.1652
G1 X62.601 Y105.08 E16.88717
G1 X62.601 Y104.653 E16.9014
G1 X62.601 Y104.004 E16.92301
G1 X62.601 Y103.355 E16.94463
G1 X62.601 Y102.927 E16.95889
G1 X62.601 Y58.08 E18.45276
G1 X62.601 Y57.653 E18.4646
G1 X62.601 Y57.004 E18.47697
G1 X62.601 Y56.355 E18.48934
G1 X62.601 Y55.927 E18.50121
G1 X62.601 Y35.575 E19.17914
G1 X102.851 Y35.575 E20.51989
G1 X102.851 Y55.925 E21.19775
G0 F2625 X102.751 Y55.925
G0 X99.428 Y101.486
G0 X99.453 Y101.582
G1 F900 X98.847 Y101.834 E21.21961
G1 X98.329 Y102.232 E21.24137
G1 X97.931 Y102.751 E21.26316
G1 X97.68 Y103.355 E21.28495
G1 X97.595 Y104.004 E21.30675
G1 X97.68 Y104.653 E21.32855
G1 X97.932 Y105.258 E21.35038
G1 X98.329 Y105.776 E21.37212
G1 X98.847 Y106.173 E21.39386
G1 X99.452 Y106.425 E21.4157
G1 X100.101 Y106.51 E21.4375
G1 X100.75 Y106.425 E21.4593
G1 X101.354 Y106.174 E21.48109
G1 X101.873 Y105.776 E21.50287
G1 X102.271 Y105.258 E21.52463
G1 X102.358 Y105.049 E21.53218
G1 X102.523 Y104.652 E21.54408
G1 X102.607 Y104.004 E21.55658
G1 X102.523 Y103.356 E21.56909
G1 X102.358 Y102.958 E21.58102
G1 X102.272 Y102.751 E21.58848
G1 X101.874 Y102.231 E21.6103
G1 X101.354 Y101.833 E21.63211
G1 X100.749 Y101.582 E21.65393
G1 X100.101 Y101.498 E21.67569
G1 X99.453 Y101.582 E21.69746
G0 F2625 X99.428 Y101.486
G0 X64.678 Y101.486
G0 X64.703 Y101.582
G1 F900 X64.097 Y101.834 E21.71932
G1 X63.579 Y102.232 E21.74108
G1 X63.181 Y102.751 E21.76287
G1 X63.094 Y102.96 E21.77041
G1 X62.93 Y103.355 E21.78226
G1 X62.845 Y104.004 E21.79481
G1 X62.93 Y104.653 E21.80736
G1 X63.094 Y105.047 E21.81919
G1 X63.182 Y105.258 E21.8268
G1 X63.579 Y105.776 E21.84854
G1 X64.097 Y106.173 E21.87028
G1 X64.702 Y106.425 E21.89211
G1 X65.351 Y106.51 E21.91392
G1 X66 Y106.425 E21.93572
G1 X66.604 Y106.174 E21.95751
G1 X67.123 Y105.776 E21.97929
G1 X67.521 Y105.258 E22.00105
G1 X67.773 Y104.652 E22.02292
G1 X67.857 Y104.004 E22.04468
G1 X67.773 Y103.356 E22.06645
G1 X67.522 Y102.751 E22.08827
G1 X67.124 Y102.231 E22.11008
G1 X66.604 Y101.833 E22.13189
G1 X65.999 Y101.582 E22.15371
G1 X65.351 Y101.498 E22.17547
G1 X64.703 Y101.582 E22.19724
G0 F2625 X64.833 Y102.069
;TYPE:WALL-OUTER
G1 F900 X64.35 Y102.27 E22.21467
G1 X63.936 Y102.588 E22.23206
G1 X63.618 Y103.003 E22.24947
G1 X63.417 Y103.486 E22.2669
G1 X63.349 Y104.004 E22.2843
G1 X63.417 Y104.522 E22.3017
G1 X63.618 Y105.005 E22.31913
G1 X63.936 Y105.419 E22.33652
G1 X64.35 Y105.737 E22.35391
G1 X64.833 Y105.938 E22.37133
G1 X65.351 Y106.006 E22.38874
G1 X65.869 Y105.938 E22.40614
G1 X66.352 Y105.737 E22.42357
G1 X66.767 Y105.419 E22.44098
G1 X67.085 Y105.005 E22.45837
G1 X67.286 Y104.522 E22.4758
G1 X67.353 Y104.004 E22.4932
G1 X67.286 Y103.486 E22.51059
G1 X67.085 Y103.003 E22.52802
G1 X66.767 Y102.588 E22.54544
G1 X66.352 Y102.27 E22.56285
G1 X65.869 Y102.069 E22.58028
G1 X65.351 Y102.002 E22.59768
G1 X64.833 Y102.069 E22.61508
G0 F2625 X64.603 Y102.165
G0 X64.374 Y101.611
G0 X65.165 Y101.488
G0 X99.355 Y101.515
G0 X99.583 Y102.069
G1 F900 X99.1 Y102.27 E22.6325
G1 X98.686 Y102.588 E22.64989
G1 X98.368 Y103.003 E22.66731
G1 X98.167 Y103.486 E22.68473
G1 X98.099 Y104.004 E22.70214
G1 X98.167 Y104.522 E22.71954
G1 X98.368 Y105.005 E22.73697
G1 X98.686 Y105.419 E22.75435
G1 X99.1 Y105.737 E22.77174
G1 X99.583 Y105.938 E22.78917
G1 X100.101 Y106.006 E22.80657
G1 X100.619 Y105.938 E22.82398
G1 X101.102 Y105.737 E22.8414
G1 X101.517 Y105.419 E22.85882
G1 X101.835 Y105.005 E22.87621
G1 X102.036 Y104.522 E22.89363
G1 X102.103 Y104.004 E22.91103
G1 X102.036 Y103.486 E22.92843
G1 X101.835 Y103.003 E22.94586
G1 X101.517 Y102.588 E22.96327
G1 X101.102 Y102.27 E22.98069
G1 X100.619 Y102.069 E22.99811
G1 X100.101 Y102.002 E23.01551
G1 X99.583 Y102.069 E23.03291
G0 F2625 X99.353 Y102.165
G0 X99.124 Y101.611
G0 X98.301 Y102.204
G0 X97.897 Y102.731
G0 X97.642 Y103.345
G0 X97.555 Y104.004
G0 X97.604 Y104.377
G0 X102.781 Y126.684
G0 X103.351 Y127.254
G1 F900 X62.101 Y127.254 E24.40696
G1 X62.101 Y35.075 E27.47748
G1 X103.351 Y35.075 E28.85153
G1 X103.351 Y127.254 E31.92205
G0 F2625 X103.101 Y127.254
G0 X102.781 Y126.684
G0 X97.642 Y104.663
G0 X91.41 Y70.884
G0 X90.813 Y70.846
G1 F900 X90.876 Y69.825 E31.95612
G1 X90.813 Y68.804 E31.9902
G1 X90.621 Y67.798 E32.02431
G1 X90.305 Y66.825 E32.05839
G1 X89.869 Y65.898 E32.09251
G1 X89.321 Y65.034 E32.12659
G1 X88.668 Y64.245 E32.16071
G1 X87.922 Y63.545 E32.19479
G1 X87.093 Y62.943 E32.22891
G1 X86.197 Y62.45 E32.26298
G1 X85.245 Y62.073 E32.29709
G1 X84.254 Y61.819 E32.33116
G1 X83.238 Y61.69 E32.36528
G1 X82.214 Y61.69 E32.39939
G1 X81.199 Y61.819 E32.43347
G1 X80.208 Y62.073 E32.46755
G1 X79.256 Y62.45 E32.50166
G1 X78.359 Y62.943 E32.53575
G1 X77.531 Y63.545 E32.56985
G1 X76.785 Y64.245 E32.60393
G1 X76.132 Y65.034 E32.63804
G1 X75.584 Y65.898 E32.67212
G1 X75.148 Y66.825 E32.70625
G1 X74.832 Y67.798 E32.74032
G1 X74.64 Y68.804 E32.77444
G1 X74.575 Y69.825 E32.80852
G1 X74.64 Y70.847 E32.84263
G1 X74.832 Y71.851 E32.87668
G1 X75.148 Y72.825 E32.91079
G1 X75.585 Y73.752 E32.94493
G1 X76.132 Y74.615 E32.97896
G1 X76.785 Y75.404 E33.01308
G1 X77.531 Y76.105 E33.04718
G1 X78.359 Y76.707 E33.08128
G1 X79.256 Y77.2 E33.11537
G1 X80.208 Y77.576 E33.14947
G1 X81.199 Y77.831 E33.18355
G1 X82.214 Y77.959 E33.21763
G1 X83.238 Y77.959 E33.25174
G1 X84.254 Y77.831 E33.28585
G1 X85.245 Y77.576 E33.31994
G1 X86.197 Y77.2 E33.35403
G1 X87.093 Y76.707 E33.3881
G1 X87.922 Y76.105 E33.42223
G1 X88.668 Y75.404 E33.45632
G1 X89.321 Y74.615 E33.49044
G1 X89.868 Y73.752 E33.52447
G1 X90.305 Y72.825 E33.55861
G1 X90.621 Y71.851 E33.59272
G1 X90.813 Y70.846 E33.6268
G0 F2625 X90.828 Y70.597
G0 X91.426 Y70.635
G0 X97.897 Y55.731
G0 X98.301 Y55.204
G0 X98.598 Y54.976
G0 X99.355 Y54.515
G0 X99.583 Y55.069
G1 F900 X99.1 Y55.27 E33.64423
G1 X98.686 Y55.588 E33.66162
G1 X98.368 Y56.003 E33.67904
G1 X98.167 Y56.486 E33.69646
G1 X98.099 Y57.004 E33.71386
G1 X98.167 Y57.522 E33.73127
G1 X98.368 Y58.005 E33.74869
G1 X98.686 Y58.419 E33.76608
G1 X99.1 Y58.737 E33.78347
G1 X99.583 Y58.938 E33.8009
G1 X100.101 Y59.006 E33.8183
G1 X100.619 Y58.938 E33.8357
G1 X101.102 Y58.737 E33.85313
G1 X101.517 Y58.419 E33.87055
G1 X101.835 Y58.005 E33.88794
G1 X102.036 Y57.522 E33.90536
G1 X102.103 Y57.004 E33.92276
G1 X102.036 Y56.486 E33.94016
G1 X101.835 Y56.003 E33.95759
G1 X101.517 Y55.588 E33.975
G1 X101.102 Y55.27 E33.99242
G1 X100.619 Y55.069 E34.00984
G1 X100.101 Y55.002 E34.02724
G1 X99.583 Y55.069 E34.04464
G0 F2625 X99.353 Y55.165
G0 X99.124 Y54.611
G0 X65.351 Y54.458
G0 X64.605 Y54.515
G0 X64.833 Y55.069
G1 F900 X64.35 Y55.27 E34.06207
G1 X63.936 Y55.588 E34.07946
G1 X63.618 Y56.003 E34.09687
G1 X63.417 Y56.486 E34.1143
G1 X63.349 Y57.004 E34.1317
G1 X63.417 Y57.522 E34.1491
G1 X63.618 Y58.005 E34.16653
G1 X63.936 Y58.419 E34.18392
G1 X64.35 Y58.737 E34.20131
G1 X64.833 Y58.938 E34.21873
G1 X65.351 Y59.006 E34.23614
G1 X65.869 Y58.938 E34.25354
G1 X66.352 Y58.737 E34.27097
G1 X66.767 Y58.419 E34.28838
G1 X67.085 Y58.005 E34.30577
G1 X67.286 Y57.522 E34.3232
G1 X67.353 Y57.004 E34.3406
G1 X67.286 Y56.486 E34.35799
G1 X67.085 Y56.003 E34.37542
G1 X66.767 Y55.588 E34.39284
G1 X66.352 Y55.27 E34.41025
G1 X65.869 Y55.069 E34.42768
G1 X65.351 Y55.002 E34.44508
G1 X64.833 Y55.069 E34.46248
G0 F2625 X64.603 Y55.165
G0 X64.374 Y54.611
G0 X64.575 Y54.104
;TYPE:SKIN
G1 F900 X63.85 Y54.407 E34.48865
G1 X63.23 Y54.883 E34.51469
G1 X63.091 Y55.064 E34.52229
G1 X63.091 Y36.065 E35.15515
G1 X102.361 Y36.065 E36.46325
G1 X102.361 Y55.062 E37.09605
G1 X102.223 Y54.882 E37.1036
G1 X101.601 Y54.405 E37.12971
G1 X100.877 Y54.104 E37.15583
G1 X100.101 Y54.004 E37.18189
G1 X99.325 Y54.104 E37.20796
G1 X98.6 Y54.407 E37.23413
G1 X97.98 Y54.883 E37.26017
G1 X97.504 Y55.504 E37.28623
G1 X97.202 Y56.227 E37.31233
G1 X97.101 Y57.004 E37.33843
G1 X97.202 Y57.781 E37.36453
G1 X97.505 Y58.505 E37.39067
G1 X97.98 Y59.125 E37.41669
G1 X98.6 Y59.6 E37.44271
G1 X99.324 Y59.903 E37.46885
G1 X100.101 Y60.004 E37.49495
G1 X100.878 Y59.903 E37.52105
G1 X101.601 Y59.601 E37.54715
G1 X102.222 Y59.125 E37.57321
G1 X102.361 Y58.944 E37.58082
G1 X102.361 Y102.062 E39.01709
G1 X102.223 Y101.882 E39.02465
G1 X101.601 Y101.405 E39.05076
G1 X100.877 Y101.104 E39.07688
G1 X100.101 Y101.004 E39.10294
G1 X99.325 Y101.104 E39.129
G1 X98.6 Y101.407 E39.15517
G1 X97.98 Y101.883 E39.18121
