;Generated by Cura LulzBot Edition GCodeWriter Version: 3.6.20
;FLAVOR:Marlin
;TIME:10324
;Filament used: 4.38635m
;Layer height: 0.25
;Generated with Cura_SteamEngine 3.6.20
M82 ;absolute extrusion mode
;This G-Code has been generated specifically for the LulzBot Mini 2 with SE 0.5mm Tool Head
M73 P0                  ; clear GLCD progress bar
M75 					; Start GLCD Print Timer
G26 					; clear potential 'probe fail' condition
M107 					; disable fans
M420 S0                 ; disable leveling matrix
G90 					; absolute positioning
M82 					; set extruder to absolute mode
G92 E0 					; set extruder position to 0
M140 S60.0 ; start bed heating up
G28 					; home all axes
G0 X0 Y187 Z156 F200 			; move away from endstops
M117 Mini 2 Wiping...			; progress indicator message on LCD
M109 R140 	; soften filament before retraction
G1 E-15 F75 				; retract filament
M109 R140 	; wait for extruder to reach wiping temp
G1 X45 Y176 F11520 			; move above wiper pad
G1 Z0 F1200 				; push nozzle into wiper
G1 X45 Y178 Z-.5 F4000		; wiping
G1 X55 Y176 Z-.5 F4000		; wiping
G1 X45 Y177 Z0 F4000		; wiping
G1 X55 Y176 F4000		; wiping
G1 X45 Y178 F4000		; wiping
G1 X55 Y176 F4000		; wiping
G1 X45 Y178 F4000		; wiping
G1 X55 Y176 F4000		; wiping
G1 X60 Y178 F4000		; wiping
G1 X80 Y176 F4000		; wiping
G1 X60 Y178 F4000		; wiping
G1 X80 Y176 F4000		; wiping
G1 X60 Y178 F4000		; wiping
G1 X90 Y176 F4000		; wiping
G1 X80 Y178 F4000		; wiping
G1 X100 Y176 F4000		; wiping
G1 X80 Y178 F4000		; wiping
G1 X100 Y176 F4000		; wiping
G1 X80 Y178 F4000		; wiping
G1 X100 Y176 F4000		; wiping
G1 X110 Y178 F4000		; wiping
G1 X100 Y176 F4000		; wiping
G1 X110 Y178 F4000		; wiping
G1 X100 Y176 F4000		; wiping
G1 X110 Y178 F4000		; wiping
G1 X115 Y176 Z-0.5 F1000	; wiping
G1 Z10					; raise extruder
G28 X0 Y0				; home X and Y
M109 R140	; wait for extruder to reach probe temp
M204 S300				; set probing acceleration
G29					; start auto-leveling sequence
M420 S1                     ; enable leveling matrix
M425 Z			     		; use measured Z backlash for compensation
M425 Z F0		     		; turn off measured Z backlash compensation. (if activated in the quality settings, this command will automatically be ignored)
M204 S2000				; restore standard acceleration
G1 X5 Y15 Z10 F5000			; move up off last probe point
G4 S1					; pause
M400					; wait for moves to finish
M117 Heating...				; progress indicator message on LCD
M109 R210 ; wait for extruder to reach initial printing temp
M190 R60.0 ; wait for bed to reach printing temp
G1 Z2 E0 F75				; prime tiny bit of filment into the nozzle
M117 Mini 2 Printing...		; progress indicator message on LCD

M221 S100 T0
G92 E0
G1 F600 E-1.75
;LAYER_COUNT:234
;LAYER:0
M107
G0 F2625 X29.601 Y25.454 Z0.425
;TYPE:SKIRT
G1 F600 E0
G1 F900 X29.864 Y25.191 E0.01239
G1 X30.327 Y24.785 E0.0329
G1 X30.839 Y24.442 E0.05343
G1 X31.391 Y24.168 E0.07396
G1 X31.973 Y23.967 E0.09447
G1 X32.577 Y23.844 E0.115
G1 X33.223 Y23.8 E0.13657
G1 X36.097 Y23.8 E0.2323
G1 X36.712 Y23.84 E0.25283
G1 X37.316 Y23.959 E0.27334
G1 X37.9 Y24.156 E0.29387
G1 X38.454 Y24.426 E0.3144
G1 X38.968 Y24.766 E0.33493
G1 X39.456 Y25.191 E0.35648
G1 X39.719 Y25.454 E0.36887
G1 X40.125 Y25.917 E0.38938
G1 X40.468 Y26.429 E0.40991
G1 X40.742 Y26.981 E0.43044
G1 X40.943 Y27.563 E0.45095
G1 X41.066 Y28.167 E0.47148
G1 X41.11 Y28.813 E0.49305
G1 X41.11 Y75.711 E2.05524
G1 X41.094 Y75.954 E2.06335
G1 X43.014 Y75.954 E2.12731
G1 X43.629 Y75.994 E2.14784
G1 X44.233 Y76.113 E2.16834
G1 X44.817 Y76.31 E2.18887
G1 X45.371 Y76.58 E2.2094
G1 X45.885 Y76.92 E2.22993
G1 X46.373 Y77.345 E2.25149
G1 X46.519 Y77.491 E2.25836
G1 X46.925 Y77.954 E2.27888
G1 X47.268 Y78.466 E2.29941
G1 X47.542 Y79.018 E2.31993
G1 X47.743 Y79.6 E2.34044
G1 X47.866 Y80.204 E2.36098
G1 X47.91 Y80.85 E2.38254
G1 X47.91 Y89.058 E2.65596
G1 X47.87 Y89.673 E2.67648
G1 X47.751 Y90.277 E2.69699
G1 X47.554 Y90.861 E2.71752
G1 X47.284 Y91.415 E2.73805
G1 X46.944 Y91.929 E2.75858
G1 X46.519 Y92.417 E2.78013
G1 X46.373 Y92.563 E2.78701
G1 X45.91 Y92.969 E2.80752
G1 X45.398 Y93.312 E2.82805
G1 X44.846 Y93.586 E2.84858
G1 X44.264 Y93.787 E2.86909
G1 X43.66 Y93.91 E2.88962
G1 X43.014 Y93.954 E2.91119
G1 X41.1 Y93.954 E2.97495
G1 X41.11 Y94.198 E2.98308
G1 X41.11 Y125.3 E4.0191
G1 X72.213 Y125.3 E5.05515
G1 X72.456 Y125.316 E5.06327
G1 X72.456 Y123.396 E5.12722
G1 X72.496 Y122.781 E5.14775
G1 X72.615 Y122.177 E5.16826
G1 X72.812 Y121.593 E5.18879
G1 X73.082 Y121.039 E5.20932
G1 X73.422 Y120.525 E5.22984
G1 X73.847 Y120.037 E5.2514
G1 X73.993 Y119.891 E5.25828
G1 X74.456 Y119.485 E5.27879
G1 X74.968 Y119.142 E5.29932
G1 X75.52 Y118.868 E5.31985
G1 X76.102 Y118.667 E5.34036
G1 X76.706 Y118.544 E5.36089
G1 X77.352 Y118.5 E5.38246
G1 X85.56 Y118.5 E5.65587
G1 X86.175 Y118.54 E5.6764
G1 X86.779 Y118.659 E5.6969
G1 X87.363 Y118.856 E5.71743
G1 X87.917 Y119.126 E5.73796
G1 X88.431 Y119.466 E5.75849
G1 X88.919 Y119.891 E5.78005
G1 X89.065 Y120.037 E5.78693
G1 X89.471 Y120.5 E5.80744
G1 X89.814 Y121.012 E5.82797
G1 X90.088 Y121.564 E5.84849
G1 X90.289 Y122.146 E5.869
G1 X90.412 Y122.75 E5.88954
G1 X90.456 Y123.396 E5.9111
G1 X90.456 Y125.317 E5.97509
G1 X90.7 Y125.3 E5.98324
G1 X128.777 Y125.3 E7.2516
G1 X129.392 Y125.34 E7.27213
G1 X129.996 Y125.459 E7.29264
G1 X130.58 Y125.656 E7.31317
G1 X131.134 Y125.926 E7.33369
G1 X131.648 Y126.266 E7.35422
G1 X132.136 Y126.691 E7.37578
G1 X132.399 Y126.954 E7.38817
G1 X132.805 Y127.417 E7.40868
G1 X133.148 Y127.929 E7.42921
G1 X133.422 Y128.481 E7.44974
G1 X133.623 Y129.063 E7.47025
G1 X133.746 Y129.667 E7.49078
G1 X133.79 Y130.313 E7.51235
G1 X133.79 Y133.187 E7.60808
G1 X133.75 Y133.802 E7.62861
G1 X133.631 Y134.406 E7.64912
G1 X133.434 Y134.99 E7.66965
G1 X133.164 Y135.544 E7.69018
G1 X132.824 Y136.058 E7.7107
G1 X132.399 Y136.546 E7.73226
G1 X132.136 Y136.809 E7.74465
G1 X131.673 Y137.215 E7.76516
G1 X131.161 Y137.558 E7.78569
G1 X130.609 Y137.832 E7.80622
G1 X130.027 Y138.033 E7.82673
G1 X129.423 Y138.156 E7.84726
G1 X128.777 Y138.2 E7.86883
G1 X89.276 Y138.2 E9.18462
G1 X88.661 Y138.16 E9.20515
G1 X88.057 Y138.041 E9.22566
G1 X87.473 Y137.844 E9.24619
G1 X86.919 Y137.574 E9.26672
G1 X86.405 Y137.234 E9.28725
G1 X85.939 Y136.831 E9.30777
G1 X85.53 Y136.371 E9.32827
G1 X85.183 Y135.861 E9.34882
G1 X84.906 Y135.311 E9.36933
G1 X84.744 Y134.85 E9.38561
G1 X78.165 Y134.85 E9.60476
G1 X78.043 Y135.223 E9.61783
G1 X77.776 Y135.778 E9.63835
G1 X77.44 Y136.295 E9.65888
G1 X77.04 Y136.763 E9.67939
G1 X76.582 Y137.176 E9.69993
G1 X76.075 Y137.526 E9.72046
G1 X75.527 Y137.807 E9.74097
G1 X74.947 Y138.015 E9.76149
G1 X74.345 Y138.147 E9.78202
G1 X73.636 Y138.2 E9.80571
G1 X33.223 Y138.2 E11.15188
G1 X32.608 Y138.16 E11.17241
G1 X32.004 Y138.041 E11.19291
G1 X31.42 Y137.844 E11.21344
G1 X30.866 Y137.574 E11.23397
G1 X30.352 Y137.234 E11.2545
G1 X29.864 Y136.809 E11.27606
G1 X29.601 Y136.546 E11.28845
G1 X29.195 Y136.083 E11.30896
G1 X28.852 Y135.571 E11.32949
G1 X28.578 Y135.019 E11.35002
G1 X28.377 Y134.437 E11.37053
G1 X28.254 Y133.833 E11.39106
G1 X28.21 Y133.187 E11.41263
G1 X28.21 Y92.773 E12.75883
G1 X28.25 Y92.158 E12.77936
G1 X28.369 Y91.554 E12.79987
G1 X28.566 Y90.97 E12.8204
G1 X28.836 Y90.416 E12.84093
G1 X29.176 Y89.902 E12.86145
G1 X29.579 Y89.436 E12.88198
G1 X30.039 Y89.027 E12.90248
G1 X30.549 Y88.68 E12.92303
G1 X31.099 Y88.403 E12.94354
G1 X31.561 Y88.241 E12.95985
G1 X31.561 Y81.664 E13.17893
G1 X31.188 Y81.542 E13.192
G1 X30.632 Y81.276 E13.21253
G1 X30.116 Y80.939 E13.23306
G1 X29.647 Y80.539 E13.2536
G1 X29.235 Y80.082 E13.27409
G1 X28.885 Y79.575 E13.29461
G1 X28.603 Y79.027 E13.31514
G1 X28.395 Y78.447 E13.33567
G1 X28.263 Y77.845 E13.3562
G1 X28.21 Y77.135 E13.37991
G1 X28.21 Y28.813 E14.98954
G1 X28.25 Y28.198 E15.01007
G1 X28.369 Y27.594 E15.03057
G1 X28.566 Y27.01 E15.0511
G1 X28.836 Y26.456 E15.07163
G1 X29.176 Y25.942 E15.09216
G1 X29.601 Y25.454 E15.11372
G0 F2625 X29.955 Y25.808
G1 F900 X30.218 Y25.545 E15.1261
G1 X30.657 Y25.162 E15.14551
G1 X31.145 Y24.843 E15.16493
G1 X31.671 Y24.593 E15.18433
G1 X32.227 Y24.418 E15.20375
G1 X32.802 Y24.321 E15.22317
G1 X33.223 Y24.3 E15.23721
G1 X36.097 Y24.3 E15.33295
G1 X36.678 Y24.34 E15.35235
G1 X37.249 Y24.459 E15.37177
G1 X37.798 Y24.655 E15.39119
G1 X38.314 Y24.924 E15.41058
G1 X38.79 Y25.262 E15.43002
G1 X39.102 Y25.545 E15.44405
G1 X39.365 Y25.808 E15.45644
G1 X39.748 Y26.247 E15.47585
G1 X40.067 Y26.735 E15.49527
G1 X40.317 Y27.261 E15.51467
G1 X40.492 Y27.817 E15.53409
G1 X40.589 Y28.392 E15.55351
G1 X40.61 Y28.813 E15.56755
G1 X40.61 Y75.711 E17.12974
G1 X40.57 Y76.292 E17.14914
G1 X40.536 Y76.454 E17.15465
G1 X43.014 Y76.454 E17.2372
G1 X43.595 Y76.494 E17.2566
G1 X44.166 Y76.613 E17.27602
G1 X44.715 Y76.809 E17.29544
G1 X45.231 Y77.078 E17.31483
G1 X45.707 Y77.416 E17.33427
G1 X46.019 Y77.699 E17.3483
G1 X46.165 Y77.845 E17.35518
G1 X46.548 Y78.284 E17.37459
G1 X46.867 Y78.772 E17.39401
G1 X47.117 Y79.298 E17.41341
G1 X47.292 Y79.854 E17.43282
G1 X47.389 Y80.429 E17.45225
G1 X47.41 Y80.85 E17.46629
G1 X47.41 Y89.058 E17.7397
G1 X47.37 Y89.639 E17.7591
G1 X47.251 Y90.21 E17.77853
G1 X47.055 Y90.759 E17.79795
G1 X46.786 Y91.275 E17.81733
G1 X46.448 Y91.751 E17.83678
G1 X46.165 Y92.063 E17.85081
G1 X46.019 Y92.209 E17.85769
G1 X45.58 Y92.592 E17.87709
G1 X45.092 Y92.911 E17.89651
G1 X44.566 Y93.161 E17.91591
G1 X44.01 Y93.336 E17.93533
G1 X43.435 Y93.433 E17.95475
G1 X43.014 Y93.454 E17.96879
G1 X40.536 Y93.454 E18.05134
G1 X40.571 Y93.627 E18.05722
G1 X40.61 Y94.198 E18.07628
G1 X40.61 Y125.8 E19.12895
G1 X72.213 Y125.8 E20.18166
G1 X72.794 Y125.84 E20.20106
G1 X72.956 Y125.874 E20.20657
G1 X72.956 Y123.396 E20.28912
G1 X72.996 Y122.815 E20.30852
G1 X73.115 Y122.244 E20.32795
G1 X73.311 Y121.695 E20.34736
G1 X73.58 Y121.179 E20.36675
G1 X73.918 Y120.703 E20.38619
G1 X74.201 Y120.391 E20.40022
G1 X74.347 Y120.245 E20.4071
G1 X74.786 Y119.862 E20.42651
G1 X75.274 Y119.543 E20.44593
G1 X75.8 Y119.293 E20.46533
G1 X76.356 Y119.118 E20.48474
G1 X76.931 Y119.021 E20.50417
G1 X77.352 Y119 E20.51821
G1 X85.56 Y119 E20.79162
G1 X86.141 Y119.04 E20.81102
G1 X86.712 Y119.159 E20.83045
G1 X87.261 Y119.355 E20.84987
G1 X87.777 Y119.624 E20.86925
G1 X88.253 Y119.962 E20.8887
G1 X88.565 Y120.245 E20.90273
G1 X88.711 Y120.391 E20.90961
G1 X89.094 Y120.83 E20.92901
G1 X89.413 Y121.318 E20.94843
G1 X89.663 Y121.844 E20.96783
G1 X89.838 Y122.4 E20.98725
G1 X89.935 Y122.975 E21.00667
G1 X89.956 Y123.396 E21.02071
G1 X89.956 Y125.876 E21.10332
G1 X90.7 Y125.8 E21.12824
G1 X128.777 Y125.8 E22.39659
G1 X129.358 Y125.84 E22.41599
G1 X129.929 Y125.959 E22.43542
G1 X130.478 Y126.155 E22.45484
G1 X130.994 Y126.424 E22.47422
G1 X131.47 Y126.762 E22.49367
G1 X131.782 Y127.045 E22.5077
G1 X132.045 Y127.308 E22.52009
G1 X132.428 Y127.747 E22.5395
G1 X132.747 Y128.235 E22.55892
G1 X132.997 Y128.761 E22.57832
G1 X133.172 Y129.317 E22.59773
G1 X133.269 Y129.892 E22.61716
G1 X133.29 Y130.313 E22.6312
G1 X133.29 Y133.187 E22.72693
G1 X133.25 Y133.768 E22.74633
G1 X133.131 Y134.339 E22.76576
G1 X132.935 Y134.888 E22.78518
G1 X132.666 Y135.404 E22.80456
G1 X132.328 Y135.88 E22.82401
G1 X132.045 Y136.192 E22.83804
G1 X131.782 Y136.455 E22.85043
G1 X131.343 Y136.838 E22.86984
G1 X130.855 Y137.157 E22.88926
G1 X130.329 Y137.407 E22.90866
G1 X129.773 Y137.582 E22.92807
G1 X129.198 Y137.679 E22.9475
G1 X128.777 Y137.7 E22.96154
G1 X89.276 Y137.7 E24.27733
G1 X88.695 Y137.66 E24.29673
G1 X88.124 Y137.541 E24.31616
G1 X87.575 Y137.345 E24.33558
G1 X87.059 Y137.076 E24.35496
G1 X86.583 Y136.738 E24.37441
G1 X86.159 Y136.339 E24.3938
G1 X85.793 Y135.885 E24.41322
G1 X85.493 Y135.386 E24.43262
G1 X85.263 Y134.85 E24.45205
G1 X85.126 Y134.35 E24.46932
G1 X77.781 Y134.35 E24.71398
G1 X77.69 Y134.725 E24.72684
G1 X77.478 Y135.268 E24.74625
G1 X77.193 Y135.776 E24.76566
G1 X76.841 Y136.241 E24.78508
G1 X76.429 Y136.653 E24.80449
G1 X75.965 Y137.005 E24.82389
G1 X75.457 Y137.29 E24.84329
G1 X74.914 Y137.503 E24.86272
G1 X74.348 Y137.64 E24.88212
G1 X73.636 Y137.7 E24.90592
G1 X33.223 Y137.7 E26.25209
G1 X32.642 Y137.66 E26.27149
G1 X32.071 Y137.541 E26.29092
G1 X31.522 Y137.345 E26.31034
G1 X31.006 Y137.076 E26.32972
G1 X30.53 Y136.738 E26.34917
G1 X30.218 Y136.455 E26.3632
G1 X29.955 Y136.192 E26.37559
G1 X29.572 Y135.753 E26.395
G1 X29.253 Y135.265 E26.41442
G1 X29.003 Y134.739 E26.43382
G1 X28.828 Y134.183 E26.45323
G1 X28.731 Y133.608 E26.47266
G1 X28.71 Y133.187 E26.4867
G1 X28.71 Y92.773 E27.8329
G1 X28.75 Y92.192 E27.8523
G1 X28.869 Y91.621 E27.87173
G1 X29.065 Y91.072 E27.89115
G1 X29.334 Y90.556 E27.91053
G1 X29.672 Y90.08 E27.92998
G1 X30.071 Y89.656 E27.94937
G1 X30.525 Y89.29 E27.9688
G1 X31.024 Y88.99 E27.98819
G1 X31.56 Y88.76 E28.00762
G1 X32.061 Y88.623 E28.02492
G1 X32.061 Y81.28 E28.26952
G1 X31.686 Y81.189 E28.28237
G1 X31.143 Y80.977 E28.30179
G1 X30.635 Y80.692 E28.32119
G1 X30.17 Y80.341 E28.3406
G1 X29.757 Y79.929 E28.36003
G1 X29.405 Y79.465 E28.37943
G1 X29.12 Y78.956 E28.39887
G1 X28.907 Y78.414 E28.41826
G1 X28.77 Y77.848 E28.43766
G1 X28.71 Y77.135 E28.4615
G1 X28.71 Y28.813 E30.07112
G1 X28.75 Y28.232 E30.09052
G1 X28.869 Y27.661 E30.10995
G1 X29.065 Y27.112 E30.12936
G1 X29.334 Y26.596 E30.14875
G1 X29.672 Y26.12 E30.1682
G1 X29.955 Y25.808 E30.18223
G0 F2625 X30.308 Y26.161
G1 F900 X30.571 Y25.898 E30.19462
G1 X30.986 Y25.541 E30.21285
G1 X31.448 Y25.247 E30.23109
G1 X31.947 Y25.024 E30.2493
G1 X32.474 Y24.876 E30.26753
G1 X33.223 Y24.8 E30.29261
G1 X36.097 Y24.8 E30.38834
G1 X36.643 Y24.84 E30.40658
G1 X37.177 Y24.959 E30.4248
G1 X37.688 Y25.154 E30.44302
G1 X38.166 Y25.422 E30.46128
G1 X38.749 Y25.898 E30.48635
G1 X39.012 Y26.161 E30.49874
G1 X39.369 Y26.576 E30.51697
G1 X39.663 Y27.038 E30.53521
G1 X39.886 Y27.537 E30.55342
G1 X40.034 Y28.064 E30.57165
G1 X40.11 Y28.813 E30.59673
G1 X40.11 Y75.711 E32.15892
G1 X40.07 Y76.257 E32.17716
G1 X39.951 Y76.791 E32.19538
G1 X39.889 Y76.954 E32.20119
G1 X43.014 Y76.954 E32.30528
G1 X43.56 Y76.994 E32.32352
G1 X44.094 Y77.113 E32.34174
G1 X44.605 Y77.308 E32.35996
G1 X45.083 Y77.576 E32.37822
G1 X45.666 Y78.052 E32.40329
G1 X45.812 Y78.198 E32.41017
G1 X46.169 Y78.613 E32.4284
G1 X46.463 Y79.075 E32.44664
G1 X46.686 Y79.574 E32.46485
G1 X46.834 Y80.101 E32.48308
G1 X46.91 Y80.85 E32.50816
G1 X46.91 Y89.058 E32.78157
G1 X46.87 Y89.604 E32.79981
G1 X46.751 Y90.138 E32.81803
G1 X46.556 Y90.649 E32.83625
G1 X46.288 Y91.127 E32.8545
G1 X45.812 Y91.71 E32.87957
G1 X45.666 Y91.856 E32.88645
G1 X45.251 Y92.213 E32.90469
G1 X44.789 Y92.507 E32.92293
G1 X44.29 Y92.73 E32.94113
G1 X43.763 Y92.878 E32.95937
G1 X43.014 Y92.954 E32.98445
G1 X39.897 Y92.954 E33.08827
G1 X40.041 Y93.481 E33.10647
G1 X40.11 Y94.198 E33.13047
G1 X40.11 Y126.3 E34.1998
G1 X72.213 Y126.3 E35.26916
G1 X72.759 Y126.34 E35.28739
G1 X73.293 Y126.459 E35.30562
G1 X73.456 Y126.521 E35.31143
G1 X73.456 Y123.396 E35.41552
G1 X73.496 Y122.85 E35.43376
G1 X73.615 Y122.316 E35.45198
G1 X73.81 Y121.805 E35.4702
G1 X74.078 Y121.327 E35.48846
G1 X74.554 Y120.744 E35.51353
G1 X74.7 Y120.598 E35.5204
G1 X75.115 Y120.241 E35.53864
G1 X75.577 Y119.947 E35.55688
G1 X76.076 Y119.724 E35.57509
G1 X76.603 Y119.576 E35.59332
G1 X77.352 Y119.5 E35.6184
G1 X85.56 Y119.5 E35.89181
G1 X86.106 Y119.54 E35.91004
G1 X86.64 Y119.659 E35.92827
G1 X87.151 Y119.854 E35.94649
G1 X87.629 Y120.122 E35.96474
G1 X88.212 Y120.598 E35.98981
G1 X88.358 Y120.744 E35.99669
G1 X88.715 Y121.159 E36.01493
G1 X89.009 Y121.621 E36.03317
G1 X89.232 Y122.12 E36.05137
G1 X89.38 Y122.647 E36.06961
G1 X89.456 Y123.396 E36.09468
G1 X89.456 Y126.523 E36.19885
G1 X89.701 Y126.436 E36.20751
G1 X90.238 Y126.329 E36.22574
G1 X90.7 Y126.3 E36.24116
G1 X128.777 Y126.3 E37.50952
G1 X129.323 Y126.34 E37.52776
G1 X129.857 Y126.459 E37.54598
G1 X130.368 Y126.654 E37.5642
G1 X130.846 Y126.922 E37.58246
G1 X131.429 Y127.398 E37.60753
G1 X131.692 Y127.661 E37.61992
G1 X132.049 Y128.076 E37.63815
G1 X132.343 Y128.538 E37.65639
G1 X132.566 Y129.037 E37.6746
G1 X132.714 Y129.564 E37.69283
G1 X132.79 Y130.313 E37.71791
G1 X132.79 Y133.187 E37.81364
G1 X132.75 Y133.733 E37.83188
