;Generated by Cura LulzBot Edition GCodeWriter Version: 3.6.20
;FLAVOR:Marlin
;TIME:7272
;Filament used: 2.22862m
;Layer height: 0.18
;Generated with Cura_SteamEngine 3.6.20
M82 ;absolute extrusion mode
;This G-Code has been generated specifically for the LulzBot Mini 2 with SE 0.5mm Tool Head
M73 P0                  ; clear GLCD progress bar
M75 					; Start GLCD Print Timer
G26 					; clear potential 'probe fail' condition
M107 					; disable fans
M420 S0                 ; disable leveling matrix
G90 					; absolute positioning
M82 					; set extruder to absolute mode
G92 E0 					; set extruder position to 0
M140 S60.0 ; start bed heating up
G28 					; home all axes
G0 X0 Y187 Z156 F200 			; move away from endstops
M117 Mini 2 Wiping...			; progress indicator message on LCD
M109 R140 	; soften filament before retraction
G1 E-15 F75 				; retract filament
M109 R140 	; wait for extruder to reach wiping temp
G1 X45 Y176 F11520 			; move above wiper pad
G1 Z0 F1200 				; push nozzle into wiper
G1 X45 Y178 Z-.5 F4000		; wiping
G1 X55 Y176 Z-.5 F4000		; wiping
G1 X45 Y177 Z0 F4000		; wiping
G1 X55 Y176 F4000		; wiping
G1 X45 Y178 F4000		; wiping
G1 X55 Y176 F4000		; wiping
G1 X45 Y178 F4000		; wiping
G1 X55 Y176 F4000		; wiping
G1 X60 Y178 F4000		; wiping
G1 X80 Y176 F4000		; wiping
G1 X60 Y178 F4000		; wiping
G1 X80 Y176 F4000		; wiping
G1 X60 Y178 F4000		; wiping
G1 X90 Y176 F4000		; wiping
G1 X80 Y178 F4000		; wiping
G1 X100 Y176 F4000		; wiping
G1 X80 Y178 F4000		; wiping
G1 X100 Y176 F4000		; wiping
G1 X80 Y178 F4000		; wiping
G1 X100 Y176 F4000		; wiping
G1 X110 Y178 F4000		; wiping
G1 X100 Y176 F4000		; wiping
G1 X110 Y178 F4000		; wiping
G1 X100 Y176 F4000		; wiping
G1 X110 Y178 F4000		; wiping
G1 X115 Y176 Z-0.5 F1000	; wiping
G1 Z10					; raise extruder
G28 X0 Y0				; home X and Y
M109 R140	; wait for extruder to reach probe temp
M204 S300				; set probing acceleration
G29					; start auto-leveling sequence
M420 S1                     ; enable leveling matrix
M425 Z			     		; use measured Z backlash for compensation
M425 Z F0		     		; turn off measured Z backlash compensation. (if activated in the quality settings, this command will automatically be ignored)
M204 S2000				; restore standard acceleration
G1 X5 Y15 Z10 F5000			; move up off last probe point
G4 S1					; pause
M400					; wait for moves to finish
M117 Heating...				; progress indicator message on LCD
M109 R210 ; wait for extruder to reach initial printing temp
M190 R60.0 ; wait for bed to reach printing temp
G1 Z2 E0 F75				; prime tiny bit of filment into the nozzle
M117 Mini 2 Printing...		; progress indicator message on LCD

M221 S100 T0
G92 E0
G1 F600 E-1.75
;LAYER_COUNT:67
;LAYER:0
M107
G0 F2625 X49.294 Y32.785 Z0.425
;TYPE:SKIRT
G1 F600 E0
G1 F900 X51.297 Y29.704 E0.12241
G1 X51.417 Y29.532 E0.1294
G1 X53.32 Y26.981 E0.23541
G1 X53.456 Y26.81 E0.24269
G1 X56.279 Y23.513 E0.38727
G1 X56.434 Y23.345 E0.39488
G1 X59.003 Y20.739 E0.51678
G1 X59.144 Y20.604 E0.52328
G1 X61.257 Y18.704 E0.61794
G1 X61.394 Y18.588 E0.62392
G1 X63.895 Y16.578 E0.7308
G1 X64.072 Y16.445 E0.73817
G1 X67.675 Y13.933 E0.88448
G1 X67.868 Y13.808 E0.89214
G1 X70.984 Y11.948 E1.01302
G1 X71.167 Y11.847 E1.01998
G1 X74.051 Y10.368 E1.12794
G1 X74.268 Y10.267 E1.13592
G1 X79.03 Y8.252 E1.30816
G1 X79.254 Y8.166 E1.31615
G1 X81.911 Y7.267 E1.40958
G1 X82.081 Y7.215 E1.41551
G1 X85.216 Y6.342 E1.52391
G1 X85.387 Y6.299 E1.52978
G1 X88.164 Y5.686 E1.62451
G1 X88.371 Y5.648 E1.63152
G1 X92.63 Y4.993 E1.77506
G1 X92.856 Y4.966 E1.78264
G1 X96.502 Y4.664 E1.90451
G1 X96.713 Y4.653 E1.91154
G1 X99.965 Y4.596 E2.01989
G1 X100.184 Y4.6 E2.02718
G1 X104.484 Y4.814 E2.17059
G1 X104.711 Y4.833 E2.17818
G1 X108.36 Y5.273 E2.30061
G1 X108.565 Y5.305 E2.30752
G1 X111.695 Y5.887 E2.41357
G1 X111.867 Y5.924 E2.41943
G1 X114.647 Y6.598 E2.51472
G1 X114.851 Y6.654 E2.52176
G1 X118.99 Y7.948 E2.66622
G1 X119.207 Y8.024 E2.67387
G1 X122.619 Y9.362 E2.79596
G1 X122.809 Y9.444 E2.80285
G1 X125.688 Y10.791 E2.90873
G1 X125.884 Y10.891 E2.91606
G1 X129.738 Y13.023 E3.06277
G1 X129.935 Y13.141 E3.07042
G1 X132.989 Y15.124 E3.19171
G1 X133.163 Y15.246 E3.19879
G1 X135.762 Y17.186 E3.30682
G1 X135.899 Y17.294 E3.31263
G1 X138.097 Y19.127 E3.40797
G1 X138.218 Y19.233 E3.41333
G1 X140.234 Y21.09 E3.50463
G1 X140.386 Y21.239 E3.51172
G1 X143.403 Y24.407 E3.65744
G1 X143.554 Y24.578 E3.66504
G1 X145.866 Y27.376 E3.78595
G1 X145.995 Y27.542 E3.79295
G1 X147.899 Y30.175 E3.90118
G1 X148.022 Y30.358 E3.90853
G1 X150.332 Y34.059 E4.05385
G1 X150.446 Y34.257 E4.06146
G1 X152.148 Y37.465 E4.18243
G1 X152.24 Y37.653 E4.1894
G1 X153.57 Y40.604 E4.29723
G1 X153.637 Y40.762 E4.30294
G1 X154.634 Y43.329 E4.39467
G1 X154.704 Y43.528 E4.4017
G1 X156.022 Y47.707 E4.54766
G1 X156.083 Y47.932 E4.55543
G1 X156.948 Y51.562 E4.67973
G1 X156.988 Y51.751 E4.68617
G1 X157.464 Y54.453 E4.77756
G1 X157.49 Y54.628 E4.78345
G1 X157.875 Y57.819 E4.89051
G1 X157.894 Y58.039 E4.89787
G1 X158.12 Y62.385 E5.04283
G1 X158.123 Y62.615 E5.05049
G1 X158.054 Y66.305 E5.17343
G1 X158.044 Y66.514 E5.1804
G1 X157.777 Y69.711 E5.28726
G1 X157.751 Y69.93 E5.29461
G1 X157.101 Y74.203 E5.43858
G1 X157.064 Y74.404 E5.44539
G1 X156.465 Y77.161 E5.53937
G1 X156.419 Y77.345 E5.54569
G1 X155.418 Y80.928 E5.66961
G1 X155.355 Y81.131 E5.67669
G1 X154.287 Y84.173 E5.78408
G1 X154.207 Y84.376 E5.79135
G1 X152.483 Y88.398 E5.93711
G1 X152.357 Y88.66 E5.9468
G1 X149.717 Y93.556 E6.13208
G1 X149.58 Y93.786 E6.141
G1 X147.571 Y96.875 E6.26374
G1 X147.451 Y97.048 E6.27076
G1 X145.529 Y99.621 E6.37774
G1 X145.421 Y99.757 E6.38352
G1 X143.596 Y101.946 E6.47846
G1 X143.488 Y102.07 E6.48393
G1 X141.581 Y104.135 E6.57756
G1 X141.432 Y104.285 E6.58461
G1 X138.281 Y107.281 E6.72944
G1 X138.109 Y107.434 E6.73711
G1 X135.308 Y109.743 E6.85802
G1 X135.145 Y109.869 E6.86489
G1 X132.553 Y111.742 E6.97141
G1 X132.371 Y111.864 E6.97871
G1 X128.656 Y114.185 E7.12462
G1 X128.457 Y114.3 E7.13228
G1 X125.266 Y115.993 E7.25261
G1 X125.08 Y116.084 E7.2595
G1 X122.169 Y117.398 E7.36589
G1 X122.007 Y117.466 E7.37174
G1 X119.334 Y118.503 E7.46725
G1 X119.136 Y118.573 E7.47424
G1 X115.022 Y119.869 E7.61792
G1 X114.82 Y119.925 E7.6249
G1 X112.105 Y120.592 E7.71803
G1 X111.916 Y120.633 E7.72447
G1 X105.421 Y121.824 E7.94443
G1 X102.791 Y122.373 E8.03393
G1 X100.124 Y123.009 E8.12526
G1 X94.84 Y124.51 E8.30823
G1 X89.668 Y126.3 E8.49054
G1 X84.614 Y128.376 E8.67254
G1 X79.659 Y130.747 E8.85551
G1 X74.872 Y133.381 E9.03752
G1 X70.249 Y136.277 E9.21923
G1 X65.74 Y139.469 E9.40325
G1 X63.625 Y141.106 E9.49234
G1 X59.728 Y144.343 E9.66109
G1 X59.52 Y144.502 E9.66981
G1 X57.881 Y145.654 E9.73655
G1 X57.658 Y145.797 E9.74537
G1 X56.453 Y146.505 E9.79193
G1 X56.264 Y146.608 E9.79909
G1 X53.041 Y148.224 E9.91919
G1 X48.226 Y150.879 E10.10235
G1 X43.592 Y153.786 E10.28457
G1 X39.123 Y156.956 E10.46708
G1 X37.8 Y157.996 E10.52314
G1 X37.759 Y158.028 E10.52487
G1 X36.631 Y158.886 E10.57208
G1 X36.202 Y159.161 E10.58905
G1 X35.736 Y159.367 E10.60602
G1 X35.243 Y159.497 E10.62301
G1 X34.541 Y159.547 E10.64645
G1 X29.111 Y159.343 E10.82745
G1 X28.605 Y159.284 E10.84442
G1 X28.114 Y159.146 E10.86141
G1 X27.651 Y158.934 E10.87837
G1 X27.227 Y158.652 E10.89534
G1 X26.852 Y158.307 E10.91231
G1 X26.575 Y157.966 E10.92694
G1 X25.337 Y156.208 E10.99857
G1 X22.007 Y151.842 E11.18147
G1 X18.453 Y147.693 E11.36345
G1 X14.661 Y143.742 E11.54587
G1 X10.642 Y140.003 E11.72872
G1 X8.582 Y138.244 E11.81895
G1 X3.666 Y134.415 E12.02651
G1 X3.29 Y134.071 E12.04349
G1 X2.972 Y133.673 E12.06046
G1 X2.72 Y133.23 E12.07744
G1 X2.541 Y132.753 E12.09441
G1 X2.438 Y132.254 E12.11138
G1 X2.413 Y131.849 E12.12489
G1 X2.422 Y119.856 E12.52439
G1 X2.462 Y119.348 E12.54136
G1 X2.582 Y118.852 E12.55836
G1 X2.777 Y118.382 E12.57531
G1 X3.043 Y117.947 E12.59229
G1 X3.374 Y117.56 E12.60926
G1 X3.674 Y117.295 E12.62259
G1 X6.571 Y115.037 E12.74494
G1 X10.73 Y111.478 E12.92728
G1 X14.7 Y107.67 E13.11052
G1 X18.435 Y103.659 E13.29309
G1 X20.203 Y101.592 E13.38369
G1 X21.895 Y99.494 E13.47347
G1 X25.178 Y95.051 E13.65749
G1 X28.161 Y90.5 E13.83875
G1 X30.907 Y85.742 E14.02174
G1 X33.369 Y80.858 E14.20393
G1 X35.556 Y75.829 E14.3866
G1 X36.548 Y73.258 E14.47839
G1 X37.439 Y70.731 E14.56765
G1 X39.048 Y65.477 E14.75068
G1 X40.354 Y60.153 E14.93329
G1 X40.897 Y57.454 E15.02499
G1 X42.04 Y51.027 E15.24244
G1 X42.082 Y50.829 E15.24918
G1 X42.76 Y48.038 E15.34485
G1 X42.817 Y47.834 E15.35191
G1 X44.105 Y43.722 E15.49544
G1 X44.18 Y43.507 E15.50303
G1 X45.517 Y40.097 E15.62503
G1 X45.601 Y39.903 E15.63208
G1 X46.993 Y36.936 E15.74125
G1 X47.092 Y36.74 E15.74856
G1 X49.176 Y32.98 E15.89176
G1 X49.294 Y32.785 E15.89935
G1 F600 E14.14935
G0 F2625 X45.11 Y49.214
G0 X34.564 Y95.659
;TYPE:SUPPORT
G1 F600 E15.89935
G1 F900 X34.681 Y95.776 E15.90486
G1 X34.681 Y103.16 E16.15083
G1 X35.18 Y103.659 E16.17433
G1 X45.914 Y103.659 E16.53189
G1 X46.031 Y103.776 E16.5374
G1 X46.031 Y103.863 E16.5403
G1 X34.481 Y103.859 E16.92503
G1 X34.481 Y95.659 E17.19818
G1 X34.564 Y95.659 E17.20094
G1 F600 E15.45094
G0 F2625 X56.107 Y107.984
G0 X57.315 Y108.782
G0 X58.488 Y109.682
G0 X58.76 Y109.987
G0 X58.952 Y110.355
G0 X59.045 Y110.755
G0 X59.037 Y111.172
G0 X58.928 Y111.571
G0 X58.719 Y111.935
G0 X58.44 Y112.222
G0 X58.248 Y112.345
G0 X30.178 Y124.45
G1 F600 E17.20094
G1 F900 X30.255 Y124.6 E17.20656
G1 X30.382 Y125.047 E17.22204
G1 X30.194 Y126.998 E17.28732
G1 X30.248 Y127.123 E17.29186
G1 X30.202 Y127.23 E17.29574
G1 X30.178 Y127.266 E17.29718
G1 X30.155 Y127.07 E17.30375
G1 X30.106 Y125.935 E17.3416
G1 X30.155 Y124.641 E17.38473
G1 X30.178 Y124.45 E17.39114
G1 F600 E15.64114
G0 F2625 X58.146 Y139.301
G0 X58.489 Y139.534
G0 X58.769 Y139.848
G0 X58.955 Y140.216
G0 X59.048 Y140.619
G0 X59.038 Y141.033
G0 X58.924 Y141.436
G0 X58.718 Y141.792
G0 X58.462 Y142.059
G0 X57.299 Y142.946
G0 X56.1 Y143.738
G0 X54.846 Y144.449
G0 X53.558 Y145.066
G0 X52.199 Y145.605
G0 X50.868 Y146.03
G0 X49.369 Y146.394
G0 X48.252 Y146.584
G0 X34.481 Y147.859
G1 F600 E17.39114
G1 F900 X46.031 Y147.856 E17.77587
G1 X46.031 Y147.942 E17.77874
G1 X45.914 Y148.059 E17.78425
G1 X35.18 Y148.059 E18.1418
G1 X34.681 Y148.558 E18.16531
G1 X34.681 Y155.942 E18.41128
G1 X34.564 Y156.059 E18.41679
G1 X34.481 Y156.059 E18.41955
G1 X34.481 Y147.859 E18.6927
G1 F600 E16.9427
;MESH:
G0 F2625 X47.989 Y146.63
G0 X49.369 Y146.394
G0 X50.868 Y146.03
G0 X52.199 Y145.605
G0 X53.558 Y145.066
G0 X54.846 Y144.449
G0 X56.1 Y143.738
G0 X57.299 Y142.946
G0 X58.462 Y142.059
G0 X58.718 Y141.792
G0 X58.924 Y141.436
G0 X59.038 Y141.033
G0 X59.045 Y110.755
G0 X56.883 Y99.87
G0 X57.948 Y98.909
G0 X51.849 Y72.305
G0 X51.409 Y69.549
G0 X51.129 Y66.771
G0 X51.008 Y63.983
G0 X51.047 Y61.194
G0 X51.248 Y58.409
G0 X51.609 Y55.641
G0 X52.129 Y52.899
G0 X52.806 Y50.19
G0 X53.64 Y47.525
G0 X54.622 Y44.912
G0 X55.755 Y42.362
G0 X57.033 Y39.879
G0 X58.453 Y37.475
G0 X60.008 Y35.157
G0 X61.693 Y32.932
G0 X63.505 Y30.809
G0 X65.436 Y28.792
G0 X67.48 Y26.889
G0 X69.63 Y25.11
G0 X71.88 Y23.456
G0 X74.22 Y21.933
G0 X76.644 Y20.549
G0 X79.144 Y19.308
G0 X81.711 Y18.211
G0 X84.338 Y17.264
G0 X87.015 Y16.472
G0 X88.555 Y16.111
G0 X92.474 Y15.293
G0 X92.488 Y15.391
;TYPE:WALL-INNER
G1 F600 E18.6927
G1 F900 X89.74 Y15.872 E18.78563
G1 X87.025 Y16.51 E18.87853
G1 X84.35 Y17.302 E18.97145
G1 X81.725 Y18.248 E19.0644
G1 X79.16 Y19.344 E19.15731
G1 X76.662 Y20.584 E19.25021
G1 X74.24 Y21.967 E19.34311
G1 X71.902 Y23.488 E19.43602
G1 X69.654 Y25.141 E19.52897
G1 X67.506 Y26.919 E19.62185
G1 X65.464 Y28.82 E19.71479
G1 X63.534 Y30.835 E19.80773
G1 X61.724 Y32.957 E19.90063
G1 X60.04 Y35.18 E19.99353
G1 X58.486 Y37.496 E20.08643
G1 X57.068 Y39.898 E20.17935
G1 X55.791 Y42.379 E20.2723
G1 X54.659 Y44.927 E20.36517
G1 X53.677 Y47.538 E20.45809
G1 X52.844 Y50.2 E20.551
G1 X52.168 Y52.907 E20.64394
G1 X51.648 Y55.647 E20.73684
G1 X51.287 Y58.413 E20.82976
G1 X51.086 Y61.195 E20.92267
G1 X51.047 Y63.983 E21.01555
G1 X51.168 Y66.769 E21.10844
G1 X51.448 Y69.544 E21.20135
G1 X51.888 Y72.298 E21.29425
G1 X52.487 Y75.023 E21.38718
G1 X53.241 Y77.709 E21.48011
G1 X54.149 Y80.345 E21.57298
G1 X55.206 Y82.927 E21.66592
G1 X56.412 Y85.443 E21.75886
G1 X57.76 Y87.884 E21.85174
G1 X59.247 Y90.245 E21.94469
G1 X60.866 Y92.516 E22.03759
G1 X62.614 Y94.689 E22.13049
G1 X64.485 Y96.758 E22.22341
G1 X66.471 Y98.716 E22.31631
G1 X68.567 Y100.557 E22.40923
G1 X70.767 Y102.274 E22.50219
G1 X73.06 Y103.86 E22.59506
G1 X75.441 Y105.312 E22.68796
G1 X77.902 Y106.626 E22.78089
G1 X80.436 Y107.795 E22.87385
G1 X83.03 Y108.815 E22.96669
G1 X85.669 Y109.682 E23.05922
G1 X88.378 Y110.4 E23.15258
G1 X91.11 Y110.96 E23.24547
G1 X93.87 Y111.36 E23.33837
G1 X96.65 Y111.601 E23.43132
G1 X99.437 Y111.681 E23.52419
G1 X102.224 Y111.601 E23.61707
G1 X105.004 Y111.36 E23.71002
G1 X107.763 Y110.96 E23.80288
G1 X110.496 Y110.4 E23.89581
G1 X113.205 Y109.682 E23.98916
G1 X115.844 Y108.815 E24.08169
G1 X118.438 Y107.795 E24.17454
G1 X120.972 Y106.626 E24.2675
G1 X123.432 Y105.312 E24.3604
G1 X125.814 Y103.86 E24.45332
G1 X128.107 Y102.274 E24.54619
G1 X130.307 Y100.557 E24.63915
G1 X132.403 Y98.716 E24.73208
G1 X134.389 Y96.758 E24.82498
G1 X136.259 Y94.689 E24.91788
G1 X138.007 Y92.516 E25.01077
G1 X139.627 Y90.245 E25.10369
G1 X141.114 Y87.884 E25.19664
G1 X142.462 Y85.443 E25.28952
G1 X143.667 Y82.927 E25.38245
G1 X144.725 Y80.345 E25.4754
G1 X145.633 Y77.709 E25.56827
G1 X146.387 Y75.023 E25.6612
G1 X146.986 Y72.298 E25.75413
G1 X147.426 Y69.544 E25.84703
G1 X147.706 Y66.769 E25.93994
G1 X147.827 Y63.983 E26.03283
G1 X147.787 Y61.195 E26.12571
G1 X147.587 Y58.413 E26.21862
G1 X147.226 Y55.647 E26.31154
G1 X146.706 Y52.907 E26.40443
G1 X146.03 Y50.2 E26.49737
G1 X145.197 Y47.538 E26.59029
G1 X144.215 Y44.927 E26.68321
G1 X143.083 Y42.379 E26.77608
G1 X141.806 Y39.898 E26.86903
G1 X140.388 Y37.496 E26.96194
G1 X138.834 Y35.18 E27.05485
G1 X137.15 Y32.957 E27.14774
G1 X135.34 Y30.835 E27.24065
G1 X133.41 Y28.82 E27.33359
G1 X131.368 Y26.919 E27.42652
G1 X129.22 Y25.141 E27.51941
G1 X126.972 Y23.488 E27.61235
G1 X124.634 Y21.967 E27.70526
G1 X122.212 Y20.584 E27.79817
G1 X119.714 Y19.344 E27.89106
G1 X117.149 Y18.248 E27.98398
G1 X114.524 Y17.302 E28.07692
G1 X111.849 Y16.51 E28.16985
G1 X109.134 Y15.872 E28.26275
G1 X106.386 Y15.391 E28.35568
G1 X103.616 Y15.072 E28.44856
G1 X100.83 Y14.911 E28.54152
G1 X98.044 Y14.911 E28.63432
G1 X95.258 Y15.072 E28.72728
G1 X92.488 Y15.391 E28.82016
G0 F2625 X92.474 Y15.293
G0 X102.205 Y8.751
G0 X102.21 Y8.652
G1 F900 X104.974 Y8.862 E28.91249
G1 X107.729 Y9.214 E29.00501
G1 X110.441 Y9.699 E29.09678
G1 X113.147 Y10.327 E29.18931
G1 X115.816 Y11.091 E29.28179
G1 X118.445 Y11.989 E29.37433
G1 X121.018 Y13.017 E29.46663
G1 X123.526 Y14.17 E29.55857
G1 X125.98 Y15.452 E29.6508
G1 X128.379 Y16.864 E29.74353
G1 X130.683 Y18.382 E29.83543
G1 X132.927 Y20.03 E29.92817
G1 X135.062 Y21.771 E30.01994
G1 X137.122 Y23.632 E30.11241
G1 X139.091 Y25.601 E30.20517
G1 X140.957 Y27.667 E30.2979
G1 X142.685 Y29.785 E30.38896
G1 X144.34 Y32.039 E30.4821
G1 X145.859 Y34.343 E30.57403
G1 X147.266 Y36.735 E30.66647
G1 X148.56 Y39.211 E30.75953
G1 X149.712 Y41.718 E30.85143
G1 X150.73 Y44.268 E30.94289
G1 X151.631 Y46.903 E31.03566
G1 X152.397 Y49.579 E31.12837
G1 X153.023 Y52.281 E31.22076
G1 X153.508 Y54.982 E31.31217
G1 X153.86 Y57.745 E31.40495
G1 X154.072 Y60.52 E31.49766
G1 X154.142 Y63.279 E31.58959
G1 X154.072 Y66.052 E31.68199
G1 X153.86 Y68.823 E31.77456
G1 X153.511 Y71.568 E31.86674
G1 X153.023 Y74.29 E31.95885
G1 X152.397 Y76.993 E32.05127
G1 X151.632 Y79.665 E32.14386
G1 X150.731 Y82.3 E32.23662
G1 X149.712 Y84.852 E32.32815
G1 X148.553 Y87.375 E32.42064
G1 X147.271 Y89.829 E32.51286
G1 X145.859 Y92.228 E32.60559
G1 X144.347 Y94.522 E32.69711
G1 X142.701 Y96.764 E32.78976
G1 X140.941 Y98.922 E32.88252
G1 X139.083 Y100.98 E32.97487
G1 X137.122 Y102.94 E33.06723
G1 X135.085 Y104.781 E33.15869
G1 X132.917 Y106.548 E33.25185
G1 X130.685 Y108.188 E33.34411
G1 X128.379 Y109.708 E33.43611
G1 X125.98 Y111.12 E33.52884
G1 X123.526 Y112.402 E33.62106
