;Generated by Cura LulzBot Edition GCodeWriter Version: 3.6.20
;FLAVOR:Marlin
;TIME:8819
;Filament used: 4.50522m
;Layer height: 0.25
;Generated with Cura_SteamEngine 3.6.20
M82 ;absolute extrusion mode
;This G-Code has been generated specifically for the LulzBot Mini 2 with SE 0.5mm Tool Head
M73 P0                  ; clear GLCD progress bar
M75 					; Start GLCD Print Timer
G26 					; clear potential 'probe fail' condition
M107 					; disable fans
M420 S0                 ; disable leveling matrix
G90 					; absolute positioning
M82 					; set extruder to absolute mode
G92 E0 					; set extruder position to 0
M140 S60.0 ; start bed heating up
G28 					; home all axes
G0 X0 Y187 Z156 F200 			; move away from endstops
M117 Mini 2 Wiping...			; progress indicator message on LCD
M109 R140 	; soften filament before retraction
G1 E-15 F75 				; retract filament
M109 R140 	; wait for extruder to reach wiping temp
G1 X45 Y176 F11520 			; move above wiper pad
G1 Z0 F1200 				; push nozzle into wiper
G1 X45 Y178 Z-.5 F4000		; wiping
G1 X55 Y176 Z-.5 F4000		; wiping
G1 X45 Y177 Z0 F4000		; wiping
G1 X55 Y176 F4000		; wiping
G1 X45 Y178 F4000		; wiping
G1 X55 Y176 F4000		; wiping
G1 X45 Y178 F4000		; wiping
G1 X55 Y176 F4000		; wiping
G1 X60 Y178 F4000		; wiping
G1 X80 Y176 F4000		; wiping
G1 X60 Y178 F4000		; wiping
G1 X80 Y176 F4000		; wiping
G1 X60 Y178 F4000		; wiping
G1 X90 Y176 F4000		; wiping
G1 X80 Y178 F4000		; wiping
G1 X100 Y176 F4000		; wiping
G1 X80 Y178 F4000		; wiping
G1 X100 Y176 F4000		; wiping
G1 X80 Y178 F4000		; wiping
G1 X100 Y176 F4000		; wiping
G1 X110 Y178 F4000		; wiping
G1 X100 Y176 F4000		; wiping
G1 X110 Y178 F4000		; wiping
G1 X100 Y176 F4000		; wiping
G1 X110 Y178 F4000		; wiping
G1 X115 Y176 Z-0.5 F1000	; wiping
G1 Z10					; raise extruder
G28 X0 Y0				; home X and Y
M109 R140	; wait for extruder to reach probe temp
M204 S300				; set probing acceleration
G29					; start auto-leveling sequence
M420 S1                     ; enable leveling matrix
M425 Z			     		; use measured Z backlash for compensation
M425 Z F0		     		; turn off measured Z backlash compensation. (if activated in the quality settings, this command will automatically be ignored)
M204 S2000				; restore standard acceleration
G1 X5 Y15 Z10 F5000			; move up off last probe point
G4 S1					; pause
M400					; wait for moves to finish
M117 Heating...				; progress indicator message on LCD
M109 R210 ; wait for extruder to reach initial printing temp
M190 R60.0 ; wait for bed to reach printing temp
G1 Z2 E0 F75				; prime tiny bit of filment into the nozzle
M117 Mini 2 Printing...		; progress indicator message on LCD

M221 S100 T0
G92 E0
G1 F600 E-1.75
;LAYER_COUNT:30
;LAYER:0
M107
G0 F2625 X19.387 Y30.552 Z0.425
;TYPE:SKIRT
G1 F600 E0
G1 F900 X19.939 Y30.278 E0.02053
G1 X20.521 Y30.077 E0.04104
G1 X21.125 Y29.954 E0.06157
G1 X21.771 Y29.91 E0.08314
G1 X140.229 Y29.91 E4.02902
G1 X140.844 Y29.95 E4.04955
G1 X141.448 Y30.069 E4.07005
G1 X142.032 Y30.266 E4.09058
G1 X142.586 Y30.536 E4.11111
G1 X143.1 Y30.876 E4.13164
G1 X143.588 Y31.301 E4.1532
G1 X143.734 Y31.447 E4.16007
G1 X144.14 Y31.91 E4.18059
G1 X144.483 Y32.422 E4.20111
G1 X144.757 Y32.974 E4.22164
G1 X144.958 Y33.556 E4.24215
G1 X145.081 Y34.16 E4.26269
G1 X145.125 Y34.806 E4.28425
G1 X145.125 Y127.194 E7.36173
G1 X145.085 Y127.809 E7.38226
G1 X144.966 Y128.413 E7.40277
G1 X144.769 Y128.997 E7.4233
G1 X144.499 Y129.551 E7.44383
G1 X144.159 Y130.065 E7.46435
G1 X143.734 Y130.553 E7.48591
G1 X143.588 Y130.699 E7.49279
G1 X143.125 Y131.105 E7.5133
G1 X142.613 Y131.448 E7.53383
G1 X142.061 Y131.722 E7.55436
G1 X141.479 Y131.923 E7.57487
G1 X140.875 Y132.046 E7.5954
G1 X140.229 Y132.09 E7.61697
G1 X21.771 Y132.09 E11.56285
G1 X21.156 Y132.05 E11.58338
G1 X20.552 Y131.931 E11.60388
G1 X19.968 Y131.734 E11.62441
G1 X19.414 Y131.464 E11.64494
G1 X18.9 Y131.124 E11.66547
G1 X18.412 Y130.699 E11.68703
G1 X18.266 Y130.553 E11.6939
G1 X17.86 Y130.09 E11.71442
G1 X17.517 Y129.578 E11.73494
G1 X17.243 Y129.026 E11.75547
G1 X17.042 Y128.444 E11.77598
G1 X16.919 Y127.84 E11.79651
G1 X16.875 Y127.194 E11.81808
G1 X16.875 Y34.806 E14.89556
G1 X16.915 Y34.191 E14.91609
G1 X17.034 Y33.587 E14.9366
G1 X17.231 Y33.003 E14.95713
G1 X17.501 Y32.449 E14.97765
G1 X17.841 Y31.935 E14.99818
G1 X18.266 Y31.447 E15.01974
G1 X18.412 Y31.301 E15.02662
G1 X18.875 Y30.895 E15.04713
G1 X19.387 Y30.552 E15.06766
G0 F2625 X19.693 Y30.953
G1 F900 X20.219 Y30.703 E15.08706
G1 X20.775 Y30.528 E15.10647
G1 X21.35 Y30.431 E15.1259
G1 X21.771 Y30.41 E15.13994
G1 X140.229 Y30.41 E19.08582
G1 X140.81 Y30.45 E19.10522
G1 X141.381 Y30.569 E19.12465
G1 X141.93 Y30.765 E19.14406
G1 X142.446 Y31.034 E19.16345
G1 X142.922 Y31.372 E19.18289
G1 X143.234 Y31.655 E19.19692
G1 X143.38 Y31.801 E19.2038
G1 X143.763 Y32.24 E19.22321
G1 X144.082 Y32.728 E19.24263
G1 X144.332 Y33.254 E19.26203
G1 X144.507 Y33.81 E19.28144
G1 X144.604 Y34.385 E19.30087
G1 X144.625 Y34.806 E19.31491
G1 X144.625 Y127.194 E22.39239
G1 X144.585 Y127.775 E22.41179
G1 X144.466 Y128.346 E22.43122
G1 X144.27 Y128.895 E22.45063
G1 X144.001 Y129.411 E22.47002
G1 X143.663 Y129.887 E22.48946
G1 X143.38 Y130.199 E22.50349
G1 X143.234 Y130.345 E22.51037
G1 X142.795 Y130.728 E22.52978
G1 X142.307 Y131.047 E22.5492
G1 X141.781 Y131.297 E22.5686
G1 X141.225 Y131.472 E22.58801
G1 X140.65 Y131.569 E22.60744
G1 X140.229 Y131.59 E22.62148
G1 X21.771 Y131.59 E26.56736
G1 X21.19 Y131.55 E26.58676
G1 X20.619 Y131.431 E26.60619
G1 X20.07 Y131.235 E26.6256
G1 X19.554 Y130.966 E26.64499
G1 X19.078 Y130.628 E26.66443
G1 X18.766 Y130.345 E26.67847
G1 X18.62 Y130.199 E26.68534
G1 X18.237 Y129.76 E26.70475
G1 X17.918 Y129.272 E26.72417
G1 X17.668 Y128.746 E26.74357
G1 X17.493 Y128.19 E26.76299
G1 X17.396 Y127.615 E26.78241
G1 X17.375 Y127.194 E26.79645
G1 X17.375 Y34.806 E29.87393
G1 X17.415 Y34.225 E29.89333
G1 X17.534 Y33.654 E29.91276
G1 X17.73 Y33.105 E29.93217
G1 X17.999 Y32.589 E29.95156
G1 X18.337 Y32.113 E29.971
G1 X18.62 Y31.801 E29.98504
G1 X18.766 Y31.655 E29.99191
G1 X19.205 Y31.272 E30.01132
G1 X19.693 Y30.953 E30.03074
G0 F2625 X19.996 Y31.357
G1 F900 X20.495 Y31.134 E30.04895
G1 X21.022 Y30.986 E30.06718
G1 X21.771 Y30.91 E30.09226
G1 X140.229 Y30.91 E34.03814
G1 X140.775 Y30.95 E34.05637
G1 X141.309 Y31.069 E34.0746
G1 X141.82 Y31.264 E34.09282
G1 X142.298 Y31.532 E34.11107
G1 X142.881 Y32.008 E34.13614
G1 X143.027 Y32.154 E34.14302
G1 X143.384 Y32.569 E34.16125
G1 X143.678 Y33.031 E34.17949
G1 X143.901 Y33.53 E34.1977
G1 X144.049 Y34.057 E34.21593
G1 X144.125 Y34.806 E34.24101
G1 X144.125 Y127.194 E37.31849
G1 X144.085 Y127.74 E37.33673
G1 X143.966 Y128.274 E37.35495
G1 X143.771 Y128.785 E37.37317
G1 X143.503 Y129.263 E37.39142
G1 X143.027 Y129.846 E37.41649
G1 X142.881 Y129.992 E37.42337
G1 X142.466 Y130.349 E37.44161
G1 X142.004 Y130.643 E37.45985
G1 X141.505 Y130.866 E37.47805
G1 X140.978 Y131.014 E37.49629
G1 X140.229 Y131.09 E37.52136
G1 X21.771 Y131.09 E41.46724
G1 X21.225 Y131.05 E41.48548
G1 X20.691 Y130.931 E41.5037
G1 X20.18 Y130.736 E41.52192
G1 X19.702 Y130.468 E41.54018
G1 X19.119 Y129.992 E41.56525
G1 X18.973 Y129.846 E41.57213
G1 X18.616 Y129.431 E41.59036
G1 X18.322 Y128.969 E41.6086
G1 X18.099 Y128.47 E41.62681
G1 X17.951 Y127.943 E41.64504
G1 X17.875 Y127.194 E41.67012
G1 X17.875 Y34.806 E44.7476
G1 X17.915 Y34.26 E44.76583
G1 X18.034 Y33.726 E44.78406
G1 X18.229 Y33.215 E44.80228
G1 X18.497 Y32.737 E44.82053
G1 X18.973 Y32.154 E44.8456
G1 X19.119 Y32.008 E44.85248
G1 X19.534 Y31.651 E44.87071
G1 X19.996 Y31.357 E44.88895
G0 F2625 X20.295 Y31.765
G1 F900 X20.765 Y31.57 E44.9059
G1 X21.261 Y31.45 E44.9229
G1 X21.771 Y31.41 E44.93994
G1 X140.229 Y31.41 E48.88582
G1 X140.737 Y31.45 E48.9028
G1 X141.232 Y31.569 E48.91975
G1 X141.703 Y31.764 E48.93673
G1 X142.138 Y32.03 E48.95372
G1 X142.527 Y32.362 E48.97075
G1 X142.673 Y32.508 E48.97763
G1 X143.004 Y32.895 E48.9946
G1 X143.27 Y33.33 E49.01158
G1 X143.465 Y33.8 E49.02853
G1 X143.585 Y34.296 E49.04553
G1 X143.625 Y34.806 E49.06257
G1 X143.625 Y127.194 E52.14005
G1 X143.585 Y127.702 E52.15702
G1 X143.466 Y128.197 E52.17398
G1 X143.271 Y128.668 E52.19096
G1 X143.005 Y129.103 E52.20794
G1 X142.673 Y129.492 E52.22498
G1 X142.527 Y129.638 E52.23186
G1 X142.14 Y129.969 E52.24882
G1 X141.705 Y130.235 E52.2658
G1 X141.235 Y130.43 E52.28275
G1 X140.739 Y130.55 E52.29975
G1 X140.229 Y130.59 E52.31679
G1 X21.771 Y130.59 E56.26267
G1 X21.263 Y130.55 E56.27965
G1 X20.768 Y130.431 E56.2966
G1 X20.297 Y130.236 E56.31359
G1 X19.862 Y129.97 E56.33057
G1 X19.473 Y129.638 E56.34761
G1 X19.327 Y129.492 E56.35448
G1 X18.996 Y129.105 E56.37145
G1 X18.73 Y128.67 E56.38843
G1 X18.535 Y128.2 E56.40538
G1 X18.415 Y127.704 E56.42238
G1 X18.375 Y127.194 E56.43942
G1 X18.375 Y34.806 E59.5169
G1 X18.415 Y34.298 E59.53387
G1 X18.534 Y33.803 E59.55083
G1 X18.729 Y33.332 E59.56781
G1 X18.995 Y32.897 E59.58479
G1 X19.327 Y32.508 E59.60183
G1 X19.473 Y32.362 E59.60871
G1 X19.86 Y32.031 E59.62567
G1 X20.295 Y31.765 E59.64266
G0 F2625 X20.589 Y32.177
G1 F900 X21.028 Y32.012 E59.65828
G1 X21.488 Y31.925 E59.67387
G1 X21.771 Y31.91 E59.68331
G1 X140.229 Y31.91 E63.62919
G1 X140.696 Y31.95 E63.6448
G1 X141.149 Y32.069 E63.6604
G1 X141.576 Y32.262 E63.67601
G1 X141.963 Y32.526 E63.69162
G1 X142.174 Y32.715 E63.70105
G1 X142.32 Y32.861 E63.70793
G1 X142.621 Y33.22 E63.72354
G1 X142.858 Y33.624 E63.73914
G1 X143.023 Y34.063 E63.75476
G1 X143.11 Y34.523 E63.77036
G1 X143.125 Y34.806 E63.7798
G1 X143.125 Y127.194 E66.85727
G1 X143.085 Y127.661 E66.87289
G1 X142.966 Y128.114 E66.88849
G1 X142.773 Y128.541 E66.9041
G1 X142.509 Y128.928 E66.9197
G1 X142.32 Y129.139 E66.92914
G1 X142.174 Y129.285 E66.93602
G1 X141.815 Y129.586 E66.95162
G1 X141.411 Y129.823 E66.96722
G1 X140.972 Y129.988 E66.98285
G1 X140.512 Y130.075 E66.99844
G1 X140.229 Y130.09 E67.00788
G1 X21.771 Y130.09 E70.95376
G1 X21.304 Y130.05 E70.96937
G1 X20.851 Y129.931 E70.98497
G1 X20.424 Y129.738 E71.00058
G1 X20.037 Y129.474 E71.01619
G1 X19.826 Y129.285 E71.02562
G1 X19.68 Y129.139 E71.0325
G1 X19.379 Y128.78 E71.04811
G1 X19.142 Y128.376 E71.06371
G1 X18.977 Y127.937 E71.07933
G1 X18.89 Y127.477 E71.09492
G1 X18.875 Y127.194 E71.10436
G1 X18.875 Y34.806 E74.18184
G1 X18.915 Y34.339 E74.19746
G1 X19.034 Y33.886 E74.21306
G1 X19.227 Y33.459 E74.22867
G1 X19.491 Y33.072 E74.24427
G1 X19.68 Y32.861 E74.25371
G1 X19.826 Y32.715 E74.26058
G1 X20.185 Y32.414 E74.27619
G1 X20.589 Y32.177 E74.29179
G0 F2625 X20.507 Y32.799
G1 F900 X20.878 Y32.595 E74.3059
G1 X21.281 Y32.464 E74.32001
G1 X21.771 Y32.41 E74.33643
G1 X140.229 Y32.41 E78.28231
G1 X140.651 Y32.45 E78.29643
G1 X141.058 Y32.568 E78.31055
G1 X141.435 Y32.761 E78.32465
G1 X141.82 Y33.069 E78.34108
G1 X141.966 Y33.215 E78.34795
G1 X142.236 Y33.542 E78.36208
G1 X142.44 Y33.913 E78.37618
G1 X142.571 Y34.316 E78.3903
G1 X142.625 Y34.806 E78.40672
G1 X142.625 Y127.194 E81.4842
G1 X142.585 Y127.616 E81.49832
G1 X142.467 Y128.023 E81.51243
G1 X142.274 Y128.4 E81.52654
G1 X141.966 Y128.785 E81.54296
G1 X141.82 Y128.931 E81.54984
G1 X141.493 Y129.201 E81.56397
G1 X141.122 Y129.405 E81.57807
G1 X140.719 Y129.536 E81.59219
G1 X140.229 Y129.59 E81.60861
G1 X21.771 Y129.59 E85.55449
G1 X21.349 Y129.55 E85.56861
G1 X20.942 Y129.432 E85.58272
G1 X20.565 Y129.239 E85.59683
G1 X20.18 Y128.931 E85.61325
G1 X20.034 Y128.785 E85.62013
G1 X19.764 Y128.458 E85.63426
G1 X19.56 Y128.087 E85.64836
G1 X19.429 Y127.684 E85.66248
G1 X19.375 Y127.194 E85.6789
G1 X19.375 Y34.806 E88.75637
G1 X19.415 Y34.384 E88.77049
G1 X19.533 Y33.977 E88.78461
G1 X19.726 Y33.6 E88.79872
G1 X20.034 Y33.215 E88.81514
G1 X20.18 Y33.069 E88.82202
G1 X20.507 Y32.799 E88.83614
G0 F2625 X20.824 Y33.188
G1 F900 X21.158 Y33.021 E88.84858
G1 X21.52 Y32.928 E88.86103
G1 X21.771 Y32.91 E88.86942
G1 X140.229 Y32.91 E92.81529
G1 X140.6 Y32.95 E92.82772
G1 X140.955 Y33.068 E92.84019
G1 X141.277 Y33.258 E92.85264
G1 X141.466 Y33.423 E92.861
G1 X141.612 Y33.569 E92.86787
G1 X141.847 Y33.859 E92.88031
G1 X142.014 Y34.193 E92.89275
G1 X142.107 Y34.555 E92.9052
G1 X142.125 Y34.806 E92.91358
G1 X142.125 Y127.194 E95.99106
G1 X142.085 Y127.565 E96.00349
G1 X141.967 Y127.92 E96.01595
G1 X141.777 Y128.242 E96.0284
G1 X141.612 Y128.431 E96.03676
G1 X141.466 Y128.577 E96.04364
G1 X141.176 Y128.812 E96.05607
G1 X140.842 Y128.979 E96.06851
G1 X140.48 Y129.072 E96.08096
G1 X140.229 Y129.09 E96.08934
G1 X21.771 Y129.09 E100.03522
G1 X21.4 Y129.05 E100.04765
G1 X21.045 Y128.932 E100.06011
G1 X20.723 Y128.742 E100.07256
G1 X20.534 Y128.577 E100.08092
G1 X20.388 Y128.431 E100.0878
G1 X20.153 Y128.141 E100.10023
G1 X19.986 Y127.807 E100.11267
G1 X19.893 Y127.445 E100.12512
G1 X19.875 Y127.194 E100.1335
G1 X19.875 Y34.806 E103.21098
G1 X19.915 Y34.435 E103.22341
G1 X20.033 Y34.08 E103.23587
G1 X20.223 Y33.758 E103.24833
G1 X20.388 Y33.569 E103.25668
G1 X20.534 Y33.423 E103.26356
G1 X20.824 Y33.188 E103.276
G0 F2625 X21.137 Y33.583
G1 F900 X21.427 Y33.458 E103.28651
G1 X21.771 Y33.41 E103.29808
G1 X140.229 Y33.41 E107.24396
G1 X140.542 Y33.45 E107.25447
G1 X140.835 Y33.567 E107.26498
G1 X141.113 Y33.776 E107.27657
G1 X141.259 Y33.922 E107.28345
G1 X141.452 Y34.172 E107.29397
G1 X141.577 Y34.462 E107.30449
G1 X141.625 Y34.806 E107.31606
G1 X141.625 Y127.194 E110.39353
G1 X141.585 Y127.507 E110.40404
G1 X141.468 Y127.8 E110.41455
G1 X141.259 Y128.078 E110.42614
G1 X141.113 Y128.224 E110.43302
G1 X140.863 Y128.417 E110.44354
G1 X140.573 Y128.542 E110.45406
G1 X140.229 Y128.59 E110.46563
G1 X21.771 Y128.59 E114.41151
G1 X21.458 Y128.55 E114.42202
G1 X21.165 Y128.433 E114.43253
G1 X20.887 Y128.224 E114.44411
G1 X20.741 Y128.078 E114.45099
G1 X20.548 Y127.828 E114.46151
G1 X20.423 Y127.538 E114.47203
G1 X20.375 Y127.194 E114.4836
G1 X20.375 Y34.806 E117.56108
G1 X20.415 Y34.493 E117.57159
G1 X20.532 Y34.2 E117.5821
G1 X20.741 Y33.922 E117.59368
G1 X20.887 Y33.776 E117.60056
G1 X21.137 Y33.583 E117.61108
G0 F2625 X21.439 Y33.987
G1 F900 X21.771 Y33.91 E117.62243
G1 X140.229 Y33.91 E121.56831
G1 X140.47 Y33.95 E121.57645
G1 X140.759 Y34.13 E121.58779
G1 X140.905 Y34.276 E121.59467
G1 X141.048 Y34.474 E121.6028
G1 X141.125 Y34.806 E121.61416
G1 X141.125 Y127.194 E124.69163
G1 X141.085 Y127.435 E124.69977
G1 X140.905 Y127.724 E124.71111
G1 X140.759 Y127.87 E124.71799
G1 X140.561 Y128.013 E124.72613
G1 X140.229 Y128.09 E124.73748
G1 X21.771 Y128.09 E128.68336
G1 X21.53 Y128.05 E128.69149
G1 X21.241 Y127.87 E128.70284
G1 X21.095 Y127.724 E128.70971
G1 X20.952 Y127.526 E128.71785
G1 X20.875 Y127.194 E128.7292
G1 X20.875 Y34.806 E131.80668
G1 X20.915 Y34.565 E131.81482
G1 X21.095 Y34.276 E131.82616
G1 X21.241 Y34.13 E131.83304
G1 X21.439 Y33.987 E131.84117
G0 F2625 X21.594 Y34.483
G1 F900 X21.771 Y34.41 E131.84755
G1 X140.229 Y34.41 E135.79343
G1 X140.406 Y34.483 E135.79981
G1 X140.552 Y34.629 E135.80668
G1 X140.625 Y34.806 E135.81306
G1 X140.625 Y127.194 E138.89054
G1 X140.552 Y127.371 E138.89692
G1 X140.406 Y127.517 E138.90379
G1 X140.229 Y127.59 E138.91017
G1 X21.771 Y127.59 E142.85605
G1 X21.594 Y127.517 E142.86243
G1 X21.448 Y127.371 E142.86931
G1 X21.375 Y127.194 E142.87568
G1 X21.375 Y34.806 E145.95316
G1 X21.448 Y34.629 E145.95954
G1 X21.594 Y34.483 E145.96642
G1 F600 E144.21642
G0 F2625 X21.594 Y33.995
G0 X21.711 Y34.033
G0 X21.753 Y34.046
G0 X51.833 Y43.805
G0 X51.875 Y43.818
G0 X52.964 Y44.173
;TYPE:SUPPORT
G1 F600 E145.96642
G1 F900 X53.714 Y42.871 E146.01647
G1 X55.214 Y42.87 E146.06643
G1 X55.966 Y44.168 E146.1164
G1 X55.216 Y45.47 E146.16645
G1 X53.716 Y45.471 E146.21642
G1 X52.964 Y44.173 E146.26639
G0 F2625 X53.344 Y43.915
G1 F900 X53.344 Y44.431 E146.28358
G0 F2625 X53.679 Y45.009
G1 F900 X55.25 Y45.009 E146.33591
G0 F2625 X55.011 Y45.271
G1 F900 X55.011 Y43.07 E146.40922
G0 F2625 X55.257 Y43.342
G1 F900 X53.674 Y43.342 E146.46195
G1 F600 E144.71195
G0 F2625 X56.808 Y43.384
G0 X56.852 Y43.384
G0 X113.956 Y44.157
G0 X114 Y44.157
G0 X115.284 Y44.176
G1 F600 E146.46195
G1 F900 X116.029 Y42.873 E146.51195
G1 X117.531 Y42.868 E146.56198
G1 X118.286 Y44.165 E146.61197
