;Generated by Cura LulzBot Edition GCodeWriter Version: 3.6.20
;FLAVOR:Marlin
;TIME:1939
;Filament used: 0.777384m
;Layer height: 0.25
;Generated with Cura_SteamEngine 3.6.20
M82 ;absolute extrusion mode
;This G-Code has been generated specifically for the LulzBot Mini 2 with SE 0.5mm Tool Head
M73 P0                  ; clear GLCD progress bar
M75 					; Start GLCD Print Timer
G26 					; clear potential 'probe fail' condition
M107 					; disable fans
M420 S0                 ; disable leveling matrix
G90 					; absolute positioning
M82 					; set extruder to absolute mode
G92 E0 					; set extruder position to 0
M140 S60.0 ; start bed heating up
G28 					; home all axes
G0 X0 Y187 Z156 F200 			; move away from endstops
M117 Mini 2 Wiping...			; progress indicator message on LCD
M109 R140 	; soften filament before retraction
G1 E-15 F75 				; retract filament
M109 R140 	; wait for extruder to reach wiping temp
G1 X45 Y176 F11520 			; move above wiper pad
G1 Z0 F1200 				; push nozzle into wiper
G1 X45 Y178 Z-.5 F4000		; wiping
G1 X55 Y176 Z-.5 F4000		; wiping
G1 X45 Y177 Z0 F4000		; wiping
G1 X55 Y176 F4000		; wiping
G1 X45 Y178 F4000		; wiping
G1 X55 Y176 F4000		; wiping
G1 X45 Y178 F4000		; wiping
G1 X55 Y176 F4000		; wiping
G1 X60 Y178 F4000		; wiping
G1 X80 Y176 F4000		; wiping
G1 X60 Y178 F4000		; wiping
G1 X80 Y176 F4000		; wiping
G1 X60 Y178 F4000		; wiping
G1 X90 Y176 F4000		; wiping
G1 X80 Y178 F4000		; wiping
G1 X100 Y176 F4000		; wiping
G1 X80 Y178 F4000		; wiping
G1 X100 Y176 F4000		; wiping
G1 X80 Y178 F4000		; wiping
G1 X100 Y176 F4000		; wiping
G1 X110 Y178 F4000		; wiping
G1 X100 Y176 F4000		; wiping
G1 X110 Y178 F4000		; wiping
G1 X100 Y176 F4000		; wiping
G1 X110 Y178 F4000		; wiping
G1 X115 Y176 Z-0.5 F1000	; wiping
G1 Z10					; raise extruder
G28 X0 Y0				; home X and Y
M109 R140	; wait for extruder to reach probe temp
M204 S300				; set probing acceleration
G29					; start auto-leveling sequence
M420 S1                     ; enable leveling matrix
M425 Z			     		; use measured Z backlash for compensation
M425 Z F0		     		; turn off measured Z backlash compensation. (if activated in the quality settings, this command will automatically be ignored)
M204 S2000				; restore standard acceleration
G1 X5 Y15 Z10 F5000			; move up off last probe point
G4 S1					; pause
M400					; wait for moves to finish
M117 Heating...				; progress indicator message on LCD
M109 R210 ; wait for extruder to reach initial printing temp
M190 R60.0 ; wait for bed to reach printing temp
G1 Z2 E0 F75				; prime tiny bit of filment into the nozzle
M117 Mini 2 Printing...		; progress indicator message on LCD

M221 S100 T0
G92 E0
G1 F600 E-1.75
;LAYER_COUNT:48
;LAYER:0
M107
G0 F2625 X36.92 Y37.965 Z0.425
;TYPE:SKIRT
G1 F600 E0
G1 F900 X37.384 Y37.56 E0.02052
G1 X37.897 Y37.219 E0.04103
G1 X38.45 Y36.946 E0.06158
G1 X39.033 Y36.748 E0.08209
G1 X39.637 Y36.627 E0.10261
G1 X40.26 Y36.585 E0.12341
G1 X57.501 Y36.558 E0.69771
G1 X57.588 Y36.538 E0.70068
G1 X57.625 Y36.521 E0.70204
G1 X57.689 Y36.47 E0.70477
G1 X57.829 Y36.298 E0.71215
G1 X59.238 Y33.88 E0.80537
G1 X59.597 Y33.349 E0.82673
G1 X61.194 Y31.302 E0.91321
G1 X61.498 Y30.949 E0.92873
G1 X62.387 Y30.015 E0.97168
G1 X62.733 Y29.687 E0.98756
G1 X64.703 Y27.995 E1.07406
G1 X65.072 Y27.708 E1.08963
G1 X66.138 Y26.961 E1.13299
G1 X66.545 Y26.706 E1.14899
G1 X68.813 Y25.437 E1.23556
G1 X69.383 Y25.166 E1.25659
G1 X71.799 Y24.209 E1.34315
G1 X72.399 Y24.016 E1.36414
G1 X74.914 Y23.389 E1.45048
G1 X75.532 Y23.278 E1.4714
G1 X78.112 Y22.988 E1.55788
G1 X78.747 Y22.959 E1.57905
G1 X81.356 Y23.016 E1.66598
G1 X81.984 Y23.072 E1.68698
G1 X84.549 Y23.472 E1.77346
G1 X85.162 Y23.609 E1.79438
G1 X87.638 Y24.34 E1.88037
G1 X88.231 Y24.559 E1.90143
G1 X90.617 Y25.625 E1.98848
G1 X91.173 Y25.919 E2.00943
G1 X93.378 Y27.279 E2.09573
G1 X93.854 Y27.615 E2.11514
G1 X95.032 Y28.559 E2.16542
G1 X95.487 Y28.975 E2.18596
G1 X95.884 Y29.446 E2.20648
G1 X96.217 Y29.964 E2.22699
G1 X96.432 Y30.405 E2.24333
G1 X96.607 Y30.816 E2.25821
G1 X96.811 Y31.397 E2.27872
G1 X96.939 Y32 E2.29926
G1 X96.987 Y32.615 E2.3198
G1 X96.963 Y33.154 E2.33778
G1 X96.918 Y33.6 E2.35271
G1 X96.817 Y34.208 E2.37324
G1 X96.637 Y34.797 E2.39375
G1 X96.383 Y35.358 E2.41427
G1 X96.119 Y35.795 E2.43127
G1 X95.87 Y36.161 E2.44602
G1 X95.491 Y36.647 E2.46655
G1 X95.053 Y37.079 E2.48704
G1 X94.562 Y37.452 E2.50758
G1 X94.101 Y37.721 E2.52536
G1 X93.697 Y37.927 E2.54047
G1 X93.131 Y38.17 E2.56098
G1 X92.538 Y38.339 E2.58152
G1 X92.039 Y38.419 E2.59836
G1 X90.29 Y38.604 E2.65694
G1 X89.432 Y38.616 E2.68553
G1 X88.348 Y38.534 E2.72174
G1 X87.738 Y38.448 E2.74226
G1 X87.144 Y38.284 E2.76278
G1 X86.576 Y38.044 E2.78332
G1 X86.297 Y37.892 E2.79391
G1 X85.296 Y37.303 E2.8326
G1 X83.711 Y36.549 E2.89106
G1 X82.059 Y36.035 E2.94869
G1 X81.454 Y35.916 E2.96923
G1 X79.747 Y35.763 E3.02632
G1 X78.049 Y35.85 E3.08296
G1 X77.339 Y35.962 E3.1069
G1 X76.623 Y36.128 E3.13138
G1 X75.011 Y36.686 E3.1882
G1 X73.565 Y37.431 E3.24239
G1 X72.242 Y38.37 E3.29643
G1 X71.063 Y39.485 E3.35048
G1 X70.063 Y40.745 E3.40407
G1 X69.237 Y42.154 E3.45847
G1 X68.621 Y43.659 E3.51264
G1 X68.222 Y45.239 E3.56692
G1 X68.053 Y46.829 E3.62018
G1 X68.11 Y48.458 E3.67448
G1 X68.394 Y50.046 E3.72822
G1 X68.903 Y51.595 E3.78253
G1 X69.626 Y53.055 E3.8368
G1 X70.535 Y54.384 E3.89043
G1 X71.636 Y55.585 E3.9447
G1 X72.888 Y56.611 E3.99862
G1 X74.274 Y57.453 E4.05264
G1 X75.756 Y58.089 E4.10636
G1 X77.422 Y58.54 E4.16386
G1 X78.042 Y58.637 E4.18476
G1 X79.746 Y58.725 E4.2416
G1 X81.455 Y58.571 E4.29875
G1 X82.059 Y58.452 E4.31926
G1 X83.711 Y57.938 E4.37689
G1 X85.298 Y57.183 E4.43543
G1 X86.305 Y56.592 E4.47432
G1 X86.855 Y56.316 E4.49482
G1 X87.437 Y56.112 E4.51537
G1 X88.04 Y55.986 E4.53589
G1 X88.631 Y55.94 E4.55563
G1 X90.592 Y55.908 E4.62096
G1 X91.208 Y55.938 E4.64151
G1 X91.574 Y55.994 E4.65384
G1 X92.657 Y56.204 E4.69059
G1 X93.253 Y56.36 E4.71111
G1 X93.824 Y56.592 E4.73164
G1 X94.36 Y56.896 E4.75216
G1 X94.882 Y57.293 E4.77401
G1 X95.219 Y57.588 E4.78893
G1 X95.655 Y58.023 E4.80944
G1 X96.031 Y58.511 E4.82997
G1 X96.341 Y59.043 E4.85048
G1 X96.558 Y59.55 E4.86885
G1 X96.711 Y59.974 E4.88386
G1 X96.882 Y60.566 E4.90439
G1 X96.975 Y61.175 E4.92491
G1 X96.989 Y61.791 E4.94543
G1 X96.941 Y62.287 E4.96203
G1 X96.875 Y62.729 E4.97692
G1 X96.745 Y63.332 E4.99747
G1 X96.537 Y63.912 E5.01799
G1 X96.257 Y64.46 E5.03849
G1 X95.954 Y64.909 E5.05653
G1 X95.687 Y65.259 E5.0712
G1 X95.282 Y65.724 E5.09174
G1 X94.672 Y66.243 E5.11842
G1 X92.57 Y67.745 E5.20447
G1 X92.026 Y68.08 E5.22575
G1 X89.714 Y69.301 E5.31285
G1 X89.295 Y69.497 E5.32826
G1 X88.107 Y69.983 E5.37101
G1 X87.652 Y70.143 E5.38708
G1 X85.161 Y70.878 E5.47359
G1 X84.549 Y71.015 E5.49448
G1 X81.984 Y71.415 E5.58095
G1 X81.356 Y71.471 E5.60196
G1 X78.747 Y71.528 E5.68888
G1 X78.112 Y71.499 E5.71006
G1 X75.532 Y71.209 E5.79654
G1 X75.067 Y71.134 E5.81223
G1 X73.798 Y70.862 E5.85546
G1 X73.341 Y70.739 E5.87123
G1 X70.873 Y69.946 E5.95757
G1 X70.286 Y69.714 E5.9786
G1 X67.933 Y68.595 E6.06539
G1 X67.385 Y68.288 E6.08631
G1 X65.217 Y66.879 E6.17244
G1 X64.707 Y66.497 E6.19367
G1 X62.73 Y64.796 E6.28054
G1 X62.389 Y64.472 E6.29621
G1 X61.497 Y63.536 E6.33928
G1 X61.191 Y63.18 E6.35492
G1 X59.596 Y61.135 E6.44131
G1 X59.237 Y60.605 E6.46263
G1 X57.832 Y58.194 E6.55558
G1 X57.684 Y58.013 E6.56337
G1 X57.625 Y57.966 E6.56588
G1 X57.588 Y57.948 E6.56725
G1 X57.501 Y57.929 E6.57022
G1 X40.259 Y57.902 E7.14456
G1 X39.644 Y57.861 E7.16509
G1 X39.039 Y57.741 E7.18564
G1 X38.456 Y57.544 E7.20613
G1 X37.903 Y57.272 E7.22666
G1 X37.389 Y56.932 E7.24719
G1 X36.896 Y56.499 E7.26905
G1 X36.75 Y56.352 E7.27595
G1 X36.345 Y55.888 E7.29646
G1 X36.004 Y55.375 E7.31698
G1 X35.731 Y54.822 E7.33753
G1 X35.533 Y54.239 E7.35804
G1 X35.412 Y53.635 E7.37856
G1 X35.37 Y53.005 E7.39959
G1 X35.37 Y41.481 E7.78346
G1 X35.41 Y40.866 E7.80399
G1 X35.529 Y40.262 E7.82449
G1 X35.726 Y39.678 E7.84502
G1 X35.996 Y39.124 E7.86555
G1 X36.336 Y38.61 E7.88608
G1 X36.773 Y38.111 E7.90817
G1 X36.92 Y37.965 E7.91508
G0 F2625 X37.272 Y38.32
G1 F900 X37.713 Y37.938 E7.93451
G1 X38.201 Y37.621 E7.95389
G1 X38.729 Y37.373 E7.97333
G1 X39.285 Y37.2 E7.99272
G1 X39.86 Y37.105 E8.01213
G1 X40.26 Y37.085 E8.02548
G1 X57.558 Y37.058 E8.60168
G1 X57.747 Y37.015 E8.60814
G1 X57.892 Y36.947 E8.61347
G1 X58.041 Y36.829 E8.6198
G1 X58.243 Y36.582 E8.63043
G1 X59.67 Y34.132 E8.72487
G1 X59.991 Y33.657 E8.74397
G1 X61.588 Y31.61 E8.83045
G1 X61.861 Y31.294 E8.84436
G1 X62.75 Y30.36 E8.88732
G1 X63.059 Y30.066 E8.90152
G1 X65.029 Y28.374 E8.98803
G1 X65.359 Y28.117 E9.00196
G1 X66.425 Y27.37 E9.04532
G1 X66.789 Y27.142 E9.05963
G1 X69.057 Y25.873 E9.14619
G1 X69.567 Y25.631 E9.165
G1 X71.983 Y24.674 E9.25156
G1 X72.52 Y24.501 E9.27035
G1 X75.035 Y23.874 E9.35669
G1 X75.588 Y23.775 E9.37541
G1 X78.168 Y23.485 E9.46189
G1 X78.736 Y23.459 E9.48083
G1 X81.345 Y23.516 E9.56776
G1 X81.907 Y23.566 E9.58655
G1 X84.472 Y23.966 E9.67302
G1 X85.02 Y24.089 E9.69173
G1 X87.496 Y24.82 E9.77773
G1 X88.027 Y25.016 E9.79658
G1 X90.413 Y26.082 E9.88363
G1 X90.91 Y26.345 E9.90236
G1 X93.115 Y27.705 E9.98866
G1 X93.542 Y28.006 E10.00606
G1 X94.72 Y28.95 E10.05635
G1 X95.148 Y29.344 E10.07572
G1 X95.519 Y29.794 E10.09515
G1 X95.825 Y30.29 E10.11456
G1 X95.972 Y30.601 E10.12602
G1 X96.147 Y31.012 E10.1409
G1 X96.338 Y31.563 E10.16033
G1 X96.452 Y32.134 E10.17972
G1 X96.487 Y32.716 E10.19915
G1 X96.466 Y33.104 E10.21209
G1 X96.421 Y33.55 E10.22702
G1 X96.322 Y34.124 E10.24642
G1 X96.147 Y34.68 E10.26584
G1 X95.897 Y35.206 E10.28524
G1 X95.706 Y35.514 E10.29731
G1 X95.457 Y35.88 E10.31206
G1 X95.097 Y36.338 E10.33146
G1 X94.677 Y36.742 E10.35087
G1 X94.207 Y37.086 E10.37027
G1 X93.874 Y37.275 E10.38303
G1 X93.47 Y37.481 E10.39814
G1 X92.934 Y37.71 E10.41755
G1 X92.371 Y37.863 E10.43698
G1 X91.986 Y37.921 E10.44995
G1 X90.237 Y38.106 E10.50854
G1 X89.469 Y38.118 E10.53412
G1 X88.385 Y38.036 E10.57034
G1 X87.809 Y37.952 E10.58973
G1 X87.249 Y37.79 E10.60914
G1 X86.551 Y37.461 E10.63485
G1 X85.528 Y36.859 E10.67439
G1 X83.899 Y36.084 E10.73448
G1 X82.184 Y35.55 E10.79431
G1 X81.521 Y35.42 E10.81682
G1 X79.752 Y35.261 E10.87598
G1 X78.002 Y35.351 E10.93435
G1 X77.246 Y35.471 E10.95985
G1 X76.487 Y35.646 E10.98579
G1 X74.809 Y36.228 E11.04495
G1 X73.312 Y36.998 E11.10103
G1 X71.919 Y37.987 E11.15794
G1 X70.696 Y39.144 E11.21402
G1 X69.645 Y40.467 E11.2703
G1 X68.789 Y41.928 E11.3267
G1 X68.144 Y43.504 E11.38343
G1 X67.729 Y45.147 E11.43988
G1 X67.552 Y46.815 E11.49575
G1 X67.611 Y48.508 E11.55218
G1 X67.908 Y50.17 E11.60842
G1 X68.439 Y51.785 E11.66505
G1 X69.191 Y53.304 E11.72151
G1 X70.145 Y54.697 E11.77775
G1 X71.291 Y55.948 E11.83426
G1 X72.6 Y57.021 E11.89064
G1 X74.042 Y57.897 E11.94684
G1 X75.592 Y58.562 E12.00302
G1 X77.322 Y59.03 E12.06272
G1 X77.997 Y59.136 E12.08548
G1 X79.751 Y59.226 E12.14398
G1 X81.522 Y59.067 E12.20321
G1 X82.184 Y58.937 E12.22569
G1 X83.899 Y58.403 E12.28552
G1 X85.533 Y57.625 E12.3458
G1 X86.558 Y57.024 E12.38538
G1 X87.08 Y56.764 E12.40481
G1 X87.632 Y56.578 E12.42421
G1 X88.204 Y56.469 E12.44361
G1 X88.64 Y56.44 E12.45816
G1 X90.601 Y56.408 E12.52349
G1 X91.183 Y56.438 E12.54291
G1 X91.479 Y56.485 E12.55289
G1 X92.562 Y56.695 E12.58964
G1 X93.125 Y56.845 E12.60904
G1 X93.663 Y57.07 E12.62847
G1 X94.164 Y57.367 E12.64787
G1 X94.552 Y57.669 E12.66425
G1 X94.889 Y57.964 E12.67917
G1 X95.3 Y58.377 E12.69858
G1 X95.651 Y58.842 E12.71798
G1 X95.935 Y59.351 E12.7374
G1 X96.088 Y59.719 E12.75067
G1 X96.241 Y60.143 E12.76569
G1 X96.4 Y60.704 E12.78511
G1 X96.482 Y61.281 E12.80452
G1 X96.484 Y61.864 E12.82394
G1 X96.446 Y62.214 E12.83567
G1 X96.38 Y62.656 E12.85056
G1 X96.255 Y63.225 E12.86996
G1 X96.053 Y63.771 E12.88936
G1 X95.778 Y64.285 E12.90877
G1 X95.556 Y64.606 E12.92177
G1 X95.289 Y64.956 E12.93644
G1 X94.905 Y65.394 E12.95584
G1 X94.381 Y65.836 E12.97868
G1 X92.279 Y67.338 E13.06473
G1 X91.793 Y67.638 E13.08376
G1 X89.481 Y68.859 E13.17085
G1 X89.105 Y69.035 E13.18468
G1 X87.917 Y69.521 E13.22744
G1 X87.511 Y69.663 E13.24176
G1 X85.02 Y70.398 E13.32828
G1 X84.472 Y70.521 E13.34698
G1 X81.907 Y70.921 E13.43346
G1 X81.345 Y70.971 E13.45225
G1 X78.736 Y71.028 E13.53918
G1 X78.168 Y71.002 E13.55812
G1 X75.588 Y70.712 E13.6446
G1 X75.172 Y70.645 E13.65864
G1 X73.903 Y70.373 E13.70187
G1 X73.494 Y70.263 E13.71598
G1 X71.026 Y69.47 E13.80233
G1 X70.501 Y69.262 E13.82114
G1 X68.148 Y68.143 E13.90793
G1 X67.657 Y67.869 E13.92666
G1 X65.489 Y66.46 E14.01279
G1 X65.033 Y66.118 E14.03177
G1 X63.056 Y64.417 E14.11865
G1 X62.751 Y64.127 E14.13267
G1 X61.859 Y63.191 E14.17574
G1 X61.585 Y62.873 E14.18972
G1 X59.99 Y60.828 E14.27611
G1 X59.669 Y60.353 E14.2952
G1 X58.245 Y57.909 E14.38943
G1 X58.039 Y57.657 E14.40027
G1 X57.889 Y57.539 E14.40663
G1 X57.747 Y57.472 E14.41186
G1 X57.558 Y57.429 E14.41831
G1 X40.259 Y57.402 E14.99455
G1 X39.678 Y57.361 E15.01395
G1 X39.108 Y57.241 E15.03335
G1 X38.559 Y57.044 E15.05278
G1 X38.043 Y56.774 E15.07218
G1 X37.568 Y56.436 E15.0916
G1 X37.251 Y56.147 E15.10589
G1 X37.105 Y56 E15.11279
G1 X36.723 Y55.559 E15.13223
G1 X36.406 Y55.071 E15.15161
G1 X36.158 Y54.543 E15.17104
G1 X35.985 Y53.987 E15.19044
G1 X35.89 Y53.412 E15.20985
G1 X35.87 Y53.005 E15.22342
G1 X35.87 Y41.481 E15.60729
G1 X35.91 Y40.9 E15.62669
G1 X36.029 Y40.329 E15.64612
G1 X36.225 Y39.78 E15.66554
G1 X36.494 Y39.264 E15.68492
G1 X36.832 Y38.788 E15.70437
G1 X37.125 Y38.466 E15.71887
G1 X37.272 Y38.32 E15.72577
G0 F2625 X37.624 Y38.674
G1 F900 X38.04 Y38.318 E15.74401
G1 X38.503 Y38.026 E15.76224
G1 X39.003 Y37.804 E15.78047
G1 X39.531 Y37.658 E15.79872
G1 X40.261 Y37.585 E15.82315
G1 X57.614 Y37.558 E16.40119
G1 X57.912 Y37.491 E16.41136
G1 X58.154 Y37.376 E16.42029
G1 X58.395 Y37.187 E16.43049
G1 X58.655 Y36.867 E16.44422
G1 X60.102 Y34.383 E16.53998
G1 X60.385 Y33.964 E16.55682
G1 X61.982 Y31.917 E16.64331
G1 X62.223 Y31.639 E16.65556
G1 X63.112 Y30.705 E16.69851
G1 X63.385 Y30.445 E16.71107
G1 X65.355 Y28.753 E16.79758
G1 X65.646 Y28.527 E16.80985
G1 X66.712 Y27.78 E16.85321
G1 X67.033 Y27.578 E16.86584
G1 X69.301 Y26.309 E16.95241
G1 X69.751 Y26.096 E16.969
G1 X72.167 Y25.139 E17.05556
G1 X72.641 Y24.986 E17.07215
G1 X75.156 Y24.359 E17.15849
G1 X75.644 Y24.271 E17.17501
G1 X78.224 Y23.981 E17.26149
G1 X78.725 Y23.959 E17.27819
G1 X81.334 Y24.016 E17.36512
G1 X81.83 Y24.06 E17.38171
G1 X84.395 Y24.46 E17.46818
G1 X84.879 Y24.568 E17.4847
G1 X87.355 Y25.299 E17.57069
G1 X87.823 Y25.472 E17.58731
G1 X90.209 Y26.538 E17.67436
G1 X90.648 Y26.77 E17.6909
G1 X92.853 Y28.13 E17.7772
G1 X93.229 Y28.396 E17.79254
G1 X94.407 Y29.34 E17.84283
G1 X94.808 Y29.712 E17.86105
G1 X95.151 Y30.139 E17.87929
G1 X95.512 Y30.797 E17.90429
G1 X95.687 Y31.208 E17.91917
G1 X95.864 Y31.726 E17.93741
G1 X95.964 Y32.264 E17.95563
G1 X95.968 Y33.053 E17.98192
G1 X95.923 Y33.499 E17.99685
G1 X95.829 Y34.039 E18.01511
G1 X95.656 Y34.558 E18.03333
G1 X95.293 Y35.232 E18.05883
G1 X95.044 Y35.598 E18.07358
G1 X94.703 Y36.027 E18.09183
G1 X94.305 Y36.402 E18.11005
G1 X93.646 Y36.83 E18.13622
G1 X93.242 Y37.036 E18.15133
G1 X92.738 Y37.248 E18.16954
G1 X92.208 Y37.385 E18.18777
G1 X91.933 Y37.424 E18.19703
G1 X90.184 Y37.609 E18.25561
G1 X89.507 Y37.619 E18.27816
G1 X88.423 Y37.537 E18.31438
G1 X87.882 Y37.456 E18.3326
G1 X87.358 Y37.297 E18.35084
G1 X86.804 Y37.03 E18.37132
G1 X85.759 Y36.415 E18.41171
G1 X84.086 Y35.619 E18.47343
G1 X82.297 Y35.063 E18.53583
G1 X81.596 Y34.924 E18.55964
G1 X79.764 Y34.761 E18.6209
G1 X77.945 Y34.854 E18.68157
G1 X77.153 Y34.979 E18.70828
G1 X76.345 Y35.166 E18.73591
G1 X74.616 Y35.765 E18.79686
G1 X73.049 Y36.572 E18.85557
G1 X71.6 Y37.601 E18.91477
G1 X70.325 Y38.806 E18.97321
G1 X69.234 Y40.18 E19.03165
G1 X68.34 Y41.704 E19.09051
G1 X67.666 Y43.351 E19.14978
G1 X67.236 Y45.057 E19.20839
G1 X67.051 Y46.793 E19.26654
G1 X67.114 Y48.563 E19.32554
G1 X67.423 Y50.295 E19.38414
G1 X67.975 Y51.975 E19.44305
G1 X68.759 Y53.558 E19.50189
G1 X69.753 Y55.011 E19.56053
G1 X70.942 Y56.308 E19.61914
G1 X72.311 Y57.429 E19.67808
G1 X73.819 Y58.346 E19.73687
