;Generated by Cura LulzBot Edition GCodeWriter Version: 3.6.20
;FLAVOR:Marlin
;TIME:695
;Filament used: 0.11114m
;Layer height: 0.18
;Generated with Cura_SteamEngine 3.6.20
M82 ;absolute extrusion mode
;This G-Code has been generated specifically for the LulzBot Mini 2 with SE 0.5mm Tool Head
M73 P0                  ; clear GLCD progress bar
M75 					; Start GLCD Print Timer
G26 					; clear potential 'probe fail' condition
M107 					; disable fans
M420 S0                 ; disable leveling matrix
G90 					; absolute positioning
M82 					; set extruder to absolute mode
G92 E0 					; set extruder position to 0
M140 S60.0 ; start bed heating up
G28 					; home all axes
G0 X0 Y187 Z156 F200 			; move away from endstops
M117 Mini 2 Wiping...			; progress indicator message on LCD
M109 R140 	; soften filament before retraction
G1 E-15 F75 				; retract filament
M109 R140 	; wait for extruder to reach wiping temp
G1 X45 Y176 F11520 			; move above wiper pad
G1 Z0 F1200 				; push nozzle into wiper
G1 X45 Y178 Z-.5 F4000		; wiping
G1 X55 Y176 Z-.5 F4000		; wiping
G1 X45 Y177 Z0 F4000		; wiping
G1 X55 Y176 F4000		; wiping
G1 X45 Y178 F4000		; wiping
G1 X55 Y176 F4000		; wiping
G1 X45 Y178 F4000		; wiping
G1 X55 Y176 F4000		; wiping
G1 X60 Y178 F4000		; wiping
G1 X80 Y176 F4000		; wiping
G1 X60 Y178 F4000		; wiping
G1 X80 Y176 F4000		; wiping
G1 X60 Y178 F4000		; wiping
G1 X90 Y176 F4000		; wiping
G1 X80 Y178 F4000		; wiping
G1 X100 Y176 F4000		; wiping
G1 X80 Y178 F4000		; wiping
G1 X100 Y176 F4000		; wiping
G1 X80 Y178 F4000		; wiping
G1 X100 Y176 F4000		; wiping
G1 X110 Y178 F4000		; wiping
G1 X100 Y176 F4000		; wiping
G1 X110 Y178 F4000		; wiping
G1 X100 Y176 F4000		; wiping
G1 X110 Y178 F4000		; wiping
G1 X115 Y176 Z-0.5 F1000	; wiping
G1 Z10					; raise extruder
G28 X0 Y0				; home X and Y
M109 R140	; wait for extruder to reach probe temp
M204 S300				; set probing acceleration
G29					; start auto-leveling sequence
M420 S1                     ; enable leveling matrix
M425 Z			     		; use measured Z backlash for compensation
M425 Z F0		     		; turn off measured Z backlash compensation. (if activated in the quality settings, this command will automatically be ignored)
M204 S2000				; restore standard acceleration
G1 X5 Y15 Z10 F5000			; move up off last probe point
G4 S1					; pause
M400					; wait for moves to finish
M117 Heating...				; progress indicator message on LCD
M109 R210 ; wait for extruder to reach initial printing temp
M190 R60.0 ; wait for bed to reach printing temp
G1 Z2 E0 F75				; prime tiny bit of filment into the nozzle
M117 Mini 2 Printing...		; progress indicator message on LCD

M221 S100 T0
G92 E0
G1 F600 E-1.75
;LAYER_COUNT:22
;LAYER:0
M107
G0 F2625 X53.208 Y66.376 Z0.425
;TYPE:SKIRT
G1 F600 E0
G1 F900 X53.588 Y66.088 E0.01588
G1 X53.727 Y65.996 E0.02144
G1 X54.205 Y65.728 E0.03969
G1 X54.716 Y65.532 E0.05792
G1 X55.25 Y65.413 E0.07614
G1 X55.79 Y65.373 E0.09418
G1 X59.033 Y65.367 E0.20221
G1 X59.635 Y65.415 E0.22232
G1 X61.704 Y65.748 E0.29213
G1 X67.168 Y66.409 E0.47546
G1 X72.585 Y66.757 E0.65628
G1 X78.046 Y66.797 E0.83819
G1 X83.465 Y66.532 E1.01892
G1 X88.924 Y65.952 E1.20178
G1 X92.558 Y65.407 E1.32418
G1 X93.118 Y65.365 E1.34289
G1 X96.246 Y65.368 E1.44708
G1 X96.791 Y65.408 E1.46529
G1 X97.326 Y65.528 E1.48355
G1 X97.837 Y65.724 E1.50178
G1 X98.43 Y66.072 E1.52469
G1 X98.643 Y66.225 E1.53342
G1 X99.063 Y66.576 E1.55165
G1 X99.427 Y66.985 E1.56989
G1 X99.729 Y67.442 E1.58814
G1 X99.96 Y67.938 E1.60636
G1 X100.117 Y68.462 E1.62459
G1 X100.205 Y69.268 E1.65159
G1 X100.226 Y92.575 E2.42796
G1 X100.187 Y93.121 E2.44619
G1 X100.068 Y93.655 E2.46442
G1 X99.873 Y94.166 E2.48264
G1 X99.554 Y94.72 E2.50393
G1 X99.403 Y94.937 E2.51274
G1 X99.059 Y95.362 E2.53095
G1 X98.656 Y95.733 E2.5492
G1 X98.203 Y96.041 E2.56744
G1 X97.711 Y96.28 E2.58566
G1 X97.189 Y96.444 E2.60389
G1 X96.54 Y96.539 E2.62574
G1 X94.872 Y96.635 E2.68139
G1 X94.488 Y96.637 E2.69418
G1 X92.846 Y96.563 E2.74893
G1 X92.434 Y96.522 E2.76272
G1 X89.56 Y96.071 E2.85963
G1 X84.145 Y95.46 E3.04115
G1 X78.711 Y95.158 E3.22244
G1 X73.265 Y95.163 E3.40385
G1 X67.831 Y95.475 E3.58515
G1 X62.378 Y96.1 E3.76798
G1 X59.609 Y96.528 E3.86132
G1 X59.137 Y96.571 E3.8771
G1 X56.951 Y96.63 E3.94995
G1 X56.538 Y96.618 E3.96371
G1 X55.423 Y96.525 E4.00098
G1 X54.883 Y96.44 E4.01919
G1 X54.36 Y96.277 E4.03744
G1 X53.867 Y96.04 E4.05566
G1 X53.413 Y95.733 E4.07391
G1 X53.186 Y95.539 E4.08386
G1 X53.118 Y95.476 E4.08695
G1 X52.745 Y95.076 E4.10517
G1 X52.434 Y94.625 E4.12341
G1 X52.192 Y94.134 E4.14165
G1 X52.024 Y93.613 E4.15988
G1 X51.925 Y92.963 E4.18178
G1 X51.855 Y91.863 E4.2185
G1 X51.847 Y91.625 E4.22643
G1 X51.848 Y69.428 E4.96582
G1 X51.888 Y68.882 E4.98406
G1 X51.988 Y68.411 E5.0001
G1 X52.048 Y68.198 E5.00747
G1 X52.235 Y67.684 E5.02569
G1 X52.494 Y67.202 E5.04392
G1 X52.821 Y66.763 E5.06215
G1 X53.208 Y66.376 E5.08038
G0 F2625 X53.644 Y66.665
G1 F900 X53.864 Y66.505 E5.08944
G1 X54.003 Y66.413 E5.09499
G1 X54.449 Y66.166 E5.11198
G1 X54.928 Y65.991 E5.12896
G1 X55.428 Y65.894 E5.14593
G1 X55.791 Y65.873 E5.15804
G1 X59.034 Y65.867 E5.26607
G1 X59.556 Y65.908 E5.28351
G1 X61.668 Y66.247 E5.35476
G1 X67.112 Y66.907 E5.53743
G1 X72.567 Y67.257 E5.71951
G1 X78.05 Y67.297 E5.90216
G1 X83.507 Y67.03 E6.08415
G1 X88.98 Y66.449 E6.26748
G1 X92.632 Y65.901 E6.39049
G1 X93.117 Y65.865 E6.40669
G1 X96.245 Y65.868 E6.51089
G1 X96.753 Y65.908 E6.52786
G1 X97.248 Y66.028 E6.54483
G1 X97.719 Y66.223 E6.56181
G1 X98.138 Y66.478 E6.57815
G1 X98.351 Y66.631 E6.58688
G1 X98.74 Y66.96 E6.60385
G1 X99.073 Y67.346 E6.62083
G1 X99.342 Y67.779 E6.63781
G1 X99.54 Y68.248 E6.65477
G1 X99.662 Y68.743 E6.67175
G1 X99.705 Y69.268 E6.6893
G1 X99.726 Y92.575 E7.46567
G1 X99.687 Y93.083 E7.48264
G1 X99.568 Y93.579 E7.49963
G1 X99.374 Y94.05 E7.5166
G1 X99.144 Y94.434 E7.53151
G1 X98.993 Y94.651 E7.54031
G1 X98.67 Y95.045 E7.55728
G1 X98.289 Y95.384 E7.57427
G1 X97.86 Y95.659 E7.59124
G1 X97.394 Y95.864 E7.6082
G1 X96.901 Y95.994 E7.62519
G1 X96.512 Y96.04 E7.63823
G1 X94.844 Y96.136 E7.69389
G1 X94.511 Y96.138 E7.70498
G1 X92.869 Y96.064 E7.75973
G1 X92.511 Y96.028 E7.77172
G1 X89.646 Y95.578 E7.86832
G1 X84.175 Y94.961 E8.05172
G1 X78.72 Y94.658 E8.23371
G1 X73.253 Y94.663 E8.41581
G1 X67.781 Y94.977 E8.59839
G1 X62.322 Y95.602 E8.78142
G1 X59.533 Y96.034 E8.87543
G1 X59.124 Y96.071 E8.88911
G1 X56.938 Y96.13 E8.96195
G1 X56.58 Y96.12 E8.97388
G1 X55.465 Y96.027 E9.01115
G1 X54.962 Y95.945 E9.02813
G1 X54.478 Y95.785 E9.04511
G1 X54.025 Y95.552 E9.06207
G1 X53.526 Y95.172 E9.08297
G1 X53.458 Y95.109 E9.08606
G1 X53.113 Y94.735 E9.103
G1 X52.83 Y94.311 E9.11999
G1 X52.617 Y93.848 E9.13696
G1 X52.479 Y93.357 E9.15395
G1 X52.424 Y92.931 E9.16826
G1 X52.354 Y91.831 E9.20497
G1 X52.347 Y91.625 E9.21184
G1 X52.348 Y69.428 E9.95123
G1 X52.388 Y68.92 E9.9682
G1 X52.47 Y68.547 E9.98093
G1 X52.53 Y68.334 E9.9883
G1 X52.706 Y67.856 E10.00526
G1 X52.955 Y67.411 E10.02225
G1 X53.27 Y67.011 E10.03921
G1 X53.644 Y66.665 E10.05618
G1 F600 E8.30618
;MESH:
G0 F2625 X56.865 Y68.816
G0 X56.744 Y70.268
G0 X56.925 Y70.293
G0 X58.031 Y70.364
G0 X58.017 Y70.265
;TYPE:WALL-INNER
G1 F600 E10.05618
G1 F900 X58.326 Y70.191 E10.06677
G1 X58.509 Y70.129 E10.0732
G1 X58.509 Y70.191
G1 X58.509 Y70.265
G1 X58.509 Y70.269 E10.07333
G1 X58.508 Y92.118 E10.80113
G1 X58.341 Y92.129 E10.80671
G1 X57.715 Y92.15 E10.82757
G1 X57.134 Y92.15 E10.84693
G1 X56.341 Y92.117 E10.87336
G1 X56.341 Y70.305 E11.59993
G1 X56.341 Y70.25 E11.60176
G1 X56.34 Y70.168 E11.60449
G1 X56.339 Y70.13 E11.60576
G1 X56.437 Y70.167 E11.60709
G1 X56.747 Y70.249 E11.61486
G1 X56.801 Y70.257 E11.61655
G1 X57.062 Y70.3 E11.62536
G1 X57.381 Y70.318 E11.636
G1 X57.699 Y70.308 E11.6466
G1 X58.014 Y70.265 E11.65719
G1 X58.017 Y70.265 E11.65728
G0 F2625 X58.031 Y70.364
G0 X56.153 Y69.616
G0 X56.338 Y69.596
;TYPE:WALL-OUTER
G1 F900 X56.589 Y69.69 E11.6662
G1 X56.851 Y69.759 E11.67523
G1 X57.117 Y69.802 E11.6842
G1 X57.387 Y69.818 E11.69321
G1 X57.657 Y69.809 E11.70221
G1 X57.925 Y69.773 E11.71122
G1 X58.187 Y69.71 E11.7202
G1 X58.442 Y69.624 E11.72916
G1 X58.562 Y69.569 E11.73356
G1 X58.689 Y69.511 E11.73821
G1 X58.939 Y69.366 E11.74783
G1 X58.976 Y69.354 E11.74913
G1 X59.002 Y69.368 E11.75011
G1 X59.009 Y69.4
G1 X59.009 Y69.511 E11.75023
G1 X59.009 Y69.651 E11.75418
G1 X59.008 Y92.548 E12.51689
G1 X58.987 Y92.581 E12.5182
G1 X58.968 Y92.588 E12.51887
G1 X58.362 Y92.629 E12.5391
G1 X57.732 Y92.65 E12.5601
G1 X57.117 Y92.65 E12.58058
G1 X56.487 Y92.629 E12.60158
G1 X55.88 Y92.587 E12.62185
G1 X55.848 Y92.566 E12.62312
G1 X55.841 Y92.551 E12.62368
G1 X55.841 Y69.599 E13.38822
G1 X55.841 Y69.596 E13.38832
G1 X55.84 Y69.478 E13.39225
G1 X55.839 Y69.402 E13.39478
G1 X55.848 Y69.37 E13.39589
G1 X55.871 Y69.352 E13.39686
G1 X55.906 Y69.363
G1 X56.095 Y69.477 E13.40122
G1 X56.336 Y69.595 E13.40875
G1 X56.338 Y69.596 E13.40882
G0 F2625 X56.572 Y69.683
G0 X56.173 Y69.625
G0 X56.829 Y70.759
;TYPE:SKIN
G1 F900 X57.009 Y70.788 E13.4149
G1 X57.375 Y70.808 E13.42711
G1 X57.74 Y70.796 E13.43927
G1 X58.019 Y70.759 E13.44865
G1 X58.018 Y91.65 E14.14453
G1 X57.699 Y91.66 E14.15516
G1 X57.154 Y91.66 E14.17332
G1 X56.831 Y91.647 E14.18409
G1 X56.829 Y70.759 E14.87987
G0 F2625 X57.59 Y71.025
G1 F900 X57.793 Y71.228 E14.88943
G0 F2625 X57.793 Y71.936
G1 F900 X57.054 Y71.196 E14.92427
G0 F2625 X57.054 Y71.903
G1 F900 X57.793 Y72.643 E14.95911
G0 F2625 X57.793 Y73.35
G1 F900 X57.054 Y72.61 E14.99394
G0 F2625 X57.054 Y73.317
G1 F900 X57.793 Y74.057 E15.02878
G0 F2625 X57.793 Y74.764
G1 F900 X57.054 Y74.024 E15.06362
G0 F2625 X57.054 Y74.731
G1 F900 X57.793 Y75.471 E15.09845
G0 F2625 X57.793 Y76.178
G1 F900 X57.054 Y75.439 E15.13327
G0 F2625 X57.054 Y76.146
G1 F900 X57.793 Y76.885 E15.16808
G0 F2625 X57.793 Y77.592
G1 F900 X57.054 Y76.853 E15.20289
G0 F2625 X57.054 Y77.56
G1 F900 X57.793 Y78.3 E15.23773
G0 F2625 X57.793 Y79.007
G1 F900 X57.055 Y78.268 E15.27252
G0 F2625 X57.055 Y78.975
G1 F900 X57.793 Y79.714 E15.30731
G0 F2625 X57.793 Y80.421
G1 F900 X57.055 Y79.682 E15.3421
G0 F2625 X57.055 Y80.389
G1 F900 X57.793 Y81.128 E15.37688
G0 F2625 X57.793 Y81.835
G1 F900 X57.055 Y81.096 E15.41167
G0 F2625 X57.055 Y81.803
G1 F900 X57.793 Y82.542 E15.44646
G0 F2625 X57.793 Y83.249
G1 F900 X57.055 Y82.51 E15.48125
G0 F2625 X57.055 Y83.217
G1 F900 X57.793 Y83.956 E15.51604
G0 F2625 X57.793 Y84.664
G1 F900 X57.055 Y83.925 E15.55083
G0 F2625 X57.055 Y84.632
G1 F900 X57.793 Y85.371 E15.58562
G0 F2625 X57.793 Y86.078
G1 F900 X57.055 Y85.34 E15.62039
G0 F2625 X57.055 Y86.047
G1 F900 X57.793 Y86.785 E15.65515
G0 F2625 X57.793 Y87.492
G1 F900 X57.055 Y86.754 E15.68992
G0 F2625 X57.055 Y87.461
G1 F900 X57.793 Y88.199 E15.72468
G0 F2625 X57.793 Y88.906
G1 F900 X57.055 Y88.168 E15.75945
G0 F2625 X57.055 Y88.875
G1 F900 X57.793 Y89.613 E15.79421
G0 F2625 X57.793 Y90.32
G1 F900 X57.055 Y89.582 E15.82898
G0 F2625 X57.055 Y90.289
G1 F900 X57.793 Y91.027 E15.86375
G0 F2625 X57.492 Y91.433
G1 F900 X57.055 Y90.996 E15.88433
G1 F600 E14.13433
G0 F2625 X58.489 Y70.362
G0 X59.924 Y70.362
G0 X92.157 Y70.148
G0 X93.582 Y70.147
G0 X94.154 Y70.301
G0 X95.263 Y70.364
G0 X95.249 Y70.265
;TYPE:WALL-INNER
G1 F600 E15.88433
G1 F900 X95.558 Y70.191 E15.89492
G1 X95.741 Y70.129 E15.90135
G1 X95.741 Y70.191
G1 X95.741 Y70.265
G1 X95.741 Y70.269 E15.90149
G1 X95.741 Y92.118 E16.62928
G1 X95.573 Y92.129 E16.63489
G1 X94.947 Y92.15 E16.65576
G1 X94.366 Y92.15 E16.67511
G1 X93.573 Y92.117 E16.70155
G1 X93.573 Y70.305 E17.42811
G1 X93.573 Y70.25 E17.42994
G1 X93.572 Y70.168 E17.43268
G1 X93.571 Y70.13 E17.43394
G1 X93.669 Y70.167 E17.43527
G1 X93.979 Y70.249 E17.44304
G1 X94.033 Y70.257 E17.44473
G1 X94.294 Y70.3 E17.45354
G1 X94.611 Y70.318 E17.46412
G1 X94.931 Y70.308 E17.47478
G1 X95.246 Y70.265 E17.48537
G1 X95.249 Y70.265 E17.48546
G0 F2625 X95.263 Y70.364
G0 X93.385 Y69.616
G0 X93.57 Y69.596
;TYPE:WALL-OUTER
G1 F900 X93.821 Y69.69 E17.49439
G1 X94.083 Y69.759 E17.50341
G1 X94.349 Y69.802 E17.51239
G1 X94.618 Y69.818 E17.52136
G1 X94.889 Y69.809 E17.5304
G1 X95.157 Y69.773 E17.5394
G1 X95.419 Y69.71 E17.54838
G1 X95.674 Y69.624 E17.55734
G1 X95.794 Y69.569 E17.56174
G1 X95.921 Y69.511 E17.56639
G1 X96.171 Y69.366 E17.57602
G1 X96.208 Y69.354 E17.57731
G1 X96.234 Y69.368 E17.5783
G1 X96.241 Y69.4
G1 X96.241 Y69.511 E17.57841
G1 X96.241 Y69.651 E17.58237
G1 X96.241 Y92.535 E18.34464
G1 X96.226 Y92.577 E18.34613
G1 X96.2 Y92.588 E18.34707
G1 X95.594 Y92.629 E18.3673
G1 X94.964 Y92.65 E18.3883
G1 X94.349 Y92.65 E18.40878
G1 X93.719 Y92.629 E18.42978
G1 X93.112 Y92.587 E18.45005
G1 X93.08 Y92.566 E18.45132
G1 X93.073 Y92.551 E18.45188
G1 X93.073 Y69.599 E19.21641
G1 X93.073 Y69.596 E19.21651
G1 X93.072 Y69.478 E19.22045
G1 X93.071 Y69.402 E19.22298
G1 X93.08 Y69.37 E19.22408
G1 X93.104 Y69.352 E19.22508
G1 X93.138 Y69.363
G1 X93.327 Y69.477 E19.22944
G1 X93.568 Y69.595 E19.23697
G1 X93.57 Y69.596 E19.23705
G0 F2625 X93.804 Y69.683
G0 X93.405 Y69.625
G0 X94.061 Y70.759
;TYPE:SKIN
G1 F900 X94.241 Y70.788 E19.24312
G1 X94.605 Y70.808 E19.25526
G1 X94.972 Y70.796 E19.2675
G1 X95.251 Y70.759 E19.27687
G1 X95.251 Y91.649 E19.97272
G1 X94.931 Y91.66 E19.98339
G1 X94.386 Y91.66 E20.00154
G1 X94.063 Y91.647 E20.01231
G1 X94.061 Y70.759 E20.7081
G0 F2625 X94.354 Y71.02
G1 F900 X95.025 Y71.691 E20.73971
G0 F2625 X95.025 Y72.398
G1 F900 X94.285 Y71.658 E20.77457
G0 F2625 X94.285 Y72.365
G1 F900 X95.025 Y73.105 E20.80943
G0 F2625 X95.025 Y73.812
G1 F900 X94.285 Y73.072 E20.84429
G0 F2625 X94.285 Y73.779
G1 F900 X95.025 Y74.519 E20.87915
G0 F2625 X95.025 Y75.226
G1 F900 X94.285 Y74.486 E20.91401
G0 F2625 X94.285 Y75.193
G1 F900 X95.025 Y75.934 E20.94889
G0 F2625 X95.025 Y76.641
G1 F900 X94.285 Y75.9 E20.98377
G0 F2625 X94.285 Y76.607
G1 F900 X95.025 Y77.348 E21.01866
G0 F2625 X95.025 Y78.055
G1 F900 X94.285 Y77.315 E21.05352
G0 F2625 X94.286 Y78.022
G1 F900 X95.025 Y78.762 E21.08835
G0 F2625 X95.025 Y79.469
G1 F900 X94.286 Y78.729 E21.12319
G0 F2625 X94.286 Y79.437
G1 F900 X95.025 Y80.176 E21.158
G0 F2625 X95.025 Y80.883
G1 F900 X94.286 Y80.144 E21.19282
G0 F2625 X94.286 Y80.851
G1 F900 X95.025 Y81.59 E21.22763
G0 F2625 X95.025 Y82.298
G1 F900 X94.286 Y81.558 E21.26247
G0 F2625 X94.286 Y82.265
G1 F900 X95.025 Y83.005 E21.2973
G0 F2625 X95.025 Y83.712
G1 F900 X94.286 Y82.972 E21.33214
M104 S205
G0 F2625 X94.286 Y83.679
G1 F900 X95.025 Y84.419 E21.36697
G0 F2625 X95.025 Y85.126
G1 F900 X94.286 Y84.386 E21.40181
G0 F2625 X94.287 Y85.094
G1 F900 X95.025 Y85.833 E21.4366
G0 F2625 X95.025 Y86.54
G1 F900 X94.287 Y85.801 E21.47139
G0 F2625 X94.287 Y86.508
G1 F900 X95.025 Y87.247 E21.50618
G0 F2625 X95.025 Y87.954
G1 F900 X94.287 Y87.215 E21.54097
G0 F2625 X94.287 Y87.923
G1 F900 X95.025 Y88.661 E21.57573
G0 F2625 X95.025 Y89.369
G1 F900 X94.287 Y88.63 E21.61052
G0 F2625 X94.287 Y89.337
G1 F900 X95.025 Y90.076 E21.64531
G0 F2625 X95.025 Y90.783
G1 F900 X94.287 Y90.044 E21.6801
G0 F2625 X94.287 Y90.751
G1 F900 X94.968 Y91.433 E21.71221
G1 F600 E19.96221
;MESH:NONMESH
G0 F2625 X93.572 Y70.369
G0 X92.157 Y70.37
G0 X59.924 Y70.367
G0 X58.489 Y70.367
G0 X56.888 Y70.372
G0 X56.906 Y70.265
;TIME_ELAPSED:55.294991
;LAYER:1
M140 S60
M221 S100 T0
M106 S255
;MESH:
G0 F6562.5 X56.906 Y70.265 Z0.605
;TYPE:WALL-INNER
G1 F600 E21.71221
G1 F709.9 X57.252 Y70.302 E21.71711
G1 X57.597 Y70.302 E21.72198
G1 X57.943 Y70.265 E21.72689
G1 X58.127 Y70.225 E21.72955
G1 X58.282 Y70.191 E21.73179
G1 X58.525 Y70.11 E21.7354
G1 X58.525 Y70.191
G1 X58.525 Y70.35 E21.73719
G1 X58.52 Y92.13 E22.04447
G1 X58.308 Y92.143 E22.04746
G1 X57.679 Y92.163 E22.05634
G1 X57.098 Y92.162 E22.06454
G1 X56.328 Y92.129 E22.07541
G1 X56.327 Y70.353 E22.38262
G1 X56.327 Y70.192 E22.3849
G1 X56.326 Y70.111 E22.38604
G1 X56.567 Y70.191 E22.38806
G1 X56.724 Y70.225 E22.38987
G1 X56.906 Y70.265 E22.3925
G0 F6562.5 X56.986 Y69.771
;TYPE:WALL-OUTER
G1 F709.9 X57.278 Y69.802 E22.39664
G1 X57.571 Y69.802 E22.40077
G1 X57.863 Y69.771 E22.40491
G1 X58.149 Y69.708 E22.40905
G1 X58.427 Y69.616 E22.41318
G1 X58.576 Y69.548 E22.41549
G1 X58.695 Y69.495 E22.41733
