;Generated by Cura LulzBot Edition GCodeWriter Version: 3.6.20
;FLAVOR:Marlin
;TIME:1891
;Filament used: 0.745574m
;Layer height: 0.25
;Generated with Cura_SteamEngine 3.6.20
M82 ;absolute extrusion mode
;This G-Code has been generated specifically for the LulzBot Mini 2 with SE 0.5mm Tool Head
M73 P0                  ; clear GLCD progress bar
M75 					; Start GLCD Print Timer
G26 					; clear potential 'probe fail' condition
M107 					; disable fans
M420 S0                 ; disable leveling matrix
G90 					; absolute positioning
M82 					; set extruder to absolute mode
G92 E0 					; set extruder position to 0
M140 S60.0 ; start bed heating up
G28 					; home all axes
G0 X0 Y187 Z156 F200 			; move away from endstops
M117 Mini 2 Wiping...			; progress indicator message on LCD
M109 R140 	; soften filament before retraction
G1 E-15 F75 				; retract filament
M109 R140 	; wait for extruder to reach wiping temp
G1 X45 Y176 F11520 			; move above wiper pad
G1 Z0 F1200 				; push nozzle into wiper
G1 X45 Y178 Z-.5 F4000		; wiping
G1 X55 Y176 Z-.5 F4000		; wiping
G1 X45 Y177 Z0 F4000		; wiping
G1 X55 Y176 F4000		; wiping
G1 X45 Y178 F4000		; wiping
G1 X55 Y176 F4000		; wiping
G1 X45 Y178 F4000		; wiping
G1 X55 Y176 F4000		; wiping
G1 X60 Y178 F4000		; wiping
G1 X80 Y176 F4000		; wiping
G1 X60 Y178 F4000		; wiping
G1 X80 Y176 F4000		; wiping
G1 X60 Y178 F4000		; wiping
G1 X90 Y176 F4000		; wiping
G1 X80 Y178 F4000		; wiping
G1 X100 Y176 F4000		; wiping
G1 X80 Y178 F4000		; wiping
G1 X100 Y176 F4000		; wiping
G1 X80 Y178 F4000		; wiping
G1 X100 Y176 F4000		; wiping
G1 X110 Y178 F4000		; wiping
G1 X100 Y176 F4000		; wiping
G1 X110 Y178 F4000		; wiping
G1 X100 Y176 F4000		; wiping
G1 X110 Y178 F4000		; wiping
G1 X115 Y176 Z-0.5 F1000	; wiping
G1 Z10					; raise extruder
G28 X0 Y0				; home X and Y
M109 R140	; wait for extruder to reach probe temp
M204 S300				; set probing acceleration
G29					; start auto-leveling sequence
M420 S1                     ; enable leveling matrix
M425 Z			     		; use measured Z backlash for compensation
M425 Z F0		     		; turn off measured Z backlash compensation. (if activated in the quality settings, this command will automatically be ignored)
M204 S2000				; restore standard acceleration
G1 X5 Y15 Z10 F5000			; move up off last probe point
G4 S1					; pause
M400					; wait for moves to finish
M117 Heating...				; progress indicator message on LCD
M109 R210 ; wait for extruder to reach initial printing temp
M190 R60.0 ; wait for bed to reach printing temp
G1 Z2 E0 F75				; prime tiny bit of filment into the nozzle
M117 Mini 2 Printing...		; progress indicator message on LCD

M221 S100 T0
G92 E0
G1 F600 E-1.75
;LAYER_COUNT:48
;LAYER:0
M107
G0 F2625 X33.363 Y70.702 Z0.425
;TYPE:SKIRT
G1 F600 E0
G1 F900 X33.946 Y70.504 E0.02051
G1 X34.55 Y70.383 E0.04103
G1 X35.173 Y70.341 E0.06183
G1 X52.576 Y70.315 E0.64153
G1 X52.669 Y70.294 E0.6447
G1 X52.705 Y70.277 E0.64603
G1 X52.769 Y70.227 E0.64874
G1 X52.912 Y70.052 E0.65626
G1 X54.305 Y67.675 E0.74804
G1 X54.66 Y67.151 E0.76912
G1 X56.223 Y65.151 E0.85367
G1 X56.531 Y64.795 E0.86935
G1 X57.425 Y63.859 E0.91247
G1 X57.768 Y63.535 E0.92819
G1 X59.708 Y61.871 E1.01332
G1 X60.07 Y61.589 E1.02861
G1 X61.101 Y60.865 E1.07057
G1 X61.504 Y60.611 E1.08644
G1 X63.734 Y59.358 E1.17165
G1 X64.295 Y59.09 E1.19236
G1 X66.669 Y58.139 E1.27754
G1 X67.264 Y57.945 E1.29839
G1 X69.736 Y57.316 E1.38336
G1 X70.353 Y57.201 E1.40426
G1 X72.892 Y56.903 E1.48942
G1 X73.515 Y56.871 E1.5102
G1 X76.073 Y56.908 E1.59542
G1 X76.696 Y56.959 E1.61624
G1 X79.208 Y57.329 E1.70082
G1 X79.666 Y57.419 E1.71636
G1 X80.92 Y57.732 E1.75942
G1 X81.371 Y57.869 E1.77512
G1 X83.762 Y58.725 E1.85971
G1 X84.334 Y58.973 E1.88048
G1 X86.603 Y60.14 E1.96547
G1 X87.137 Y60.461 E1.98623
G1 X89.238 Y61.918 E2.07139
G1 X89.72 Y62.301 E2.0919
G1 X90.303 Y62.934 E2.12057
G1 X90.58 Y63.296 E2.13575
G1 X90.922 Y63.809 E2.15629
G1 X91.195 Y64.362 E2.17683
G1 X91.394 Y64.945 E2.19735
G1 X91.512 Y65.523 E2.217
G1 X91.576 Y65.979 E2.23234
G1 X91.622 Y66.593 E2.25285
G1 X91.588 Y67.208 E2.27337
G1 X91.474 Y67.814 E2.29391
G1 X91.291 Y68.38 E2.31372
G1 X91.122 Y68.809 E2.32908
G1 X90.86 Y69.366 E2.34958
G1 X90.527 Y69.885 E2.37012
G1 X90.131 Y70.356 E2.39062
G1 X89.706 Y70.748 E2.40988
G1 X89.353 Y71.036 E2.42506
G1 X88.851 Y71.394 E2.44559
G1 X88.307 Y71.684 E2.46613
G1 X87.731 Y71.901 E2.48663
G1 X87.03 Y72.057 E2.51055
G1 X85.924 Y72.217 E2.54778
G1 X85.157 Y72.265 E2.57338
G1 X84.122 Y72.246 E2.60786
G1 X83.508 Y72.195 E2.62838
G1 X82.906 Y72.065 E2.6489
G1 X82.325 Y71.858 E2.66944
G1 X81.85 Y71.62 E2.68714
G1 X79.718 Y70.4 E2.76896
G1 X79.082 Y70.107 E2.79229
G1 X77.421 Y69.549 E2.85066
G1 X75.788 Y69.242 E2.90601
G1 X74.143 Y69.171 E2.96085
G1 X72.399 Y69.338 E3.01921
G1 X71.776 Y69.466 E3.0404
G1 X70.07 Y70.004 E3.09998
G1 X68.596 Y70.712 E3.15445
G1 X67.203 Y71.64 E3.21021
G1 X65.966 Y72.743 E3.26541
G1 X64.892 Y74.014 E3.32084
G1 X64.011 Y75.41 E3.37583
G1 X63.337 Y76.916 E3.43079
G1 X62.843 Y78.62 E3.48989
G1 X62.731 Y79.256 E3.5114
G1 X62.608 Y81 E3.56964
G1 X62.725 Y82.658 E3.625
G1 X63.088 Y84.353 E3.68274
G1 X63.302 Y85.006 E3.70563
G1 X64.01 Y86.586 E3.76331
G1 X64.892 Y87.987 E3.81845
G1 X65.966 Y89.257 E3.87386
G1 X67.202 Y90.36 E3.92904
G1 X68.593 Y91.285 E3.98468
G1 X70.152 Y92.035 E4.04231
G1 X70.775 Y92.256 E4.06433
G1 X72.487 Y92.671 E4.12301
G1 X74.143 Y92.829 E4.17842
G1 X75.788 Y92.758 E4.23327
G1 X77.421 Y92.451 E4.28862
G1 X79.082 Y91.893 E4.34698
G1 X79.718 Y91.6 E4.37031
G1 X81.85 Y90.38 E4.45213
G1 X82.403 Y90.11 E4.47263
G1 X82.987 Y89.913 E4.49316
G1 X83.591 Y89.793 E4.51367
G1 X84.122 Y89.754 E4.53141
G1 X85.157 Y89.735 E4.56589
G1 X85.924 Y89.783 E4.59149
G1 X87.03 Y89.943 E4.62872
G1 X87.633 Y90.071 E4.64925
G1 X88.214 Y90.275 E4.66976
G1 X88.764 Y90.553 E4.69029
G1 X89.353 Y90.964 E4.71421
G1 X89.706 Y91.252 E4.72939
G1 X90.157 Y91.671 E4.74989
G1 X90.55 Y92.146 E4.77043
G1 X90.878 Y92.667 E4.79094
G1 X91.122 Y93.191 E4.81019
G1 X91.291 Y93.62 E4.82555
G1 X91.48 Y94.207 E4.84609
G1 X91.59 Y94.813 E4.86661
G1 X91.622 Y95.428 E4.88712
G1 X91.576 Y96.021 E4.90693
G1 X91.512 Y96.477 E4.92227
G1 X91.387 Y97.08 E4.94279
G1 X91.185 Y97.663 E4.96334
G1 X90.909 Y98.214 E4.98387
G1 X90.58 Y98.704 E5.00353
G1 X90.303 Y99.066 E5.01871
G1 X89.898 Y99.53 E5.03923
G1 X89.238 Y100.082 E5.06789
G1 X87.139 Y101.538 E5.15298
G1 X86.605 Y101.859 E5.17373
G1 X84.335 Y103.027 E5.25877
G1 X83.762 Y103.275 E5.27957
G1 X81.37 Y104.131 E5.36419
G1 X80.924 Y104.267 E5.37973
G1 X79.67 Y104.581 E5.42279
G1 X79.359 Y104.648 E5.43338
G1 X78.1 Y104.875 E5.476
G1 X77.635 Y104.935 E5.49162
G1 X75.092 Y105.138 E5.57659
G1 X74.47 Y105.147 E5.59731
G1 X71.925 Y105.016 E5.6822
G1 X71.302 Y104.942 E5.7031
G1 X68.792 Y104.476 E5.78814
G1 X68.19 Y104.323 E5.80883
G1 X65.763 Y103.534 E5.89384
G1 X65.179 Y103.301 E5.91478
G1 X62.875 Y102.197 E5.99988
G1 X62.333 Y101.891 E6.02062
G1 X60.196 Y100.497 E6.10561
G1 X59.695 Y100.121 E6.12647
G1 X57.758 Y98.456 E6.21156
G1 X57.415 Y98.131 E6.2273
G1 X56.522 Y97.194 E6.27041
G1 X56.218 Y96.841 E6.28593
G1 X54.652 Y94.836 E6.37067
G1 X54.296 Y94.312 E6.39178
G1 X52.911 Y91.947 E6.48307
G1 X52.768 Y91.772 E6.4906
G1 X52.707 Y91.725 E6.49316
G1 X52.645 Y91.696 E6.49544
G1 X52.28 Y91.655 E6.50768
G1 X35.18 Y91.659 E7.07729
G1 X34.565 Y91.619 E7.09781
G1 X33.961 Y91.5 E7.11832
G1 X33.377 Y91.304 E7.13884
G1 X32.823 Y91.034 E7.15937
G1 X32.309 Y90.694 E7.1799
G1 X31.809 Y90.256 E7.20204
G1 X31.663 Y90.109 E7.20894
G1 X31.258 Y89.645 E7.22946
G1 X30.917 Y89.132 E7.24998
G1 X30.644 Y88.579 E7.27052
G1 X30.446 Y87.996 E7.29103
G1 X30.325 Y87.392 E7.31155
G1 X30.283 Y86.762 E7.33258
G1 X30.283 Y75.237 E7.71648
G1 X30.323 Y74.622 E7.73701
G1 X30.442 Y74.018 E7.75752
G1 X30.639 Y73.434 E7.77805
G1 X30.909 Y72.88 E7.79858
G1 X31.249 Y72.366 E7.8191
G1 X31.686 Y71.867 E7.8412
G1 X31.833 Y71.721 E7.8481
G1 X32.297 Y71.316 E7.86862
G1 X32.81 Y70.975 E7.88913
G1 X33.363 Y70.702 E7.90968
G0 F2625 X33.642 Y71.129
G1 F900 X34.198 Y70.956 E7.92907
G1 X34.773 Y70.861 E7.94849
G1 X35.174 Y70.841 E7.96186
G1 X52.633 Y70.815 E8.54343
G1 X52.833 Y70.77 E8.55026
G1 X52.97 Y70.705 E8.55531
G1 X53.118 Y70.589 E8.56157
G1 X53.324 Y70.338 E8.57239
G1 X54.736 Y67.928 E8.66543
G1 X55.054 Y67.459 E8.6843
G1 X56.617 Y65.459 E8.76886
G1 X56.893 Y65.141 E8.78288
G1 X57.787 Y64.205 E8.826
G1 X58.093 Y63.914 E8.84006
G1 X60.033 Y62.25 E8.9252
G1 X60.358 Y61.998 E8.9389
G1 X61.389 Y61.274 E8.98086
G1 X61.749 Y61.047 E8.99504
G1 X63.979 Y59.794 E9.08025
G1 X64.481 Y59.554 E9.09878
G1 X66.855 Y58.603 E9.18397
G1 X67.387 Y58.429 E9.20261
G1 X69.859 Y57.8 E9.28758
G1 X70.412 Y57.698 E9.30631
G1 X72.951 Y57.4 E9.39147
G1 X73.507 Y57.371 E9.41001
G1 X76.065 Y57.408 E9.49523
G1 X76.623 Y57.453 E9.51388
G1 X79.135 Y57.823 E9.59846
G1 X79.545 Y57.905 E9.61238
G1 X80.799 Y58.218 E9.65544
G1 X81.203 Y58.34 E9.66949
G1 X83.594 Y59.196 E9.75409
G1 X84.105 Y59.418 E9.77265
G1 X86.374 Y60.585 E9.85764
G1 X86.852 Y60.872 E9.87621
G1 X88.953 Y62.329 E9.96138
G1 X89.408 Y62.693 E9.98079
G1 X89.906 Y63.238 E10.00538
G1 X90.183 Y63.6 E10.02056
G1 X90.505 Y64.086 E10.03998
G1 X90.757 Y64.612 E10.05941
G1 X90.935 Y65.167 E10.07883
G1 X91.017 Y65.592 E10.09324
G1 X91.081 Y66.048 E10.10858
G1 X91.122 Y66.63 E10.12802
G1 X91.083 Y67.211 E10.14741
G1 X90.965 Y67.782 E10.16684
G1 X90.826 Y68.197 E10.18141
G1 X90.657 Y68.626 E10.19677
G1 X90.407 Y69.152 E10.21617
G1 X90.087 Y69.639 E10.23558
G1 X89.704 Y70.078 E10.25499
G1 X89.39 Y70.361 E10.26907
G1 X89.037 Y70.649 E10.28425
G1 X88.561 Y70.986 E10.30367
G1 X88.044 Y71.254 E10.32307
G1 X87.495 Y71.449 E10.34248
G1 X86.958 Y71.562 E10.36076
G1 X85.852 Y71.722 E10.39798
G1 X85.166 Y71.765 E10.42088
G1 X84.131 Y71.746 E10.45536
G1 X83.55 Y71.696 E10.47478
G1 X82.982 Y71.566 E10.49419
G1 X82.437 Y71.36 E10.5136
G1 X82.098 Y71.186 E10.52629
G1 X79.947 Y69.955 E10.60885
G1 X79.263 Y69.64 E10.63393
G1 X77.553 Y69.065 E10.69403
G1 X75.846 Y68.745 E10.75188
G1 X74.131 Y68.67 E10.80906
G1 X72.318 Y68.844 E10.86973
G1 X71.648 Y68.981 E10.89251
G1 X69.893 Y69.535 E10.95381
G1 X68.345 Y70.279 E11.01102
G1 X66.895 Y71.245 E11.06906
G1 X65.606 Y72.395 E11.1266
G1 X64.49 Y73.714 E11.18416
G1 X63.57 Y75.173 E11.24161
G1 X62.866 Y76.746 E11.29902
G1 X62.353 Y78.513 E11.36031
G1 X62.236 Y79.182 E11.38293
G1 X62.108 Y81.007 E11.44387
G1 X62.229 Y82.728 E11.50134
G1 X62.604 Y84.482 E11.56108
G1 X62.834 Y85.183 E11.58566
G1 X63.57 Y86.827 E11.64566
G1 X64.488 Y88.283 E11.70299
G1 X65.606 Y89.605 E11.76067
G1 X66.895 Y90.755 E11.81821
G1 X68.347 Y91.722 E11.87632
G1 X69.959 Y92.497 E11.9359
G1 X70.632 Y92.736 E11.95969
G1 X72.399 Y93.164 E12.02025
G1 X74.131 Y93.33 E12.07821
G1 X75.846 Y93.255 E12.13539
G1 X77.553 Y92.935 E12.19324
G1 X79.263 Y92.36 E12.25334
G1 X79.947 Y92.045 E12.27842
G1 X82.098 Y90.814 E12.36097
G1 X82.622 Y90.56 E12.38037
G1 X83.177 Y90.38 E12.39981
G1 X83.75 Y90.278 E12.41919
G1 X84.131 Y90.254 E12.43191
G1 X85.166 Y90.235 E12.46639
G1 X85.852 Y90.278 E12.48929
G1 X86.958 Y90.438 E12.52651
G1 X87.528 Y90.561 E12.54594
G1 X88.076 Y90.76 E12.56536
G1 X88.591 Y91.033 E12.58477
G1 X89.037 Y91.351 E12.60302
G1 X89.39 Y91.639 E12.61819
G1 X89.815 Y92.037 E12.63759
G1 X90.182 Y92.49 E12.65701
G1 X90.483 Y92.989 E12.67642
G1 X90.657 Y93.374 E12.6905
G1 X90.826 Y93.803 E12.70585
G1 X91.002 Y94.359 E12.72528
G1 X91.1 Y94.933 E12.74468
G1 X91.119 Y95.516 E12.76411
G1 X91.081 Y95.952 E12.77869
G1 X91.017 Y96.408 E12.79402
G1 X90.896 Y96.978 E12.81343
G1 X90.699 Y97.526 E12.83283
G1 X90.429 Y98.042 E12.85223
G1 X90.183 Y98.4 E12.8667
G1 X89.906 Y98.762 E12.88188
G1 X89.521 Y99.199 E12.90128
G1 X88.953 Y99.671 E12.92588
G1 X86.854 Y101.127 E13.01098
G1 X86.376 Y101.414 E13.02955
G1 X84.106 Y102.582 E13.11459
G1 X83.594 Y102.804 E13.13318
G1 X81.202 Y103.66 E13.2178
G1 X80.802 Y103.782 E13.23173
G1 X79.548 Y104.096 E13.27479
G1 X79.27 Y104.156 E13.28427
G1 X78.011 Y104.383 E13.32688
G1 X77.595 Y104.437 E13.34085
G1 X75.052 Y104.64 E13.42583
G1 X74.496 Y104.647 E13.44435
G1 X71.951 Y104.516 E13.52924
G1 X71.393 Y104.451 E13.54795
G1 X68.883 Y103.985 E13.63299
G1 X68.345 Y103.848 E13.65148
G1 X65.918 Y103.059 E13.73649
G1 X65.395 Y102.85 E13.75525
G1 X63.091 Y101.746 E13.84036
G1 X62.606 Y101.473 E13.8589
G1 X60.469 Y100.079 E13.94389
G1 X60.021 Y99.742 E13.96256
G1 X58.084 Y98.077 E14.04764
G1 X57.777 Y97.786 E14.06173
G1 X56.884 Y96.849 E14.10485
G1 X56.612 Y96.533 E14.11874
G1 X55.046 Y94.528 E14.20348
G1 X54.727 Y94.059 E14.22238
G1 X53.319 Y91.654 E14.31521
G1 X53.122 Y91.414 E14.32555
G1 X52.973 Y91.298 E14.33184
G1 X52.782 Y91.208 E14.33887
G1 X52.308 Y91.155 E14.35476
G1 X35.18 Y91.159 E14.9253
G1 X34.599 Y91.119 E14.9447
G1 X34.028 Y91 E14.96413
G1 X33.479 Y90.804 E14.98355
G1 X32.962 Y90.535 E15.00296
G1 X32.487 Y90.198 E15.02236
G1 X32.164 Y89.904 E15.03691
G1 X32.018 Y89.757 E15.04381
G1 X31.636 Y89.316 E15.06324
G1 X31.319 Y88.828 E15.08263
G1 X31.071 Y88.3 E15.10206
G1 X30.898 Y87.744 E15.12146
G1 X30.803 Y87.169 E15.14087
G1 X30.783 Y86.762 E15.15444
G1 X30.783 Y75.237 E15.53834
G1 X30.823 Y74.656 E15.55774
G1 X30.942 Y74.085 E15.57717
G1 X31.138 Y73.536 E15.59659
G1 X31.407 Y73.02 E15.61597
G1 X31.745 Y72.544 E15.63542
G1 X32.038 Y72.222 E15.64992
G1 X32.185 Y72.076 E15.65682
G1 X32.626 Y71.694 E15.67626
G1 X33.114 Y71.377 E15.69564
G1 X33.642 Y71.129 E15.71507
G0 F2625 X33.916 Y71.56
G1 F900 X34.444 Y71.414 E15.73332
G1 X35.174 Y71.341 E15.75776
G1 X52.69 Y71.315 E16.34122
G1 X52.996 Y71.245 E16.35168
G1 X53.234 Y71.133 E16.36044
G1 X53.47 Y70.948 E16.37043
G1 X53.732 Y70.629 E16.38418
G1 X55.167 Y68.18 E16.47873
G1 X55.448 Y67.767 E16.49537
G1 X57.011 Y65.767 E16.57992
G1 X57.254 Y65.486 E16.5923
G1 X58.148 Y64.55 E16.63541
G1 X58.419 Y64.294 E16.64783
G1 X60.359 Y62.63 E16.73297
G1 X60.645 Y62.407 E16.74505
G1 X61.676 Y61.683 E16.78701
G1 X61.994 Y61.483 E16.79953
G1 X64.224 Y60.23 E16.88473
G1 X64.667 Y60.018 E16.90109
G1 X67.041 Y59.067 E16.98628
G1 X67.51 Y58.914 E17.00271
G1 X69.982 Y58.285 E17.08768
G1 X70.47 Y58.195 E17.10421
G1 X73.009 Y57.897 E17.18936
G1 X73.5 Y57.871 E17.20574
G1 X76.058 Y57.908 E17.29096
G1 X76.55 Y57.948 E17.3074
G1 X79.062 Y58.318 E17.39198
G1 X79.424 Y58.39 E17.40427
G1 X80.678 Y58.703 E17.44733
G1 X81.034 Y58.81 E17.45971
G1 X83.425 Y59.666 E17.54431
G1 X83.876 Y59.862 E17.56069
G1 X86.145 Y61.029 E17.64568
G1 X86.567 Y61.282 E17.66207
G1 X88.668 Y62.739 E17.74723
G1 X89.094 Y63.083 E17.76547
G1 X89.509 Y63.542 E17.78609
G1 X89.786 Y63.904 E17.80127
G1 X90.086 Y64.362 E17.81951
G1 X90.316 Y64.859 E17.83775
G1 X90.472 Y65.383 E17.85596
G1 X90.522 Y65.662 E17.8654
G1 X90.586 Y66.118 E17.88074
G1 X90.622 Y66.664 E17.89897
G1 X90.578 Y67.21 E17.91721
G1 X90.456 Y67.743 E17.93543
G1 X90.361 Y68.013 E17.94496
G1 X90.192 Y68.442 E17.96032
G1 X89.955 Y68.936 E17.97857
G1 X89.648 Y69.389 E17.9968
G1 X89.074 Y69.974 E18.0241
G1 X88.721 Y70.262 E18.03928
G1 X88.272 Y70.576 E18.05753
G1 X87.783 Y70.821 E18.07575
G1 X87.263 Y70.993 E18.09399
G1 X86.887 Y71.067 E18.10676
G1 X85.781 Y71.227 E18.14398
G1 X85.175 Y71.265 E18.16421
G1 X84.14 Y71.246 E18.19869
G1 X83.595 Y71.196 E18.21692
G1 X83.063 Y71.068 E18.23515
G1 X82.346 Y70.752 E18.26125
G1 X80.177 Y69.511 E18.34449
G1 X79.446 Y69.174 E18.3713
G1 X77.681 Y68.581 E18.43332
G1 X75.898 Y68.246 E18.49375
G1 X74.119 Y68.169 E18.55307
G1 X72.253 Y68.348 E18.61551
G1 X71.516 Y68.499 E18.64057
G1 X69.706 Y69.07 E18.70379
G1 X68.096 Y69.844 E18.76329
G1 X66.592 Y70.845 E18.82348
G1 X65.246 Y72.046 E18.88356
G1 X64.085 Y73.418 E18.94343
G1 X63.127 Y74.938 E19.00328
G1 X62.394 Y76.575 E19.06303
G1 X61.868 Y78.388 E19.12591
G1 X61.738 Y79.128 E19.15094
G1 X61.607 Y81 E19.21345
G1 X61.734 Y82.803 E19.27365
G1 X62.121 Y84.612 E19.33528
G1 X62.367 Y85.364 E19.36163
G1 X63.127 Y87.062 E19.4236
G1 X64.086 Y88.583 E19.4835
G1 X65.246 Y89.954 E19.54332
G1 X66.587 Y91.151 E19.60319
G1 X68.098 Y92.156 E19.66364
G1 X69.768 Y92.96 E19.72538
G1 X70.493 Y93.217 E19.751
G1 X72.317 Y93.659 E19.81352
