;Generated by Cura LulzBot Edition GCodeWriter Version: 3.6.20
;FLAVOR:Marlin
;TIME:4619
;Filament used: 1.87208m
;Layer height: 0.25
;Generated with Cura_SteamEngine 3.6.20
M82 ;absolute extrusion mode
;This G-Code has been generated specifically for the LulzBot Mini 2 with SE 0.5mm Tool Head
M73 P0                  ; clear GLCD progress bar
M75 					; Start GLCD Print Timer
G26 					; clear potential 'probe fail' condition
M107 					; disable fans
M420 S0                 ; disable leveling matrix
G90 					; absolute positioning
M82 					; set extruder to absolute mode
G92 E0 					; set extruder position to 0
M140 S60.0 ; start bed heating up
G28 					; home all axes
G0 X0 Y187 Z156 F200 			; move away from endstops
M117 Mini 2 Wiping...			; progress indicator message on LCD
M109 R140 	; soften filament before retraction
G1 E-15 F75 				; retract filament
M109 R140 	; wait for extruder to reach wiping temp
G1 X45 Y176 F11520 			; move above wiper pad
G1 Z0 F1200 				; push nozzle into wiper
G1 X45 Y178 Z-.5 F4000		; wiping
G1 X55 Y176 Z-.5 F4000		; wiping
G1 X45 Y177 Z0 F4000		; wiping
G1 X55 Y176 F4000		; wiping
G1 X45 Y178 F4000		; wiping
G1 X55 Y176 F4000		; wiping
G1 X45 Y178 F4000		; wiping
G1 X55 Y176 F4000		; wiping
G1 X60 Y178 F4000		; wiping
G1 X80 Y176 F4000		; wiping
G1 X60 Y178 F4000		; wiping
G1 X80 Y176 F4000		; wiping
G1 X60 Y178 F4000		; wiping
G1 X90 Y176 F4000		; wiping
G1 X80 Y178 F4000		; wiping
G1 X100 Y176 F4000		; wiping
G1 X80 Y178 F4000		; wiping
G1 X100 Y176 F4000		; wiping
G1 X80 Y178 F4000		; wiping
G1 X100 Y176 F4000		; wiping
G1 X110 Y178 F4000		; wiping
G1 X100 Y176 F4000		; wiping
G1 X110 Y178 F4000		; wiping
G1 X100 Y176 F4000		; wiping
G1 X110 Y178 F4000		; wiping
G1 X115 Y176 Z-0.5 F1000	; wiping
G1 Z10					; raise extruder
G28 X0 Y0				; home X and Y
M109 R140	; wait for extruder to reach probe temp
M204 S300				; set probing acceleration
G29					; start auto-leveling sequence
M420 S1                     ; enable leveling matrix
M425 Z			     		; use measured Z backlash for compensation
M425 Z F0		     		; turn off measured Z backlash compensation. (if activated in the quality settings, this command will automatically be ignored)
M204 S2000				; restore standard acceleration
G1 X5 Y15 Z10 F5000			; move up off last probe point
G4 S1					; pause
M400					; wait for moves to finish
M117 Heating...				; progress indicator message on LCD
M109 R210 ; wait for extruder to reach initial printing temp
M190 R60.0 ; wait for bed to reach printing temp
G1 Z2 E0 F75				; prime tiny bit of filment into the nozzle
M117 Mini 2 Printing...		; progress indicator message on LCD

M221 S100 T0
G92 E0
G1 F600 E-1.75
;LAYER_COUNT:73
;LAYER:0
M107
G0 F2625 X19.037 Y41.652 Z0.425
;TYPE:SKIRT
G1 F600 E0
G1 F900 X19.62 Y41.454 E0.02051
G1 X20.224 Y41.333 E0.04103
G1 X20.845 Y41.291 E0.06176
G1 X35.355 Y41.262 E0.5451
G1 X35.426 Y41.245 E0.54753
G1 X35.491 Y41.213 E0.54994
G1 X35.546 Y41.168 E0.55231
G1 X35.649 Y41.03 E0.55804
G1 X36.334 Y39.638 E0.60972
G1 X36.541 Y39.262 E0.62402
G1 X38.025 Y36.827 E0.71901
G1 X38.376 Y36.326 E0.73938
G1 X40.166 Y34.095 E0.83466
G1 X40.584 Y33.639 E0.85527
G1 X42.643 Y31.665 E0.95028
G1 X43.112 Y31.27 E0.97071
G1 X45.407 Y29.579 E1.06566
G1 X45.927 Y29.246 E1.08623
G1 X48.431 Y27.862 E1.18154
G1 X48.987 Y27.6 E1.20201
G1 X51.631 Y26.558 E1.29667
G1 X52.214 Y26.37 E1.31708
G1 X54.981 Y25.674 E1.41212
G1 X55.587 Y25.563 E1.43264
G1 X58.419 Y25.231 E1.52762
G1 X59.034 Y25.199 E1.54814
G1 X61.89 Y25.236 E1.64328
G1 X62.504 Y25.284 E1.66379
G1 X65.315 Y25.688 E1.75839
G1 X65.913 Y25.814 E1.77875
G1 X68.671 Y26.582 E1.87411
G1 X69.252 Y26.785 E1.89461
G1 X71.862 Y27.892 E1.98905
G1 X72.277 Y28.093 E2.00441
G1 X73.545 Y28.783 E2.0525
G1 X73.94 Y29.023 E2.06789
G1 X76.288 Y30.614 E2.16237
G1 X76.774 Y30.992 E2.18288
G1 X77.301 Y31.541 E2.20823
G1 X77.569 Y31.869 E2.22234
G1 X77.927 Y32.37 E2.24285
G1 X78.218 Y32.913 E2.26337
G1 X78.435 Y33.49 E2.2839
G1 X78.532 Y33.864 E2.29677
G1 X78.621 Y34.273 E2.31072
G1 X78.713 Y34.882 E2.33123
G1 X78.725 Y35.498 E2.35176
G1 X78.657 Y36.111 E2.3723
G1 X78.582 Y36.461 E2.38422
G1 X78.476 Y36.875 E2.39846
G1 X78.284 Y37.461 E2.419
G1 X78.019 Y38.017 E2.43952
G1 X77.684 Y38.534 E2.46004
G1 X77.406 Y38.873 E2.47464
G1 X77.121 Y39.19 E2.48884
G1 X76.681 Y39.62 E2.50933
G1 X76.188 Y39.99 E2.52987
G1 X75.651 Y40.293 E2.55041
G1 X75.151 Y40.5 E2.56843
G1 X74.106 Y40.864 E2.60529
G1 X73.249 Y41.075 E2.63469
G1 X71.489 Y41.339 E2.69397
G1 X70.875 Y41.391 E2.7145
G1 X70.548 Y41.386 E2.72539
G1 X68.778 Y41.298 E2.78443
G1 X68.166 Y41.228 E2.80494
G1 X67.568 Y41.079 E2.82547
G1 X66.992 Y40.852 E2.8461
G1 X65.707 Y40.248 E2.89339
G1 X63.759 Y39.507 E2.96282
G1 X62.921 Y39.289 E2.99166
G1 X62.101 Y39.139 E3.01943
G1 X60.176 Y38.992 E3.08374
G1 X58.32 Y39.116 E3.1457
G1 X56.429 Y39.52 E3.21011
G1 X55.71 Y39.757 E3.23533
G1 X53.939 Y40.559 E3.30009
G1 X52.292 Y41.612 E3.3652
G1 X51.717 Y42.075 E3.3898
G1 X50.28 Y43.505 E3.45733
G1 X49.762 Y44.144 E3.48473
G1 X49.272 Y44.844 E3.51319
G1 X48.34 Y46.545 E3.5778
G1 X47.653 Y48.379 E3.64303
G1 X47.443 Y49.196 E3.67113
G1 X47.298 Y50.002 E3.69841
G1 X47.158 Y51.949 E3.76343
G1 X47.298 Y53.885 E3.82809
G1 X47.446 Y54.704 E3.85581
G1 X47.656 Y55.527 E3.88411
G1 X48.342 Y57.357 E3.94921
G1 X49.265 Y59.044 E4.01326
G1 X49.764 Y59.759 E4.04231
G1 X50.28 Y60.394 E4.06956
G1 X51.714 Y61.821 E4.13695
G1 X52.359 Y62.339 E4.16451
G1 X53.072 Y62.833 E4.1934
G1 X54.852 Y63.795 E4.2608
G1 X55.633 Y64.117 E4.28894
G1 X56.429 Y64.379 E4.31685
G1 X58.32 Y64.783 E4.38126
G1 X60.176 Y64.907 E4.44323
G1 X62.095 Y64.761 E4.50733
G1 X62.929 Y64.606 E4.53559
G1 X63.759 Y64.392 E4.56414
G1 X65.707 Y63.651 E4.63357
G1 X66.992 Y63.047 E4.68086
G1 X67.566 Y62.821 E4.70141
G1 X68.164 Y62.672 E4.72194
G1 X68.778 Y62.601 E4.74253
G1 X70.549 Y62.513 E4.80159
G1 X71.165 Y62.522 E4.82211
G1 X71.49 Y62.56 E4.83301
G1 X73.249 Y62.824 E4.89226
G1 X74.106 Y63.035 E4.92166
G1 X75.151 Y63.399 E4.95852
G1 X75.719 Y63.639 E4.97906
G1 X76.251 Y63.951 E4.99961
G1 X76.737 Y64.328 E5.0201
G1 X77.121 Y64.709 E5.03812
G1 X77.406 Y65.026 E5.05231
G1 X77.788 Y65.51 E5.07285
G1 X78.103 Y66.039 E5.09336
G1 X78.347 Y66.605 E5.11389
G1 X78.475 Y67.021 E5.12839
G1 X78.581 Y67.434 E5.14259
G1 X78.695 Y68.04 E5.16313
G1 X78.73 Y68.655 E5.18365
G1 X78.685 Y69.269 E5.20416
G1 X78.622 Y69.623 E5.21614
G1 X78.533 Y70.033 E5.23011
G1 X78.363 Y70.625 E5.25063
G1 X78.119 Y71.19 E5.27113
G1 X77.803 Y71.719 E5.29166
G1 X77.569 Y72.03 E5.30462
G1 X77.301 Y72.358 E5.31873
G1 X76.881 Y72.809 E5.33926
G1 X76.286 Y73.286 E5.36466
G1 X73.938 Y74.876 E5.45912
G1 X73.549 Y75.113 E5.47429
G1 X72.282 Y75.804 E5.52236
G1 X71.862 Y76.007 E5.5379
G1 X69.251 Y77.114 E5.63237
G1 X68.671 Y77.317 E5.65284
G1 X66.479 Y77.927 E5.72863
G1 X66.569 Y78.305 E5.74157
G1 X66.633 Y78.917 E5.76207
G1 X66.618 Y79.533 E5.7826
G1 X66.522 Y80.142 E5.80313
G1 X66.349 Y80.733 E5.82365
G1 X66.1 Y81.297 E5.84418
G1 X65.781 Y81.824 E5.8647
G1 X65.396 Y82.305 E5.88523
G1 X64.952 Y82.732 E5.90574
G1 X64.457 Y83.099 E5.92627
G1 X63.68 Y83.503 E5.95544
G1 X63.231 Y83.686 E5.97159
G1 X62.646 Y83.881 E5.99213
G1 X62.042 Y83.998 E6.01263
G1 X61.196 Y84.031 E6.04083
G1 X60.471 Y83.994 E6.06501
G1 X58.714 Y84.061 E6.12358
G1 X58.098 Y84.044 E6.14411
G1 X57.49 Y83.948 E6.16461
G1 X56.899 Y83.774 E6.18513
G1 X56.335 Y83.525 E6.20567
G1 X55.809 Y83.205 E6.22618
G1 X55.328 Y82.82 E6.2467
G1 X54.901 Y82.375 E6.26724
G1 X54.535 Y81.879 E6.28778
G1 X54.237 Y81.34 E6.30829
G1 X54.011 Y80.767 E6.32881
G1 X53.861 Y80.17 E6.34931
G1 X53.783 Y79.277 E6.37917
G1 X53.786 Y78.893 E6.39197
G1 X53.831 Y78.278 E6.41251
G1 X53.898 Y77.953 E6.42356
G1 X52.206 Y77.527 E6.48168
G1 X51.62 Y77.338 E6.50219
G1 X48.977 Y76.294 E6.59685
G1 X48.422 Y76.032 E6.61729
G1 X45.919 Y74.647 E6.71258
G1 X45.401 Y74.315 E6.73308
G1 X43.106 Y72.624 E6.82803
G1 X42.635 Y72.227 E6.84855
G1 X40.577 Y70.252 E6.94357
G1 X40.16 Y69.797 E6.96412
G1 X38.37 Y67.565 E7.05943
G1 X38.018 Y67.062 E7.07988
G1 X36.536 Y64.626 E7.17486
G1 X36.332 Y64.255 E7.18896
G1 X35.649 Y62.867 E7.24049
G1 X35.547 Y62.733 E7.2461
G1 X35.491 Y62.686 E7.24854
G1 X35.426 Y62.654 E7.25095
G1 X35.355 Y62.637 E7.25338
G1 X20.844 Y62.608 E7.73675
G1 X20.229 Y62.567 E7.75728
G1 X19.625 Y62.446 E7.7778
G1 X19.041 Y62.249 E7.79833
G1 X18.488 Y61.977 E7.81886
G1 X17.975 Y61.637 E7.83936
G1 X17.483 Y61.205 E7.86117
G1 X17.337 Y61.058 E7.86807
G1 X16.932 Y60.594 E7.88859
G1 X16.591 Y60.081 E7.90911
G1 X16.318 Y59.528 E7.92965
G1 X16.12 Y58.945 E7.95016
G1 X15.999 Y58.341 E7.97068
G1 X15.957 Y57.711 E7.99171
G1 X15.957 Y46.187 E8.37558
G1 X15.997 Y45.572 E8.39611
G1 X16.116 Y44.968 E8.41661
G1 X16.313 Y44.384 E8.43714
G1 X16.583 Y43.83 E8.45767
G1 X16.923 Y43.316 E8.4782
G1 X17.36 Y42.817 E8.5003
G1 X17.507 Y42.671 E8.5072
G1 X17.971 Y42.266 E8.52771
G1 X18.484 Y41.925 E8.54823
G1 X19.037 Y41.652 E8.56877
G0 F2625 X19.316 Y42.079
G1 F900 X19.872 Y41.906 E8.58817
G1 X20.447 Y41.811 E8.60758
G1 X20.846 Y41.791 E8.62089
G1 X35.415 Y41.762 E9.10619
G1 X35.597 Y41.719 E9.11242
G1 X35.764 Y41.636 E9.11863
G1 X35.909 Y41.516 E9.1249
G1 X36.079 Y41.29 E9.13432
G1 X36.783 Y39.859 E9.18745
G1 X36.968 Y39.522 E9.20025
G1 X38.452 Y37.087 E9.29524
G1 X38.766 Y36.639 E9.31346
G1 X40.556 Y34.408 E9.40874
G1 X40.93 Y34 E9.42718
G1 X42.989 Y32.026 E9.52219
G1 X43.409 Y31.672 E9.54049
G1 X45.704 Y29.981 E9.63545
G1 X46.169 Y29.683 E9.65384
G1 X48.673 Y28.299 E9.74915
G1 X49.171 Y28.065 E9.76747
G1 X51.815 Y27.023 E9.86214
G1 X52.336 Y26.855 E9.88037
G1 X55.103 Y26.159 E9.97541
G1 X55.645 Y26.06 E9.99377
G1 X58.477 Y25.728 E10.08875
G1 X59.027 Y25.699 E10.10709
G1 X61.883 Y25.736 E10.20224
G1 X62.433 Y25.779 E10.22061
G1 X65.244 Y26.183 E10.31521
G1 X65.779 Y26.296 E10.33343
G1 X68.537 Y27.064 E10.42879
G1 X69.056 Y27.245 E10.4471
G1 X71.666 Y28.352 E10.54154
G1 X72.038 Y28.532 E10.5553
G1 X73.306 Y29.222 E10.60339
G1 X73.659 Y29.437 E10.61716
G1 X76.007 Y31.028 E10.71163
G1 X76.466 Y31.387 E10.73104
G1 X76.914 Y31.857 E10.75267
G1 X77.182 Y32.185 E10.76678
G1 X77.519 Y32.66 E10.78618
G1 X77.788 Y33.178 E10.80562
G1 X78.044 Y33.97 E10.83335
G1 X78.133 Y34.379 E10.84729
G1 X78.217 Y34.956 E10.86672
G1 X78.222 Y35.539 E10.88614
G1 X78.097 Y36.337 E10.91304
G1 X77.991 Y36.751 E10.92728
G1 X77.808 Y37.304 E10.94668
G1 X77.551 Y37.828 E10.96612
G1 X77.225 Y38.311 E10.98553
G1 X77.034 Y38.538 E10.99541
G1 X76.749 Y38.855 E11.00961
G1 X76.331 Y39.261 E11.02902
G1 X75.861 Y39.606 E11.04845
G1 X75.348 Y39.883 E11.06787
G1 X74.987 Y40.027 E11.08081
G1 X73.942 Y40.391 E11.11767
G1 X73.174 Y40.581 E11.14403
G1 X71.414 Y40.845 E11.20331
G1 X70.573 Y40.887 E11.23136
G1 X68.803 Y40.799 E11.29039
G1 X68.224 Y40.73 E11.30981
G1 X67.66 Y40.583 E11.32923
G1 X67.205 Y40.4 E11.34556
G1 X65.905 Y39.789 E11.39341
G1 X63.905 Y39.029 E11.46468
G1 X63.029 Y38.801 E11.49483
G1 X62.172 Y38.643 E11.52386
G1 X60.173 Y38.491 E11.59064
G1 X58.252 Y38.619 E11.65477
G1 X56.307 Y39.035 E11.72102
G1 X55.512 Y39.297 E11.74891
G1 X53.702 Y40.117 E11.8151
G1 X52.003 Y41.202 E11.88225
G1 X51.388 Y41.698 E11.90857
G1 X49.901 Y43.178 E11.97845
G1 X49.37 Y43.833 E12.00654
G1 X48.843 Y44.585 E12.03713
G1 X47.885 Y46.334 E12.10355
G1 X47.177 Y48.225 E12.17081
G1 X46.954 Y49.092 E12.20063
G1 X46.801 Y49.944 E12.22947
G1 X46.657 Y51.949 E12.29643
G1 X46.8 Y53.945 E12.36309
G1 X46.956 Y54.802 E12.3921
G1 X47.18 Y55.683 E12.42238
G1 X47.884 Y57.563 E12.48925
G1 X48.846 Y59.318 E12.55592
G1 X49.361 Y60.057 E12.58592
G1 X49.901 Y60.721 E12.61443
G1 X51.387 Y62.2 E12.68427
G1 X52.061 Y62.741 E12.71306
G1 X52.811 Y63.26 E12.74344
G1 X54.639 Y64.249 E12.81267
G1 X55.44 Y64.579 E12.84153
G1 X56.307 Y64.864 E12.87193
G1 X58.252 Y65.28 E12.93818
G1 X60.173 Y65.408 E13.00231
G1 X62.168 Y65.256 E13.06896
G1 X63.031 Y65.096 E13.0982
G1 X63.907 Y64.87 E13.12833
G1 X65.905 Y64.11 E13.19954
G1 X67.205 Y63.499 E13.24739
G1 X67.748 Y63.288 E13.26679
G1 X68.315 Y63.153 E13.28621
G1 X68.803 Y63.1 E13.30256
G1 X70.574 Y63.012 E13.36162
G1 X71.416 Y63.054 E13.38971
G1 X73.175 Y63.318 E13.44895
G1 X73.942 Y63.508 E13.47528
G1 X74.987 Y63.872 E13.51214
G1 X75.523 Y64.1 E13.53154
G1 X76.022 Y64.401 E13.55095
G1 X76.476 Y64.766 E13.57036
G1 X76.749 Y65.044 E13.58333
G1 X77.034 Y65.361 E13.59753
G1 X77.393 Y65.82 E13.61694
G1 X77.686 Y66.323 E13.63633
G1 X77.907 Y66.863 E13.65577
G1 X77.991 Y67.145 E13.66557
G1 X78.097 Y67.558 E13.67977
G1 X78.202 Y68.132 E13.69921
G1 X78.229 Y68.714 E13.71862
G1 X78.133 Y69.517 E13.74556
G1 X78.044 Y69.927 E13.75953
G1 X77.882 Y70.486 E13.77892
G1 X77.644 Y71.018 E13.79833
G1 X77.182 Y71.714 E13.82616
G1 X76.914 Y72.042 E13.84027
G1 X76.515 Y72.467 E13.85969
G1 X76.006 Y72.872 E13.88136
G1 X73.658 Y74.462 E13.97581
G1 X73.31 Y74.674 E13.98939
G1 X72.043 Y75.365 E14.03746
G1 X71.667 Y75.547 E14.05137
G1 X69.056 Y76.654 E14.14584
G1 X68.537 Y76.835 E14.16415
G1 X65.857 Y77.581 E14.25682
G1 X65.892 Y77.668 E14.25994
G1 X65.949 Y77.853 E14.26639
G1 X66.082 Y78.42 E14.28579
G1 X66.136 Y79 E14.30519
G1 X66.11 Y79.582 E14.3246
G1 X66.005 Y80.156 E14.34404
G1 X65.822 Y80.709 E14.36344
G1 X65.566 Y81.232 E14.38284
G1 X65.24 Y81.715 E14.40225
G1 X64.851 Y82.15 E14.42168
G1 X64.407 Y82.526 E14.44107
G1 X63.915 Y82.839 E14.46049
G1 X63.491 Y83.04 E14.47612
G1 X63.042 Y83.223 E14.49227
G1 X62.489 Y83.405 E14.51166
G1 X61.915 Y83.51 E14.5311
G1 X61.221 Y83.531 E14.55423
G1 X60.477 Y83.493 E14.57904
G1 X58.695 Y83.561 E14.63845
G1 X58.113 Y83.543 E14.65784
G1 X57.538 Y83.446 E14.67727
G1 X56.982 Y83.271 E14.69668
G1 X56.455 Y83.022 E14.7161
G1 X55.968 Y82.703 E14.73549
G1 X55.528 Y82.32 E14.75492
G1 X55.145 Y81.881 E14.77433
G1 X54.826 Y81.393 E14.79375
G1 X54.577 Y80.866 E14.81316
G1 X54.401 Y80.311 E14.83256
G1 X54.304 Y79.736 E14.85198
G1 X54.283 Y79.281 E14.86715
G1 X54.286 Y78.897 E14.87995
G1 X54.331 Y78.316 E14.89936
G1 X54.454 Y77.746 E14.91878
G1 X54.511 Y77.591 E14.92428
G1 X52.328 Y77.042 E14.99926
G1 X51.804 Y76.873 E15.0176
G1 X49.161 Y75.829 E15.11226
G1 X48.664 Y75.595 E15.13056
G1 X46.161 Y74.21 E15.22585
G1 X45.698 Y73.913 E15.24417
G1 X43.403 Y72.222 E15.33913
G1 X42.981 Y71.866 E15.35752
G1 X40.923 Y69.891 E15.45253
G1 X40.55 Y69.484 E15.47092
G1 X38.76 Y67.252 E15.56623
G1 X38.445 Y66.802 E15.58453
G1 X36.963 Y64.366 E15.67951
G1 X36.781 Y64.034 E15.69212
G1 X36.079 Y62.607 E15.74509
G1 X35.91 Y62.384 E15.75441
G1 X35.764 Y62.263 E15.76073
G1 X35.597 Y62.18 E15.76694
G1 X35.415 Y62.137 E15.77317
G1 X20.845 Y62.108 E16.2585
G1 X20.263 Y62.067 E16.27794
G1 X19.693 Y61.947 E16.29734
G1 X19.145 Y61.75 E16.31674
G1 X18.628 Y61.479 E16.33618
G1 X18.154 Y61.141 E16.35558
G1 X17.838 Y60.853 E16.36982
G1 X17.692 Y60.706 E16.37672
G1 X17.31 Y60.265 E16.39615
G1 X16.993 Y59.777 E16.41554
G1 X16.745 Y59.249 E16.43497
G1 X16.572 Y58.693 E16.45436
G1 X16.477 Y58.118 E16.47378
G1 X16.457 Y57.711 E16.48735
G1 X16.457 Y46.187 E16.87122
G1 X16.497 Y45.606 E16.89062
G1 X16.616 Y45.035 E16.91005
G1 X16.812 Y44.486 E16.92947
G1 X17.081 Y43.97 E16.94885
G1 X17.419 Y43.494 E16.9683
G1 X17.712 Y43.172 E16.9828
G1 X17.859 Y43.026 E16.9897
G1 X18.3 Y42.644 E17.00913
G1 X18.788 Y42.327 E17.02852
G1 X19.316 Y42.079 E17.04795
G0 F2625 X19.59 Y42.51
G1 F900 X20.118 Y42.364 E17.0662
G1 X20.847 Y42.291 E17.0906
G1 X35.471 Y42.262 E17.57773
G1 X35.77 Y42.191 E17.58797
G1 X36.039 Y42.057 E17.59798
G1 X36.274 Y41.862 E17.60815
G1 X36.506 Y41.556 E17.62094
G1 X37.232 Y40.079 E17.67577
G1 X37.395 Y39.782 E17.68705
G1 X38.879 Y37.347 E17.78204
G1 X39.156 Y36.952 E17.79811
G1 X40.946 Y34.721 E17.89339
G1 X41.276 Y34.361 E17.90965
G1 X43.335 Y32.387 E18.00467
G1 X43.706 Y32.075 E18.02082
G1 X46.001 Y30.384 E18.11577
G1 X46.411 Y30.121 E18.132
G1 X48.915 Y28.737 E18.2273
G1 X49.354 Y28.53 E18.24347
G1 X51.998 Y27.488 E18.33813
G1 X52.458 Y27.34 E18.35423
G1 X55.225 Y26.644 E18.44927
G1 X55.703 Y26.557 E18.46546
G1 X58.535 Y26.225 E18.56044
G1 X59.021 Y26.199 E18.57665
G1 X61.877 Y26.236 E18.67179
G1 X62.361 Y26.274 E18.68796
G1 X65.172 Y26.678 E18.78256
