;Generated by Cura LulzBot Edition GCodeWriter Version: 3.6.20
;FLAVOR:Marlin
;TIME:5805
;Filament used: 3.03793m
;Layer height: 0.25
;Generated with Cura_SteamEngine 3.6.20
M82 ;absolute extrusion mode
;This G-Code has been generated specifically for the LulzBot Mini 2 with SE 0.5mm Tool Head
M73 P0                  ; clear GLCD progress bar
M75 					; Start GLCD Print Timer
G26 					; clear potential 'probe fail' condition
M107 					; disable fans
M420 S0                 ; disable leveling matrix
G90 					; absolute positioning
M82 					; set extruder to absolute mode
G92 E0 					; set extruder position to 0
M140 S60.0 ; start bed heating up
G28 					; home all axes
G0 X0 Y187 Z156 F200 			; move away from endstops
M117 Mini 2 Wiping...			; progress indicator message on LCD
M109 R140 	; soften filament before retraction
G1 E-15 F75 				; retract filament
M109 R140 	; wait for extruder to reach wiping temp
G1 X45 Y176 F11520 			; move above wiper pad
G1 Z0 F1200 				; push nozzle into wiper
G1 X45 Y178 Z-.5 F4000		; wiping
G1 X55 Y176 Z-.5 F4000		; wiping
G1 X45 Y177 Z0 F4000		; wiping
G1 X55 Y176 F4000		; wiping
G1 X45 Y178 F4000		; wiping
G1 X55 Y176 F4000		; wiping
G1 X45 Y178 F4000		; wiping
G1 X55 Y176 F4000		; wiping
G1 X60 Y178 F4000		; wiping
G1 X80 Y176 F4000		; wiping
G1 X60 Y178 F4000		; wiping
G1 X80 Y176 F4000		; wiping
G1 X60 Y178 F4000		; wiping
G1 X90 Y176 F4000		; wiping
G1 X80 Y178 F4000		; wiping
G1 X100 Y176 F4000		; wiping
G1 X80 Y178 F4000		; wiping
G1 X100 Y176 F4000		; wiping
G1 X80 Y178 F4000		; wiping
G1 X100 Y176 F4000		; wiping
G1 X110 Y178 F4000		; wiping
G1 X100 Y176 F4000		; wiping
G1 X110 Y178 F4000		; wiping
G1 X100 Y176 F4000		; wiping
G1 X110 Y178 F4000		; wiping
G1 X115 Y176 Z-0.5 F1000	; wiping
G1 Z10					; raise extruder
G28 X0 Y0				; home X and Y
M109 R140	; wait for extruder to reach probe temp
M204 S300				; set probing acceleration
G29					; start auto-leveling sequence
M420 S1                     ; enable leveling matrix
M425 Z			     		; use measured Z backlash for compensation
M425 Z F0		     		; turn off measured Z backlash compensation. (if activated in the quality settings, this command will automatically be ignored)
M204 S2000				; restore standard acceleration
G1 X5 Y15 Z10 F5000			; move up off last probe point
G4 S1					; pause
M400					; wait for moves to finish
M117 Heating...				; progress indicator message on LCD
M109 R210 ; wait for extruder to reach initial printing temp
M190 R60.0 ; wait for bed to reach printing temp
G1 Z2 E0 F75				; prime tiny bit of filment into the nozzle
M117 Mini 2 Printing...		; progress indicator message on LCD

M221 S100 T0
G92 E0
G1 F600 E-1.75
;LAYER_COUNT:6
;LAYER:0
M107
G0 F2625 X17.739 Y30.567 Z0.425
;TYPE:SKIRT
G1 F600 E0
G1 F900 X18.289 Y30.29 E0.02051
G1 X18.87 Y30.086 E0.04102
G1 X19.473 Y29.958 E0.06156
G1 X20.15 Y29.91 E0.08417
G1 X141.85 Y29.91 E4.13804
G1 X142.465 Y29.95 E4.15857
G1 X143.069 Y30.069 E4.17907
G1 X143.653 Y30.266 E4.1996
G1 X144.207 Y30.536 E4.22013
G1 X144.721 Y30.876 E4.24066
G1 X145.187 Y31.279 E4.26118
G1 X145.596 Y31.739 E4.28169
G1 X145.943 Y32.249 E4.30223
G1 X146.22 Y32.799 E4.32275
G1 X146.424 Y33.38 E4.34326
G1 X146.552 Y33.983 E4.36379
G1 X146.6 Y34.66 E4.3864
G1 X146.6 Y127.34 E7.4736
G1 X146.56 Y127.955 E7.49413
G1 X146.441 Y128.559 E7.51464
G1 X146.244 Y129.143 E7.53517
G1 X145.974 Y129.697 E7.5557
G1 X145.634 Y130.211 E7.57623
G1 X145.231 Y130.677 E7.59675
G1 X144.771 Y131.086 E7.61725
G1 X144.261 Y131.433 E7.6378
G1 X143.711 Y131.71 E7.65831
G1 X143.13 Y131.914 E7.67882
G1 X142.527 Y132.042 E7.69936
G1 X141.85 Y132.09 E7.72197
G1 X20.15 Y132.09 E11.77584
G1 X19.535 Y132.05 E11.79637
G1 X18.931 Y131.931 E11.81687
G1 X18.347 Y131.734 E11.8374
G1 X17.793 Y131.464 E11.85793
G1 X17.279 Y131.124 E11.87846
G1 X16.813 Y130.721 E11.89898
G1 X16.404 Y130.261 E11.91949
G1 X16.057 Y129.751 E11.94003
G1 X15.78 Y129.201 E11.96055
G1 X15.576 Y128.62 E11.98106
G1 X15.448 Y128.017 E12.00159
G1 X15.4 Y127.34 E12.0242
G1 X15.4 Y34.66 E15.1114
G1 X15.44 Y34.045 E15.13193
G1 X15.559 Y33.441 E15.15244
G1 X15.756 Y32.857 E15.17297
G1 X16.026 Y32.303 E15.1935
G1 X16.366 Y31.789 E15.21403
G1 X16.769 Y31.323 E15.23455
G1 X17.229 Y30.914 E15.25505
G1 X17.739 Y30.567 E15.2756
G0 F2625 X18.214 Y30.877
G1 F900 X18.75 Y30.647 E15.29503
G1 X19.312 Y30.493 E15.31444
G1 X20.15 Y30.41 E15.34249
G1 X141.85 Y30.41 E19.39636
G1 X142.431 Y30.45 E19.41576
G1 X143.002 Y30.569 E19.43519
G1 X143.551 Y30.765 E19.45461
G1 X144.067 Y31.034 E19.47399
G1 X144.543 Y31.372 E19.49344
G1 X144.967 Y31.771 E19.51283
G1 X145.333 Y32.225 E19.53226
G1 X145.633 Y32.724 E19.55165
G1 X145.863 Y33.26 E19.57108
G1 X146.017 Y33.822 E19.59049
G1 X146.1 Y34.66 E19.61854
G1 X146.1 Y127.34 E22.70574
G1 X146.06 Y127.921 E22.72514
G1 X145.941 Y128.492 E22.74457
G1 X145.745 Y129.041 E22.76399
G1 X145.476 Y129.557 E22.78337
G1 X145.138 Y130.033 E22.80282
G1 X144.739 Y130.457 E22.82221
G1 X144.285 Y130.823 E22.84164
G1 X143.786 Y131.123 E22.86103
G1 X143.25 Y131.353 E22.88046
G1 X142.688 Y131.507 E22.89987
G1 X141.85 Y131.59 E22.92792
G1 X20.15 Y131.59 E26.98179
G1 X19.569 Y131.55 E27.00119
G1 X18.998 Y131.431 E27.02062
G1 X18.449 Y131.235 E27.04004
G1 X17.933 Y130.966 E27.05942
G1 X17.457 Y130.628 E27.07887
G1 X17.033 Y130.229 E27.09826
G1 X16.667 Y129.775 E27.11769
G1 X16.367 Y129.276 E27.13708
G1 X16.137 Y128.74 E27.15651
G1 X15.983 Y128.178 E27.17592
G1 X15.9 Y127.34 E27.20397
G1 X15.9 Y34.66 E30.29118
G1 X15.94 Y34.079 E30.31058
G1 X16.059 Y33.508 E30.33001
G1 X16.255 Y32.959 E30.34942
G1 X16.524 Y32.443 E30.36881
G1 X16.862 Y31.967 E30.38825
G1 X17.261 Y31.543 E30.40765
G1 X17.715 Y31.177 E30.42707
G1 X18.214 Y30.877 E30.44647
G0 F2625 X18.196 Y31.459
G1 F900 X18.683 Y31.209 E30.4647
G1 X19.201 Y31.032 E30.48294
G1 X19.739 Y30.933 E30.50116
G1 X20.15 Y30.91 E30.51487
G1 X141.85 Y30.91 E34.56874
G1 X142.396 Y30.95 E34.58698
G1 X142.93 Y31.069 E34.6052
G1 X143.441 Y31.264 E34.62342
G1 X143.919 Y31.532 E34.64167
G1 X144.352 Y31.867 E34.65991
G1 X144.732 Y32.261 E34.67814
G1 X145.051 Y32.706 E34.69638
G1 X145.301 Y33.193 E34.71462
G1 X145.478 Y33.711 E34.73285
G1 X145.577 Y34.249 E34.75107
G1 X145.6 Y34.66 E34.76479
G1 X145.6 Y127.34 E37.85199
G1 X145.56 Y127.886 E37.87023
G1 X145.441 Y128.42 E37.88845
G1 X145.246 Y128.931 E37.90667
G1 X144.978 Y129.409 E37.92492
G1 X144.643 Y129.842 E37.94316
G1 X144.249 Y130.222 E37.96139
G1 X143.804 Y130.541 E37.97963
G1 X143.317 Y130.791 E37.99787
G1 X142.799 Y130.968 E38.0161
G1 X142.261 Y131.067 E38.03432
G1 X141.85 Y131.09 E38.04803
G1 X20.15 Y131.09 E42.10191
G1 X19.604 Y131.05 E42.12014
G1 X19.07 Y130.931 E42.13837
G1 X18.559 Y130.736 E42.15658
G1 X18.081 Y130.468 E42.17484
G1 X17.648 Y130.133 E42.19308
G1 X17.268 Y129.739 E42.21131
G1 X16.949 Y129.294 E42.22955
G1 X16.699 Y128.807 E42.24778
G1 X16.522 Y128.289 E42.26602
G1 X16.423 Y127.751 E42.28424
G1 X16.4 Y127.34 E42.29795
G1 X16.4 Y34.66 E45.38515
G1 X16.44 Y34.114 E45.40339
G1 X16.559 Y33.58 E45.42161
G1 X16.754 Y33.069 E45.43983
G1 X17.022 Y32.591 E45.45809
G1 X17.357 Y32.158 E45.47632
G1 X17.751 Y31.778 E45.49456
G1 X18.196 Y31.459 E45.5128
G0 F2625 X18.672 Y31.766
G1 F900 X19.142 Y31.57 E45.52976
G1 X19.637 Y31.451 E45.54672
G1 X20.15 Y31.41 E45.56386
G1 X141.85 Y31.41 E49.61773
G1 X142.358 Y31.45 E49.6347
G1 X142.853 Y31.569 E49.65166
G1 X143.324 Y31.764 E49.66864
G1 X143.759 Y32.03 E49.68563
G1 X144.146 Y32.36 E49.70257
G1 X144.478 Y32.747 E49.71955
G1 X144.744 Y33.182 E49.73654
G1 X144.94 Y33.652 E49.7535
G1 X145.059 Y34.147 E49.77046
G1 X145.1 Y34.66 E49.7876
G1 X145.1 Y127.34 E52.87481
G1 X145.06 Y127.848 E52.89178
G1 X144.941 Y128.343 E52.90874
G1 X144.746 Y128.814 E52.92572
G1 X144.48 Y129.249 E52.9427
G1 X144.15 Y129.636 E52.95965
G1 X143.763 Y129.968 E52.97663
G1 X143.328 Y130.234 E52.99361
G1 X142.858 Y130.43 E53.01058
G1 X142.363 Y130.549 E53.02754
G1 X141.85 Y130.59 E53.04468
G1 X20.15 Y130.59 E57.09855
G1 X19.642 Y130.55 E57.11552
G1 X19.147 Y130.431 E57.13248
G1 X18.676 Y130.236 E57.14946
G1 X18.241 Y129.97 E57.16645
G1 X17.854 Y129.64 E57.18339
G1 X17.522 Y129.253 E57.20037
G1 X17.256 Y128.818 E57.21736
G1 X17.06 Y128.348 E57.23432
G1 X16.941 Y127.853 E57.25128
G1 X16.9 Y127.34 E57.26842
G1 X16.9 Y34.66 E60.35563
G1 X16.94 Y34.152 E60.3726
G1 X17.059 Y33.657 E60.38956
G1 X17.254 Y33.186 E60.40654
G1 X17.52 Y32.751 E60.42352
G1 X17.85 Y32.364 E60.44046
G1 X18.237 Y32.032 E60.45745
G1 X18.672 Y31.766 E60.47443
G0 F2625 X18.719 Y32.311
G1 F900 X19.139 Y32.103 E60.49005
G1 X19.588 Y31.968 E60.50566
G1 X20.15 Y31.91 E60.52448
G1 X141.85 Y31.91 E64.57835
G1 X142.317 Y31.95 E64.59397
G1 X142.77 Y32.069 E64.60957
G1 X143.197 Y32.262 E64.62518
G1 X143.584 Y32.526 E64.64078
G1 X143.922 Y32.851 E64.6564
G1 X144.199 Y33.229 E64.67201
G1 X144.407 Y33.649 E64.68762
G1 X144.542 Y34.098 E64.70324
G1 X144.6 Y34.66 E64.72206
G1 X144.6 Y127.34 E67.80927
G1 X144.56 Y127.807 E67.82488
G1 X144.441 Y128.26 E67.84048
G1 X144.248 Y128.687 E67.85609
G1 X143.984 Y129.074 E67.87169
G1 X143.659 Y129.412 E67.88731
G1 X143.281 Y129.689 E67.90292
G1 X142.861 Y129.897 E67.91854
G1 X142.412 Y130.032 E67.93415
G1 X141.85 Y130.09 E67.95297
G1 X20.15 Y130.09 E72.00684
G1 X19.683 Y130.05 E72.02246
G1 X19.23 Y129.931 E72.03806
G1 X18.803 Y129.738 E72.05367
G1 X18.416 Y129.474 E72.06927
G1 X18.078 Y129.149 E72.08489
G1 X17.801 Y128.771 E72.1005
G1 X17.593 Y128.351 E72.11611
G1 X17.458 Y127.902 E72.13173
G1 X17.4 Y127.34 E72.15055
G1 X17.4 Y34.66 E75.23776
G1 X17.44 Y34.193 E75.25337
G1 X17.559 Y33.74 E75.26897
G1 X17.752 Y33.313 E75.28458
G1 X18.016 Y32.926 E75.30018
G1 X18.341 Y32.588 E75.3158
G1 X18.719 Y32.311 E75.33141
G0 F2625 X19.194 Y32.623
G1 F900 X19.593 Y32.48 E75.34553
G1 X20.15 Y32.41 E75.36423
G1 X141.85 Y32.41 E79.4181
G1 X142.272 Y32.45 E79.43222
G1 X142.679 Y32.568 E79.44634
G1 X143.056 Y32.761 E79.46045
G1 X143.391 Y33.021 E79.47457
G1 X143.671 Y33.339 E79.48869
G1 X143.887 Y33.704 E79.50281
G1 X144.03 Y34.103 E79.51693
G1 X144.1 Y34.66 E79.53563
G1 X144.1 Y127.34 E82.62284
G1 X144.06 Y127.762 E82.63696
G1 X143.942 Y128.169 E82.65107
G1 X143.749 Y128.546 E82.66518
G1 X143.489 Y128.881 E82.67931
G1 X143.171 Y129.161 E82.69342
G1 X142.806 Y129.377 E82.70755
G1 X142.407 Y129.52 E82.72167
G1 X141.85 Y129.59 E82.74037
G1 X20.15 Y129.59 E86.79424
G1 X19.728 Y129.55 E86.80836
G1 X19.321 Y129.432 E86.82247
G1 X18.944 Y129.239 E86.83658
G1 X18.609 Y128.979 E86.8507
G1 X18.329 Y128.661 E86.86482
G1 X18.113 Y128.296 E86.87895
G1 X17.97 Y127.897 E86.89307
G1 X17.9 Y127.34 E86.91176
G1 X17.9 Y34.66 E89.99897
G1 X17.94 Y34.238 E90.01309
G1 X18.058 Y33.831 E90.0272
G1 X18.251 Y33.454 E90.04131
G1 X18.511 Y33.119 E90.05544
G1 X18.829 Y32.839 E90.06955
G1 X19.194 Y32.623 E90.08368
G0 F2625 X19.309 Y33.125
G1 F900 X19.654 Y32.982 E90.09612
G1 X20.15 Y32.91 E90.11281
G1 X141.85 Y32.91 E94.16669
G1 X142.221 Y32.95 E94.17912
G1 X142.576 Y33.068 E94.19158
G1 X142.898 Y33.258 E94.20403
G1 X143.171 Y33.512 E94.21645
G1 X143.385 Y33.819 E94.22892
G1 X143.528 Y34.164 E94.24136
G1 X143.6 Y34.66 E94.25805
G1 X143.6 Y127.34 E97.34526
G1 X143.56 Y127.711 E97.35769
G1 X143.442 Y128.066 E97.37015
G1 X143.252 Y128.388 E97.3826
G1 X142.998 Y128.661 E97.39502
G1 X142.691 Y128.875 E97.40749
G1 X142.346 Y129.018 E97.41993
G1 X141.85 Y129.09 E97.43662
G1 X20.15 Y129.09 E101.49049
G1 X19.779 Y129.05 E101.50292
G1 X19.424 Y128.932 E101.51539
G1 X19.102 Y128.742 E101.52784
G1 X18.829 Y128.488 E101.54026
G1 X18.615 Y128.181 E101.55273
G1 X18.472 Y127.836 E101.56517
G1 X18.4 Y127.34 E101.58186
G1 X18.4 Y34.66 E104.66907
G1 X18.44 Y34.289 E104.6815
G1 X18.558 Y33.934 E104.69396
G1 X18.748 Y33.612 E104.70641
G1 X19.002 Y33.339 E104.71883
G1 X19.309 Y33.125 E104.7313
G0 F2625 X19.488 Y33.6
G1 F900 X19.775 Y33.468 E104.74182
G1 X20.15 Y33.41 E104.75446
G1 X141.85 Y33.41 E108.80833
G1 X142.163 Y33.45 E108.81884
G1 X142.456 Y33.567 E108.82935
G1 X142.711 Y33.753 E108.83986
G1 X142.91 Y33.998 E108.85038
G1 X143.042 Y34.285 E108.8609
G1 X143.1 Y34.66 E108.87354
G1 X143.1 Y127.34 E111.96075
G1 X143.06 Y127.653 E111.97126
G1 X142.943 Y127.946 E111.98177
G1 X142.757 Y128.201 E111.99228
G1 X142.512 Y128.4 E112.00279
G1 X142.225 Y128.532 E112.01332
G1 X141.85 Y128.59 E112.02596
G1 X20.15 Y128.59 E116.07983
G1 X19.837 Y128.55 E116.09034
G1 X19.544 Y128.433 E116.10085
G1 X19.289 Y128.247 E116.11136
G1 X19.09 Y128.002 E116.12188
G1 X18.958 Y127.715 E116.1324
G1 X18.9 Y127.34 E116.14504
G1 X18.9 Y34.66 E119.23224
G1 X18.94 Y34.347 E119.24275
G1 X19.057 Y34.054 E119.25326
G1 X19.243 Y33.799 E119.26378
G1 X19.488 Y33.6 E119.27429
G0 F2625 X19.733 Y34.037
G1 F900 X19.955 Y33.936 E119.28241
G1 X20.15 Y33.91 E119.28897
G1 X141.85 Y33.91 E123.34284
G1 X142.091 Y33.95 E123.35098
G1 X142.306 Y34.065 E123.3591
G1 X142.473 Y34.243 E123.36723
G1 X142.574 Y34.465 E123.37535
G1 X142.6 Y34.66 E123.3819
G1 X142.6 Y127.34 E126.46911
G1 X142.56 Y127.581 E126.47725
G1 X142.445 Y127.796 E126.48537
G1 X142.267 Y127.963 E126.4935
G1 X142.045 Y128.064 E126.50162
G1 X141.85 Y128.09 E126.50818
G1 X20.15 Y128.09 E130.56205
G1 X19.909 Y128.05 E130.57018
G1 X19.694 Y127.935 E130.57831
G1 X19.527 Y127.757 E130.58644
G1 X19.426 Y127.535 E130.59456
G1 X19.4 Y127.34 E130.60111
G1 X19.4 Y34.66 E133.68832
G1 X19.44 Y34.419 E133.69646
G1 X19.555 Y34.204 E133.70458
G1 X19.733 Y34.037 E133.71271
G0 F2625 X20.045 Y34.433
G1 F900 X20.15 Y34.41 E133.71629
G1 X141.85 Y34.41 E137.77016
G1 X141.984 Y34.449 E137.77481
G1 X142.077 Y34.555 E137.77951
G1 X142.1 Y34.66 E137.78309
G1 X142.1 Y127.34 E140.87029
G1 X142.061 Y127.474 E140.87494
G1 X141.955 Y127.567 E140.87964
G1 X141.85 Y127.59 E140.88322
G1 X20.15 Y127.59 E144.93709
G1 X20.016 Y127.551 E144.94174
G1 X19.923 Y127.445 E144.94643
G1 X19.9 Y127.34 E144.95001
G1 X19.9 Y34.66 E148.03722
G1 X19.939 Y34.526 E148.04187
G1 X20.045 Y34.433 E148.04656
G1 F600 E146.29656
;MESH:
G0 F2625 X20.914 Y35.424
G0 X70.537 Y64.618
G0 X71.134 Y64.66
;TYPE:WALL-OUTER
G1 F600 E148.04656
G1 F900 X71.231 Y66.034 E148.09245
G1 X71.516 Y67.38 E148.13828
G1 X71.987 Y68.673 E148.18412
G1 X72.633 Y69.889 E148.22998
G1 X73.442 Y71.002 E148.27582
G1 X74.398 Y71.992 E148.32166
G1 X75.483 Y72.84 E148.36753
G1 X76.675 Y73.527 E148.41336
G1 X77.952 Y74.043 E148.45924
G1 X79.286 Y74.376 E148.50504
G1 X80.655 Y74.52 E148.55089
G1 X82.031 Y74.472 E148.59675
G1 X83.387 Y74.233 E148.64262
G1 X84.696 Y73.807 E148.68847
G1 X85.932 Y73.204 E148.73428
G1 X87.074 Y72.435 E148.78014
G1 X88.096 Y71.514 E148.82597
G1 X88.982 Y70.459 E148.87186
G1 X89.711 Y69.292 E148.9177
G1 X90.27 Y68.035 E148.96352
G1 X90.65 Y66.712 E149.00937
G1 X90.842 Y65.349 E149.05522
G1 X90.842 Y63.972 E149.10109
G1 X90.65 Y62.609 E149.14694
G1 X90.27 Y61.286 E149.19279
G1 X89.711 Y60.029 E149.23862
G1 X88.982 Y58.862 E149.28445
G1 X88.096 Y57.807 E149.33034
G1 X87.074 Y56.886 E149.37617
G1 X85.932 Y56.117 E149.42203
G1 X84.696 Y55.514 E149.46784
G1 X83.387 Y55.088 E149.51369
G1 X82.031 Y54.849 E149.55956
G1 X80.655 Y54.801 E149.60542
G1 X79.286 Y54.945 E149.65128
G1 X77.952 Y55.278 E149.69708
G1 X76.675 Y55.794 E149.74295
G1 X75.483 Y56.481 E149.78878
G1 X74.398 Y57.329 E149.83465
G1 X73.442 Y58.319 E149.8805
G1 X72.633 Y59.432 E149.92633
G1 X71.987 Y60.648 E149.9722
G1 X71.516 Y61.941 E150.01804
G1 X71.231 Y63.287 E150.06387
G1 X71.134 Y64.66 E150.10971
G0 F2625 X71.151 Y64.909
G0 X70.554 Y64.95
G0 X70.696 Y66.109
G0 X70.996 Y67.529
G0 X71.493 Y68.893
G0 X72.175 Y70.176
G0 X73.028 Y71.349
G0 X73.845 Y72.194
G0 X141.03 Y126.52
G0 X141.6 Y127.09
G1 F900 X20.4 Y127.09 E154.14693
G1 X20.4 Y34.91 E157.21748
G1 X141.6 Y34.91 E161.2547
G1 X141.6 Y127.09 E164.32524
G0 F2625 X141.35 Y127.09
G0 X141.1 Y126.59
;TYPE:WALL-INNER
G1 F900 X20.9 Y126.59 E168.32915
G1 X20.9 Y35.41 E171.36639
G1 X141.1 Y35.41 E175.37029
G1 X141.1 Y126.59 E178.40753
G0 F2625 X141.03 Y126.52
G0 X87.444 Y72.908
G0 X87.383 Y72.83
G1 F900 X88.457 Y71.862 E178.45569
G1 X89.387 Y70.754 E178.50388
G1 X90.154 Y69.527 E178.55208
G1 X90.741 Y68.206 E178.60023
G1 X91.14 Y66.816 E178.6484
