;Generated by Cura LulzBot Edition GCodeWriter Version: 3.6.20
;FLAVOR:Marlin
;TIME:11974
;Filament used: 4.21656m
;Layer height: 0.25
;Generated with Cura_SteamEngine 3.6.20
M82 ;absolute extrusion mode
;This G-Code has been generated specifically for the LulzBot Mini 2 with SE 0.5mm Tool Head
M73 P0                  ; clear GLCD progress bar
M75 					; Start GLCD Print Timer
G26 					; clear potential 'probe fail' condition
M107 					; disable fans
M420 S0                 ; disable leveling matrix
G90 					; absolute positioning
M82 					; set extruder to absolute mode
G92 E0 					; set extruder position to 0
M140 S60.0 ; start bed heating up
G28 					; home all axes
G0 X0 Y187 Z156 F200 			; move away from endstops
M117 Mini 2 Wiping...			; progress indicator message on LCD
M109 R140 	; soften filament before retraction
G1 E-15 F75 				; retract filament
M109 R140 	; wait for extruder to reach wiping temp
G1 X45 Y176 F11520 			; move above wiper pad
G1 Z0 F1200 				; push nozzle into wiper
G1 X45 Y178 Z-.5 F4000		; wiping
G1 X55 Y176 Z-.5 F4000		; wiping
G1 X45 Y177 Z0 F4000		; wiping
G1 X55 Y176 F4000		; wiping
G1 X45 Y178 F4000		; wiping
G1 X55 Y176 F4000		; wiping
G1 X45 Y178 F4000		; wiping
G1 X55 Y176 F4000		; wiping
G1 X60 Y178 F4000		; wiping
G1 X80 Y176 F4000		; wiping
G1 X60 Y178 F4000		; wiping
G1 X80 Y176 F4000		; wiping
G1 X60 Y178 F4000		; wiping
G1 X90 Y176 F4000		; wiping
G1 X80 Y178 F4000		; wiping
G1 X100 Y176 F4000		; wiping
G1 X80 Y178 F4000		; wiping
G1 X100 Y176 F4000		; wiping
G1 X80 Y178 F4000		; wiping
G1 X100 Y176 F4000		; wiping
G1 X110 Y178 F4000		; wiping
G1 X100 Y176 F4000		; wiping
G1 X110 Y178 F4000		; wiping
G1 X100 Y176 F4000		; wiping
G1 X110 Y178 F4000		; wiping
G1 X115 Y176 Z-0.5 F1000	; wiping
G1 Z10					; raise extruder
G28 X0 Y0				; home X and Y
M109 R140	; wait for extruder to reach probe temp
M204 S300				; set probing acceleration
G29					; start auto-leveling sequence
M420 S1                     ; enable leveling matrix
M425 Z			     		; use measured Z backlash for compensation
M425 Z F0		     		; turn off measured Z backlash compensation. (if activated in the quality settings, this command will automatically be ignored)
M204 S2000				; restore standard acceleration
G1 X5 Y15 Z10 F5000			; move up off last probe point
G4 S1					; pause
M400					; wait for moves to finish
M117 Heating...				; progress indicator message on LCD
M109 R210 ; wait for extruder to reach initial printing temp
M190 R60.0 ; wait for bed to reach printing temp
G1 Z2 E0 F75				; prime tiny bit of filment into the nozzle
M117 Mini 2 Printing...		; progress indicator message on LCD

M221 S100 T0
G92 E0
G1 F600 E-1.75
;LAYER_COUNT:206
;LAYER:0
M107
G0 F2625 X83.349 Y73.213 Z0.425
;TYPE:SKIRT
G1 F600 E0
G1 F900 X83.771 Y72.764 E0.02053
G1 X84.247 Y72.373 E0.04104
G1 X84.77 Y72.047 E0.06157
G1 X85.33 Y71.791 E0.08208
G1 X85.919 Y71.61 E0.10261
G1 X86.527 Y71.507 E0.12315
G1 X87.016 Y71.482 E0.13946
G1 X95.568 Y71.482 E0.42433
G1 X95.793 Y71.021 E0.44142
G1 X96.133 Y70.507 E0.46195
G1 X96.558 Y70.019 E0.4835
G1 X96.704 Y69.873 E0.49038
G1 X97.167 Y69.467 E0.51089
G1 X97.679 Y69.124 E0.53142
G1 X98.231 Y68.85 E0.55195
G1 X98.813 Y68.649 E0.57246
G1 X99.417 Y68.526 E0.59299
G1 X100.063 Y68.482 E0.61456
G1 X129.036 Y68.482 E1.57966
G1 X129.651 Y68.522 E1.60019
G1 X130.255 Y68.641 E1.6207
G1 X130.839 Y68.838 E1.64123
G1 X131.393 Y69.108 E1.66176
G1 X131.907 Y69.448 E1.68228
G1 X132.395 Y69.873 E1.70384
G1 X132.541 Y70.019 E1.71072
G1 X132.947 Y70.482 E1.73123
G1 X133.29 Y70.994 E1.75176
G1 X133.564 Y71.546 E1.77229
G1 X133.765 Y72.128 E1.7928
G1 X133.888 Y72.732 E1.81333
G1 X133.932 Y73.378 E1.8349
G1 X133.931 Y146.086 E4.25683
G1 X133.891 Y146.701 E4.27736
G1 X133.772 Y147.305 E4.29786
G1 X133.575 Y147.889 E4.31839
G1 X133.305 Y148.443 E4.33892
G1 X132.965 Y148.957 E4.35945
G1 X132.54 Y149.445 E4.38101
G1 X132.394 Y149.591 E4.38788
G1 X131.931 Y149.997 E4.4084
G1 X131.419 Y150.34 E4.42892
G1 X130.867 Y150.614 E4.44945
G1 X130.285 Y150.815 E4.46996
G1 X129.681 Y150.938 E4.49049
G1 X129.035 Y150.982 E4.51206
G1 X120.84 Y150.982 E4.78504
G1 X120.225 Y150.942 E4.80557
G1 X119.621 Y150.823 E4.82608
G1 X119.037 Y150.626 E4.84661
G1 X118.328 Y150.264 E4.87312
G1 X118.206 Y150.188 E4.87791
G1 X117.706 Y149.829 E4.89842
G1 X117.256 Y149.408 E4.91894
G1 X116.864 Y148.932 E4.93948
G1 X116.445 Y148.231 E4.96669
G1 X82.596 Y78.542 E7.54739
G1 X82.364 Y77.972 E7.56789
G1 X82.207 Y77.376 E7.58842
G1 X82.128 Y76.765 E7.60894
G1 X82.13 Y76.149 E7.62946
G1 X82.211 Y75.538 E7.64999
G1 X82.37 Y74.943 E7.67051
G1 X82.605 Y74.373 E7.69105
G1 X82.842 Y73.948 E7.70726
G1 X82.989 Y73.713 E7.71649
G1 X83.349 Y73.213 E7.73701
G0 F2625 X83.755 Y73.506
G1 F900 X84.159 Y73.086 E7.75643
G1 X84.616 Y72.725 E7.77582
G1 X85.118 Y72.429 E7.79524
G1 X85.656 Y72.205 E7.81465
G1 X86.22 Y72.057 E7.83407
G1 X87.016 Y71.982 E7.8607
G1 X95.913 Y71.982 E8.15707
G1 X96.022 Y71.677 E8.16786
G1 X96.291 Y71.161 E8.18724
G1 X96.629 Y70.685 E8.20669
G1 X96.912 Y70.373 E8.22072
G1 X97.058 Y70.227 E8.22759
G1 X97.497 Y69.844 E8.247
G1 X97.985 Y69.525 E8.26642
G1 X98.511 Y69.275 E8.28582
G1 X99.067 Y69.1 E8.30524
G1 X99.642 Y69.003 E8.32466
G1 X100.063 Y68.982 E8.3387
G1 X129.036 Y68.982 E9.3038
G1 X129.617 Y69.022 E9.3232
G1 X130.188 Y69.141 E9.34263
G1 X130.737 Y69.337 E9.36205
G1 X131.253 Y69.606 E9.38143
G1 X131.729 Y69.944 E9.40088
G1 X132.041 Y70.227 E9.41491
G1 X132.187 Y70.373 E9.42179
G1 X132.57 Y70.812 E9.44119
G1 X132.889 Y71.3 E9.46062
G1 X133.139 Y71.826 E9.48001
G1 X133.314 Y72.382 E9.49943
G1 X133.411 Y72.957 E9.51886
G1 X133.432 Y73.378 E9.5329
G1 X133.431 Y146.086 E11.95483
G1 X133.391 Y146.667 E11.97423
G1 X133.272 Y147.238 E11.99365
G1 X133.076 Y147.787 E12.01307
G1 X132.807 Y148.303 E12.03246
G1 X132.469 Y148.779 E12.0519
G1 X132.186 Y149.091 E12.06593
G1 X132.04 Y149.237 E12.07281
G1 X131.601 Y149.62 E12.09222
G1 X131.113 Y149.939 E12.11164
G1 X130.587 Y150.189 E12.13104
G1 X130.031 Y150.364 E12.15045
G1 X129.456 Y150.461 E12.16988
G1 X129.035 Y150.482 E12.18392
G1 X120.84 Y150.482 E12.4569
G1 X120.259 Y150.442 E12.4763
G1 X119.688 Y150.323 E12.49573
G1 X119.139 Y150.127 E12.51514
G1 X118.593 Y149.839 E12.53571
G1 X118.471 Y149.763 E12.54049
G1 X117.998 Y149.422 E12.55992
G1 X117.577 Y149.019 E12.57933
G1 X117.215 Y148.563 E12.59872
G1 X116.895 Y148.013 E12.61992
G1 X83.046 Y78.324 E15.20063
G1 X82.828 Y77.783 E15.22006
G1 X82.686 Y77.218 E15.23946
G1 X82.622 Y76.639 E15.25886
G1 X82.639 Y76.056 E15.27829
G1 X82.735 Y75.482 E15.29768
G1 X82.908 Y74.925 E15.31711
G1 X83.266 Y74.213 E15.34365
G1 X83.413 Y73.978 E15.35289
G1 X83.755 Y73.506 E15.3723
G0 F2625 X84.16 Y73.802
G1 F900 X84.544 Y73.412 E15.39053
G1 X84.981 Y73.082 E15.40877
G1 X85.461 Y72.819 E15.42701
G1 X85.975 Y72.629 E15.44526
G1 X86.51 Y72.516 E15.46347
G1 X87.016 Y72.482 E15.48037
G1 X96.285 Y72.482 E15.78912
G1 X96.326 Y72.298 E15.7954
G1 X96.521 Y71.787 E15.81362
G1 X96.789 Y71.309 E15.83187
G1 X97.265 Y70.726 E15.85694
G1 X97.411 Y70.58 E15.86382
G1 X97.826 Y70.223 E15.88206
G1 X98.288 Y69.929 E15.9003
G1 X98.787 Y69.706 E15.9185
G1 X99.314 Y69.558 E15.93674
G1 X100.063 Y69.482 E15.96182
G1 X129.036 Y69.482 E16.92692
G1 X129.582 Y69.522 E16.94515
G1 X130.116 Y69.641 E16.96338
G1 X130.627 Y69.836 E16.9816
G1 X131.105 Y70.104 E16.99985
G1 X131.688 Y70.58 E17.02492
G1 X131.834 Y70.726 E17.0318
G1 X132.191 Y71.141 E17.05003
G1 X132.485 Y71.603 E17.06827
G1 X132.708 Y72.102 E17.08648
G1 X132.856 Y72.629 E17.10471
G1 X132.932 Y73.378 E17.12979
G1 X132.931 Y146.086 E19.55172
G1 X132.891 Y146.632 E19.56996
G1 X132.772 Y147.166 E19.58818
G1 X132.577 Y147.677 E19.6064
G1 X132.309 Y148.155 E19.62465
G1 X131.833 Y148.738 E19.64973
G1 X131.687 Y148.884 E19.6566
G1 X131.272 Y149.241 E19.67484
G1 X130.81 Y149.535 E19.69308
G1 X130.311 Y149.758 E19.71129
G1 X129.784 Y149.906 E19.72952
G1 X129.035 Y149.982 E19.7546
G1 X120.84 Y149.982 E20.02758
G1 X120.294 Y149.942 E20.04581
G1 X119.76 Y149.823 E20.06404
G1 X119.249 Y149.628 E20.08225
G1 X118.857 Y149.415 E20.09712
G1 X118.735 Y149.339 E20.1019
G1 X118.293 Y149.016 E20.12014
G1 X117.902 Y148.633 E20.13837
G1 X117.572 Y148.197 E20.15658
G1 X117.345 Y147.794 E20.17199
G1 X83.496 Y78.105 E22.7527
G1 X83.293 Y77.597 E22.77092
G1 X83.167 Y77.064 E22.78916
G1 X83.119 Y76.519 E22.80739
G1 X83.152 Y75.973 E22.82561
G1 X83.263 Y75.437 E22.84384
G1 X83.452 Y74.923 E22.86209
G1 X83.69 Y74.478 E22.8789
G1 X83.837 Y74.243 E22.88813
G1 X84.16 Y73.802 E22.90634
G0 F2625 X84.564 Y74.099
G1 F900 X84.927 Y73.742 E22.9233
G1 X85.342 Y73.446 E22.94028
G1 X85.798 Y73.219 E22.95724
G1 X86.284 Y73.065 E22.97423
G1 X87.016 Y72.982 E22.99877
G1 X96.698 Y72.982 E23.32128
G1 X96.707 Y72.87 E23.32502
G1 X96.826 Y72.375 E23.34198
G1 X97.021 Y71.904 E23.35896
G1 X97.287 Y71.469 E23.37594
G1 X97.619 Y71.08 E23.39298
G1 X97.765 Y70.934 E23.39986
G1 X98.152 Y70.603 E23.41682
G1 X98.587 Y70.337 E23.4338
G1 X99.057 Y70.142 E23.45075
G1 X99.553 Y70.022 E23.46775
G1 X100.063 Y69.982 E23.48479
G1 X129.036 Y69.982 E24.44989
G1 X129.544 Y70.022 E24.46687
G1 X130.039 Y70.141 E24.48383
G1 X130.51 Y70.336 E24.50081
G1 X130.945 Y70.602 E24.51779
G1 X131.334 Y70.934 E24.53483
G1 X131.48 Y71.08 E24.5417
G1 X131.811 Y71.467 E24.55867
G1 X132.077 Y71.902 E24.57565
G1 X132.272 Y72.372 E24.5926
G1 X132.392 Y72.868 E24.6096
G1 X132.432 Y73.378 E24.62664
G1 X132.431 Y146.086 E27.04857
G1 X132.391 Y146.594 E27.06554
G1 X132.272 Y147.089 E27.0825
G1 X132.077 Y147.56 E27.09948
G1 X131.811 Y147.995 E27.11647
G1 X131.479 Y148.384 E27.1335
G1 X131.333 Y148.53 E27.14038
G1 X130.946 Y148.861 E27.15734
G1 X130.511 Y149.127 E27.17433
G1 X130.041 Y149.322 E27.19128
G1 X129.545 Y149.442 E27.20828
G1 X129.035 Y149.482 E27.22532
G1 X120.84 Y149.482 E27.4983
G1 X120.332 Y149.442 E27.51527
G1 X119.837 Y149.323 E27.53223
G1 X119.366 Y149.128 E27.54921
G1 X119.122 Y148.991 E27.55853
G1 X119 Y148.915 E27.56332
G1 X118.59 Y148.612 E27.5803
G1 X118.232 Y148.249 E27.59728
G1 X117.935 Y147.835 E27.61425
G1 X117.795 Y147.576 E27.62406
G1 X83.946 Y77.887 E30.20477
G1 X83.76 Y77.413 E30.22173
G1 X83.65 Y76.915 E30.23872
G1 X83.62 Y76.406 E30.2557
G1 X83.669 Y75.899 E30.27267
G1 X83.797 Y75.406 E30.28964
G1 X84.114 Y74.743 E30.31412
G1 X84.261 Y74.508 E30.32335
G1 X84.564 Y74.099 E30.3403
G0 F2625 X84.966 Y74.399
G1 F900 X85.307 Y74.077 E30.35593
G1 X85.698 Y73.819 E30.37153
G1 X86.127 Y73.63 E30.38715
G1 X86.581 Y73.517 E30.40273
G1 X87.016 Y73.482 E30.41727
G1 X97.167 Y73.482 E30.7554
G1 X97.167 Y73.378 E30.75887
G1 X97.207 Y72.911 E30.77448
G1 X97.326 Y72.458 E30.79008
G1 X97.519 Y72.031 E30.80569
G1 X97.783 Y71.644 E30.82129
G1 X97.972 Y71.433 E30.83073
G1 X98.118 Y71.287 E30.83761
G1 X98.477 Y70.986 E30.85321
G1 X98.881 Y70.749 E30.86881
G1 X99.32 Y70.584 E30.88444
G1 X99.78 Y70.497 E30.90003
G1 X100.063 Y70.482 E30.90947
G1 X129.036 Y70.482 E31.87457
G1 X129.503 Y70.522 E31.89019
G1 X129.956 Y70.641 E31.90579
G1 X130.383 Y70.834 E31.9214
G1 X130.77 Y71.098 E31.937
G1 X130.981 Y71.287 E31.94644
G1 X131.127 Y71.433 E31.95331
G1 X131.428 Y71.792 E31.96892
G1 X131.665 Y72.196 E31.98452
G1 X131.83 Y72.635 E32.00014
G1 X131.917 Y73.095 E32.01574
G1 X131.932 Y73.378 E32.02518
G1 X131.931 Y146.086 E34.44711
G1 X131.891 Y146.553 E34.46272
G1 X131.772 Y147.006 E34.47832
G1 X131.579 Y147.433 E34.49393
G1 X131.315 Y147.82 E34.50954
G1 X131.126 Y148.031 E34.51897
G1 X130.98 Y148.177 E34.52585
G1 X130.621 Y148.478 E34.54146
G1 X130.217 Y148.715 E34.55706
G1 X129.778 Y148.88 E34.57268
G1 X129.318 Y148.967 E34.58827
G1 X129.035 Y148.982 E34.59771
G1 X120.84 Y148.982 E34.87069
G1 X120.373 Y148.942 E34.88631
G1 X119.92 Y148.823 E34.90191
G1 X119.386 Y148.566 E34.92165
G1 X119.264 Y148.49 E34.92644
G1 X118.889 Y148.209 E34.94204
G1 X118.567 Y147.869 E34.95764
G1 X118.244 Y147.357 E34.97781
G1 X84.395 Y77.668 E37.55851
G1 X84.227 Y77.231 E37.57411
G1 X84.136 Y76.771 E37.58973
G1 X84.124 Y76.303 E37.60532
G1 X84.192 Y75.839 E37.62095
G1 X84.337 Y75.394 E37.63654
G1 X84.538 Y75.009 E37.651
G1 X84.685 Y74.774 E37.66024
G1 X84.966 Y74.399 E37.67584
G0 F2625 X85.366 Y74.702
G1 F900 X85.682 Y74.42 E37.68995
G1 X86.046 Y74.202 E37.70409
G1 X86.443 Y74.056 E37.71818
G1 X87.016 Y73.982 E37.73742
G1 X97.667 Y73.982 E38.09221
G1 X97.667 Y73.378 E38.11233
G1 X97.707 Y72.956 E38.12645
G1 X97.825 Y72.549 E38.14057
G1 X98.018 Y72.172 E38.15467
G1 X98.326 Y71.787 E38.1711
G1 X98.472 Y71.641 E38.17797
G1 X98.799 Y71.371 E38.1921
G1 X99.17 Y71.167 E38.2062
G1 X99.573 Y71.036 E38.22032
G1 X100.063 Y70.982 E38.23674
G1 X129.036 Y70.982 E39.20184
G1 X129.458 Y71.022 E39.21596
G1 X129.865 Y71.14 E39.23008
G1 X130.242 Y71.333 E39.24418
G1 X130.627 Y71.641 E39.26061
G1 X130.773 Y71.787 E39.26749
G1 X131.043 Y72.114 E39.28161
G1 X131.247 Y72.485 E39.29571
G1 X131.378 Y72.888 E39.30983
G1 X131.432 Y73.378 E39.32625
G1 X131.431 Y146.086 E41.74818
G1 X131.391 Y146.508 E41.7623
G1 X131.273 Y146.915 E41.77642
G1 X131.08 Y147.292 E41.79052
G1 X130.772 Y147.677 E41.80695
G1 X130.626 Y147.823 E41.81382
G1 X130.299 Y148.093 E41.82795
G1 X129.928 Y148.297 E41.84205
G1 X129.525 Y148.428 E41.85617
G1 X129.035 Y148.482 E41.87259
G1 X120.84 Y148.482 E42.14557
G1 X120.418 Y148.442 E42.15969
G1 X120.011 Y148.324 E42.1738
G1 X119.65 Y148.142 E42.18727
G1 X119.528 Y148.066 E42.19206
G1 X119.191 Y147.809 E42.20618
G1 X118.908 Y147.493 E42.22031
G1 X118.694 Y147.139 E42.23409
G1 X84.845 Y77.45 E44.81479
G1 X84.697 Y77.053 E44.82891
G1 X84.625 Y76.635 E44.84303
G1 X84.634 Y76.212 E44.85713
G1 X84.721 Y75.797 E44.87125
G1 X84.961 Y75.274 E44.89042
G1 X85.108 Y75.039 E44.89965
G1 X85.366 Y74.702 E44.91379
G0 F2625 X85.763 Y75.01
G1 F900 X86.051 Y74.772 E44.92624
G1 X86.383 Y74.6 E44.93869
G1 X86.744 Y74.503 E44.95114
G1 X87.016 Y74.482 E44.96023
G1 X98.167 Y74.482 E45.33167
G1 X98.167 Y73.378 E45.36845
G1 X98.207 Y73.007 E45.38088
G1 X98.325 Y72.652 E45.39334
G1 X98.515 Y72.33 E45.40579
G1 X98.68 Y72.141 E45.41415
G1 X98.826 Y71.995 E45.42103
G1 X99.116 Y71.76 E45.43346
G1 X99.45 Y71.593 E45.4459
G1 X99.812 Y71.5 E45.45835
G1 X100.063 Y71.482 E45.46673
G1 X129.036 Y71.482 E46.43183
G1 X129.407 Y71.522 E46.44426
G1 X129.762 Y71.64 E46.45673
G1 X130.084 Y71.83 E46.46918
G1 X130.273 Y71.995 E46.47754
G1 X130.419 Y72.141 E46.48441
G1 X130.654 Y72.431 E46.49685
G1 X130.821 Y72.765 E46.50929
G1 X130.914 Y73.127 E46.52174
G1 X130.932 Y73.378 E46.53012
G1 X130.931 Y146.086 E48.95205
G1 X130.891 Y146.458 E48.96451
G1 X130.773 Y146.812 E48.97694
G1 X130.583 Y147.134 E48.9894
G1 X130.418 Y147.323 E48.99775
G1 X130.272 Y147.469 E49.00463
G1 X129.982 Y147.704 E49.01706
G1 X129.648 Y147.871 E49.0295
G1 X129.286 Y147.964 E49.04195
G1 X129.035 Y147.982 E49.05033
G1 X120.84 Y147.982 E49.32331
G1 X120.469 Y147.942 E49.33574
G1 X120.114 Y147.824 E49.3482
G1 X119.915 Y147.717 E49.35573
G1 X119.793 Y147.641 E49.36052
G1 X119.498 Y147.411 E49.37298
G1 X119.26 Y147.124 E49.3854
G1 X119.144 Y146.921 E49.39319
G1 X85.295 Y77.232 E51.97389
G1 X85.168 Y76.88 E51.98636
G1 X85.12 Y76.51 E51.99879
G1 X85.15 Y76.137 E52.01125
G1 X85.26 Y75.78 E52.02369
G1 X85.385 Y75.539 E52.03274
G1 X85.532 Y75.304 E52.04197
G1 X85.763 Y75.01 E52.05443
G0 F2625 X86.156 Y75.325
G1 F900 X86.411 Y75.138 E52.06496
G1 X86.704 Y75.022 E52.07546
G1 X87.016 Y74.982 E52.08593
G1 X98.667 Y74.982 E52.47403
G1 X98.667 Y73.378 E52.52746
G1 X98.707 Y73.065 E52.53797
G1 X98.824 Y72.772 E52.54848
G1 X99.033 Y72.494 E52.56007
G1 X99.179 Y72.348 E52.56695
G1 X99.429 Y72.155 E52.57747
G1 X99.719 Y72.03 E52.58799
G1 X100.063 Y71.982 E52.59956
G1 X129.036 Y71.982 E53.56466
G1 X129.349 Y72.022 E53.57517
G1 X129.642 Y72.139 E53.58568
G1 X129.92 Y72.348 E53.59726
G1 X130.066 Y72.494 E53.60414
G1 X130.259 Y72.744 E53.61466
G1 X130.384 Y73.034 E53.62518
G1 X130.432 Y73.378 E53.63675
G1 X130.431 Y146.086 E56.05868
G1 X130.391 Y146.399 E56.06919
G1 X130.274 Y146.692 E56.0797
G1 X130.065 Y146.97 E56.09128
G1 X129.919 Y147.116 E56.09816
G1 X129.669 Y147.309 E56.10868
G1 X129.379 Y147.434 E56.1192
