;Generated by Cura LulzBot Edition GCodeWriter Version: 3.6.20
;FLAVOR:Marlin
;TIME:6313
;Filament used: 1.89458m
;Layer height: 0.18
;Generated with Cura_SteamEngine 3.6.20
M82 ;absolute extrusion mode
;This G-Code has been generated specifically for the LulzBot Mini 2 with SE 0.5mm Tool Head
M73 P0                  ; clear GLCD progress bar
M75 					; Start GLCD Print Timer
G26 					; clear potential 'probe fail' condition
M107 					; disable fans
M420 S0                 ; disable leveling matrix
G90 					; absolute positioning
M82 					; set extruder to absolute mode
G92 E0 					; set extruder position to 0
M140 S60.0 ; start bed heating up
G28 					; home all axes
G0 X0 Y187 Z156 F200 			; move away from endstops
M117 Mini 2 Wiping...			; progress indicator message on LCD
M109 R140 	; soften filament before retraction
G1 E-15 F75 				; retract filament
M109 R140 	; wait for extruder to reach wiping temp
G1 X45 Y176 F11520 			; move above wiper pad
G1 Z0 F1200 				; push nozzle into wiper
G1 X45 Y178 Z-.5 F4000		; wiping
G1 X55 Y176 Z-.5 F4000		; wiping
G1 X45 Y177 Z0 F4000		; wiping
G1 X55 Y176 F4000		; wiping
G1 X45 Y178 F4000		; wiping
G1 X55 Y176 F4000		; wiping
G1 X45 Y178 F4000		; wiping
G1 X55 Y176 F4000		; wiping
G1 X60 Y178 F4000		; wiping
G1 X80 Y176 F4000		; wiping
G1 X60 Y178 F4000		; wiping
G1 X80 Y176 F4000		; wiping
G1 X60 Y178 F4000		; wiping
G1 X90 Y176 F4000		; wiping
G1 X80 Y178 F4000		; wiping
G1 X100 Y176 F4000		; wiping
G1 X80 Y178 F4000		; wiping
G1 X100 Y176 F4000		; wiping
G1 X80 Y178 F4000		; wiping
G1 X100 Y176 F4000		; wiping
G1 X110 Y178 F4000		; wiping
G1 X100 Y176 F4000		; wiping
G1 X110 Y178 F4000		; wiping
G1 X100 Y176 F4000		; wiping
G1 X110 Y178 F4000		; wiping
G1 X115 Y176 Z-0.5 F1000	; wiping
G1 Z10					; raise extruder
G28 X0 Y0				; home X and Y
M109 R140	; wait for extruder to reach probe temp
M204 S300				; set probing acceleration
G29					; start auto-leveling sequence
M420 S1                     ; enable leveling matrix
M425 Z			     		; use measured Z backlash for compensation
M425 Z F0		     		; turn off measured Z backlash compensation. (if activated in the quality settings, this command will automatically be ignored)
M204 S2000				; restore standard acceleration
G1 X5 Y15 Z10 F5000			; move up off last probe point
G4 S1					; pause
M400					; wait for moves to finish
M117 Heating...				; progress indicator message on LCD
M109 R210 ; wait for extruder to reach initial printing temp
M190 R60.0 ; wait for bed to reach printing temp
G1 Z2 E0 F75				; prime tiny bit of filment into the nozzle
M117 Mini 2 Printing...		; progress indicator message on LCD

M221 S100 T0
G92 E0
G1 F600 E-1.75
;LAYER_COUNT:77
;LAYER:0
M107
G0 F2625 X32.373 Y36.623 Z0.425
;TYPE:SKIRT
G1 F600 E0
G1 F900 X32.53 Y36.493 E0.00679
G1 X36.089 Y33.729 E0.15689
G1 X36.302 Y33.577 E0.16561
G1 X40.014 Y31.147 E0.3134
G1 X40.239 Y31.012 E0.32214
G1 X44.181 Y28.864 E0.47168
G1 X44.415 Y28.749 E0.48036
G1 X48.499 Y26.932 E0.62926
G1 X48.742 Y26.835 E0.63797
G1 X52.934 Y25.361 E0.78599
G1 X53.185 Y25.284 E0.79474
G1 X57.56 Y24.133 E0.94543
G1 X57.811 Y24.077 E0.95399
G1 X61.992 Y23.324 E1.0955
G1 X62.245 Y23.289 E1.10401
G1 X66.676 Y22.846 E1.25235
G1 X66.936 Y22.831 E1.26102
G1 X71.413 Y22.744 E1.41018
G1 X71.676 Y22.749 E1.41894
G1 X76.142 Y23.024 E1.56799
G1 X76.403 Y23.051 E1.57673
G1 X80.868 Y23.691 E1.72698
G1 X81.069 Y23.726 E1.73378
G1 X83.476 Y24.227 E1.81567
G1 X83.668 Y24.273 E1.82225
G1 X87.777 Y25.392 E1.96411
G1 X88.02 Y25.469 E1.9726
G1 X92.234 Y26.98 E2.12172
G1 X92.478 Y27.078 E2.13048
G1 X96.554 Y28.924 E2.27952
G1 X96.788 Y29.042 E2.28825
G1 X100.681 Y31.198 E2.43649
G1 X100.902 Y31.333 E2.44512
G1 X104.629 Y33.805 E2.59409
G1 X104.844 Y33.96 E2.60292
G1 X108.391 Y36.753 E2.7533
G1 X108.59 Y36.923 E2.76202
G1 X111.868 Y39.964 E2.91096
G1 X112.053 Y40.15 E2.9197
G1 X115.068 Y43.437 E3.06828
G1 X115.237 Y43.637 E3.077
G1 X117.989 Y47.171 E3.2262
G1 X118.105 Y47.329 E3.23273
G1 X119.363 Y49.162 E3.30679
G1 X119.437 Y49.275 E3.31128
G1 X121.069 Y51.878 E3.41362
G1 X124.128 Y56.479 E3.59767
G1 X127.413 Y60.864 E3.78017
G1 X130.932 Y65.043 E3.96216
G1 X134.699 Y69.036 E4.14501
G1 X136.669 Y70.955 E4.23662
G1 X139.175 Y73.265 E4.35015
G1 X139.522 Y73.639 E4.36715
G1 X139.806 Y74.062 E4.38412
G1 X139.996 Y74.462 E4.39887
G1 X140.082 Y74.68 E4.40668
G1 X140.232 Y75.168 E4.42368
G1 X140.309 Y75.873 E4.44731
G1 X140.309 Y87.089 E4.82092
G1 X140.269 Y87.597 E4.83789
G1 X140.15 Y88.092 E4.85485
G1 X139.955 Y88.563 E4.87183
G1 X139.75 Y88.911 E4.88528
G1 X139.511 Y89.264 E4.89948
G1 X139.032 Y89.823 E4.924
G1 X135.708 Y92.912 E5.07516
G1 X131.877 Y96.855 E5.25828
G1 X128.306 Y100.973 E5.43985
G1 X124.95 Y105.317 E5.6227
G1 X121.842 Y109.848 E5.80573
G1 X119.593 Y113.43 E5.94661
G1 X119.492 Y113.582 E5.95269
G1 X116.884 Y117.26 E6.10288
G1 X116.723 Y117.468 E6.11164
G1 X113.845 Y120.9 E6.26084
G1 X113.67 Y121.093 E6.26952
G1 X110.547 Y124.262 E6.41772
G1 X110.399 Y124.403 E6.42453
G1 X108.529 Y126.076 E6.50811
G1 X108.372 Y126.208 E6.51495
G1 X104.843 Y128.986 E6.66455
G1 X104.63 Y129.14 E6.67331
G1 X100.902 Y131.613 E6.82233
G1 X100.679 Y131.748 E6.83101
G1 X96.787 Y133.903 E6.9792
G1 X96.554 Y134.021 E6.9879
G1 X92.478 Y135.867 E7.13695
G1 X92.234 Y135.965 E7.14571
G1 X88.021 Y137.476 E7.2948
G1 X87.771 Y137.555 E7.30353
G1 X83.421 Y138.729 E7.45361
G1 X83.17 Y138.786 E7.46219
G1 X78.98 Y139.568 E7.60417
G1 X78.727 Y139.605 E7.61269
G1 X74.305 Y140.075 E7.76081
G1 X74.046 Y140.092 E7.76946
G1 X69.587 Y140.207 E7.91804
G1 X69.324 Y140.203 E7.9268
G1 X64.838 Y139.956 E8.07646
G1 X64.577 Y139.931 E8.08519
G1 X60.124 Y139.322 E8.2349
G1 X59.865 Y139.276 E8.24367
G1 X55.503 Y138.315 E8.39245
G1 X55.25 Y138.248 E8.40117
G1 X50.949 Y136.93 E8.55101
G1 X50.7 Y136.843 E8.5598
G1 X46.53 Y135.185 E8.70928
G1 X46.29 Y135.078 E8.71803
G1 X42.299 Y133.104 E8.86635
G1 X42.07 Y132.979 E8.87504
G1 X38.218 Y130.672 E9.0246
G1 X37.999 Y130.528 E9.03333
G1 X34.357 Y127.926 E9.18243
G1 X34.149 Y127.765 E9.19119
G1 X30.714 Y124.863 E9.34098
G1 X30.52 Y124.685 E9.34975
G1 X27.337 Y121.521 E9.49925
G1 X27.197 Y121.373 E9.50603
G1 X25.581 Y119.552 E9.58713
G1 X25.453 Y119.399 E9.59378
G1 X22.704 Y115.888 E9.74231
G1 X22.55 Y115.673 E9.75112
G1 X20.062 Y111.899 E9.9017
G1 X19.926 Y111.674 E9.91045
G1 X17.775 Y107.755 E10.05937
G1 X17.659 Y107.521 E10.06807
G1 X15.841 Y103.467 E10.21606
G1 X15.745 Y103.229 E10.22461
G1 X14.295 Y99.166 E10.36831
G1 X14.217 Y98.915 E10.37707
G1 X13.01 Y94.409 E10.53246
G1 X12.953 Y94.156 E10.54109
G1 X12.192 Y90.02 E10.68118
G1 X12.155 Y89.766 E10.68973
G1 X11.689 Y85.258 E10.84069
G1 X11.673 Y84.996 E10.84944
G1 X11.575 Y80.549 E10.9976
G1 X11.58 Y80.287 E11.00633
G1 X11.843 Y75.791 E11.15635
G1 X11.868 Y75.531 E11.16505
G1 X12.483 Y71.137 E11.31284
G1 X12.53 Y70.878 E11.32161
G1 X13.513 Y66.48 E11.47173
G1 X13.581 Y66.226 E11.48049
G1 X14.921 Y61.909 E11.63105
G1 X15.009 Y61.661 E11.63982
G1 X16.664 Y57.54 E11.78775
G1 X16.771 Y57.301 E11.79647
G1 X18.775 Y53.281 E11.94609
G1 X18.9 Y53.054 E11.95473
G1 X21.188 Y49.257 E12.10239
G1 X21.334 Y49.036 E12.11122
G1 X23.957 Y45.389 E12.26086
G1 X24.118 Y45.183 E12.26957
G1 X27.024 Y41.762 E12.41909
G1 X27.202 Y41.569 E12.42783
G1 X30.362 Y38.406 E12.57676
G1 X30.511 Y38.266 E12.58357
G1 X32.373 Y36.623 E12.66629
G1 F600 E10.91629
;MESH:
G0 F2625 X33.159 Y39.344
G0 X34.086 Y40.437
G0 X35.849 Y47.414
G0 X35.92 Y47.484
;TYPE:WALL-INNER
G1 F600 E12.66629
G1 F900 X34.377 Y49.122 E12.74125
G1 X32.911 Y50.828 E12.81618
G1 X31.525 Y52.602 E12.89117
G1 X30.224 Y54.437 E12.96609
G1 X29.009 Y56.332 E13.04108
G1 X27.884 Y58.279 E13.11598
G1 X26.85 Y60.279 E13.19098
G1 X25.912 Y62.324 E13.26592
G1 X25.07 Y64.411 E13.34089
G1 X24.324 Y66.533 E13.41581
G1 X23.677 Y68.696 E13.49102
G1 X23.134 Y70.87 E13.56566
G1 X22.693 Y73.078 E13.64066
G1 X22.354 Y75.302 E13.7156
G1 X22.119 Y77.54 E13.79056
G1 X21.987 Y79.786 E13.8655
G1 X21.962 Y82.035 E13.94042
G1 X22.04 Y84.283 E14.01535
G1 X22.223 Y86.525 E14.09028
G1 X22.511 Y88.757 E14.16524
G1 X22.902 Y90.972 E14.24016
G1 X23.394 Y93.168 E14.31513
G1 X23.989 Y95.339 E14.39011
G1 X24.685 Y97.478 E14.46504
G1 X25.479 Y99.583 E14.53998
G1 X26.37 Y101.649 E14.61493
G1 X27.356 Y103.672 E14.68989
G1 X28.435 Y105.646 E14.76483
G1 X29.606 Y107.568 E14.8398
G1 X30.864 Y109.433 E14.91473
G1 X32.208 Y111.238 E14.98969
G1 X33.634 Y112.979 E15.06466
G1 X35.139 Y114.651 E15.13959
G1 X36.721 Y116.251 E15.21454
G1 X38.376 Y117.776 E15.28951
G1 X40.099 Y119.221 E15.36441
G1 X41.888 Y120.587 E15.43939
G1 X43.739 Y121.867 E15.51435
G1 X45.647 Y123.059 E15.58929
G1 X47.608 Y124.162 E15.66424
G1 X49.619 Y125.171 E15.73918
G1 X51.675 Y126.086 E15.81415
G1 X53.771 Y126.904 E15.88909
G1 X55.901 Y127.624 E15.96399
G1 X58.065 Y128.245 E16.03898
G1 X60.255 Y128.764 E16.11395
G1 X62.466 Y129.181 E16.1889
G1 X64.694 Y129.493 E16.26384
G1 X66.934 Y129.702 E16.33878
G1 X69.181 Y129.807 E16.41371
G1 X71.431 Y129.807 E16.48866
G1 X73.678 Y129.702 E16.56359
G1 X75.918 Y129.493 E16.63853
G1 X78.146 Y129.181 E16.71347
G1 X80.357 Y128.764 E16.78841
G1 X82.547 Y128.245 E16.86338
G1 X84.711 Y127.624 E16.93838
G1 X86.841 Y126.904 E17.01327
G1 X88.937 Y126.086 E17.08822
G1 X90.993 Y125.171 E17.16318
G1 X93.004 Y124.162 E17.23813
G1 X94.965 Y123.059 E17.31307
G1 X96.873 Y121.867 E17.38801
G1 X98.724 Y120.587 E17.46298
G1 X100.513 Y119.221 E17.53795
G1 X102.236 Y117.776 E17.61286
G1 X103.891 Y116.251 E17.68782
G1 X105.473 Y114.651 E17.76277
G1 X106.978 Y112.979 E17.83771
G1 X108.404 Y111.238 E17.91267
G1 X109.748 Y109.433 E17.98763
G1 X111.006 Y107.568 E18.06257
G1 X112.177 Y105.646 E18.13754
G1 X113.256 Y103.673 E18.21245
G1 X114.243 Y101.649 E18.28746
G1 X115.133 Y99.583 E18.36239
G1 X115.927 Y97.478 E18.43733
G1 X116.623 Y95.339 E18.51226
G1 X117.218 Y93.168 E18.58724
G1 X117.71 Y90.972 E18.6622
G1 X118.101 Y88.757 E18.73713
G1 X118.389 Y86.525 E18.81209
G1 X118.572 Y84.283 E18.88702
G1 X118.65 Y82.035 E18.96195
G1 X118.625 Y79.786 E19.03687
G1 X118.493 Y77.54 E19.11181
G1 X118.258 Y75.302 E19.18677
G1 X117.919 Y73.078 E19.26171
G1 X117.477 Y70.871 E19.33668
G1 X116.934 Y68.697 E19.41133
G1 X116.288 Y66.533 E19.48655
G1 X115.542 Y64.411 E19.56148
G1 X114.7 Y62.324 E19.63644
G1 X113.762 Y60.279 E19.71139
G1 X112.728 Y58.279 E19.78638
G1 X111.603 Y56.332 E19.86129
G1 X110.388 Y54.437 E19.93627
G1 X109.087 Y52.602 E20.0112
G1 X107.701 Y50.828 E20.08619
G1 X106.235 Y49.122 E20.16111
G1 X104.692 Y47.484 E20.23607
G1 X103.072 Y45.922 E20.31103
G1 X101.384 Y44.436 E20.38595
G1 X99.626 Y43.03 E20.46093
G1 X97.806 Y41.708 E20.53586
G1 X95.926 Y40.471 E20.61082
G1 X93.992 Y39.323 E20.68574
G1 X92.003 Y38.267 E20.76075
G1 X89.97 Y37.305 E20.83567
G1 X87.894 Y36.438 E20.91061
G1 X85.779 Y35.668 E20.98559
G1 X83.632 Y34.998 E21.06051
G1 X81.455 Y34.428 E21.13547
G1 X79.254 Y33.961 E21.21042
G1 X77.034 Y33.595 E21.28536
G1 X74.799 Y33.334 E21.36032
G1 X72.555 Y33.177 E21.43525
G1 X70.306 Y33.125 E21.51019
G1 X68.057 Y33.177 E21.58512
G1 X65.813 Y33.334 E21.66005
G1 X63.578 Y33.595 E21.73501
G1 X61.358 Y33.961 E21.80995
G1 X59.157 Y34.428 E21.8849
G1 X56.98 Y34.998 E21.95986
G1 X54.833 Y35.668 E22.03478
G1 X52.718 Y36.438 E22.10976
G1 X50.642 Y37.305 E22.1847
G1 X48.609 Y38.267 E22.25962
G1 X46.62 Y39.323 E22.33463
G1 X44.686 Y40.471 E22.40955
G1 X42.806 Y41.708 E22.48451
G1 X40.986 Y43.03 E22.55944
G1 X39.228 Y44.436 E22.63443
G1 X37.54 Y45.922 E22.70934
G1 X35.92 Y47.484 E22.7843
G0 F2625 X35.849 Y47.414
G0 X39.203 Y44.406
G0 X40.962 Y42.999
G0 X42.784 Y41.676
G0 X44.665 Y40.438
G0 X46.601 Y39.289
G0 X48.592 Y38.232
G0 X50.626 Y37.269
G0 X52.704 Y36.401
G0 X54.821 Y35.631
G0 X56.969 Y34.96
G0 X59.148 Y34.39
G0 X61.351 Y33.922
G0 X63.573 Y33.556
G0 X65.81 Y33.295
G0 X68.056 Y33.138
G0 X70.306 Y33.085
G0 X72.556 Y33.138
G0 X74.802 Y33.295
G0 X77.039 Y33.556
G0 X79.261 Y33.922
G0 X81.464 Y34.39
G0 X83.643 Y34.96
G0 X85.791 Y35.631
G0 X87.908 Y36.401
G0 X89.986 Y37.269
G0 X92.02 Y38.232
G0 X94.011 Y39.289
G0 X95.947 Y40.438
G0 X97.828 Y41.676
G0 X99.65 Y42.999
G0 X101.409 Y44.406
G0 X103.099 Y45.893
G0 X104.72 Y47.456
G0 X106.264 Y49.096
G0 X107.731 Y50.803
G0 X109.119 Y52.579
G0 X110.421 Y54.415
G0 X111.637 Y56.312
G0 X112.763 Y58.26
G0 X113.797 Y60.262
G0 X114.736 Y62.309
G0 X115.494 Y64.188
G0 X125.28 Y76.226
G0 X125.326 Y76.138
G1 F900 X125.603 Y76.241 E22.79414
G1 X125.844 Y76.27 E22.80223
G1 X136.071 Y76.271 E23.14289
G1 X136.321 Y76.271 E23.15122
G1 X136.321 Y76.521 E23.15661
G1 X136.32 Y86.675 E23.49484
G1 X125.84 Y86.674 E23.84393
G1 X125.6 Y86.706 E23.852
G1 X125.327 Y86.807 E23.8617
G1 X125.087 Y86.976 E23.87147
G1 X124.894 Y87.195 E23.8812
G1 X124.762 Y87.453 E23.89085
G1 X124.706 Y87.681 E23.89867
G1 X124.403 Y89.921 E23.97397
G1 X124.021 Y92.087 E24.04723
G1 X123.548 Y94.246 E24.12085
G1 X122.985 Y96.401 E24.19505
G1 X122.345 Y98.496 E24.26801
G1 X121.612 Y100.592 E24.34198
G1 X120.803 Y102.637 E24.41524
G1 X119.902 Y104.667 E24.48922
G1 X118.921 Y106.658 E24.56315
G1 X117.869 Y108.595 E24.63658
G1 X116.738 Y110.488 E24.71003
G1 X115.525 Y112.344 E24.78389
G1 X114.247 Y114.139 E24.85728
G1 X112.888 Y115.892 E24.93117
G1 X111.478 Y117.565 E25.00405
G1 X109.982 Y119.204 E25.07797
G1 X108.426 Y120.775 E25.15162
G1 X106.804 Y122.286 E25.22546
G1 X105.123 Y123.73 E25.29928
G1 X103.399 Y125.093 E25.37249
G1 X101.622 Y126.385 E25.44567
G1 X99.759 Y127.628 E25.52027
G1 X97.891 Y128.768 E25.59317
G1 X95.95 Y129.848 E25.66716
G1 X93.996 Y130.834 E25.74007
G1 X91.975 Y131.754 E25.81403
G1 X89.914 Y132.594 E25.88817
G1 X87.851 Y133.338 E25.96122
G1 X85.733 Y134.007 E26.03521
G1 X83.617 Y134.583 E26.10826
G1 X81.447 Y135.08 E26.18241
G1 X79.287 Y135.483 E26.2556
G1 X77.09 Y135.803 E26.32956
G1 X74.9 Y136.033 E26.40291
G1 X72.7 Y136.172 E26.47634
G1 X70.48 Y136.225 E26.55031
G1 X68.271 Y136.187 E26.6239
G1 X66.071 Y136.06 E26.69731
G1 X63.861 Y135.844 E26.77127
G1 X61.678 Y135.541 E26.84469
G1 X59.505 Y135.149 E26.91824
G1 X57.343 Y134.668 E26.99202
G1 X55.217 Y134.104 E27.06528
G1 X53.089 Y133.448 E27.13946
G1 X51.015 Y132.715 E27.21273
G1 X48.952 Y131.89 E27.28674
G1 X46.962 Y130.999 E27.35937
G1 X44.955 Y130.003 E27.43401
G1 X43.044 Y128.955 E27.50661
G1 X41.125 Y127.801 E27.5812
G1 X39.287 Y126.591 E27.6545
G1 X37.501 Y125.31 E27.72771
G1 X35.752 Y123.944 E27.80163
G1 X34.069 Y122.518 E27.87511
G1 X32.443 Y121.024 E27.94867
G1 X30.873 Y119.459 E28.02251
G1 X29.38 Y117.844 E28.09577
G1 X27.94 Y116.156 E28.16968
G1 X26.569 Y114.411 E28.2436
G1 X25.284 Y112.632 E28.3167
G1 X24.069 Y110.799 E28.38995
G1 X22.924 Y108.907 E28.46362
G1 X21.844 Y106.952 E28.53802
G1 X20.864 Y104.994 E28.61095
G1 X19.947 Y102.961 E28.68524
G1 X19.12 Y100.912 E28.75885
G1 X18.381 Y98.842 E28.83206
G1 X17.726 Y96.741 E28.90537
G1 X17.15 Y94.597 E28.97932
G1 X16.662 Y92.433 E29.05321
G1 X16.265 Y90.27 E29.12647
G1 X15.953 Y88.072 E29.20042
G1 X15.732 Y85.892 E29.2734
G1 X15.599 Y83.683 E29.34712
G1 X15.554 Y81.488 E29.42025
G1 X15.599 Y79.257 E29.49458
G1 X15.732 Y77.052 E29.56816
G1 X15.953 Y74.873 E29.64112
G1 X16.265 Y72.675 E29.71507
G1 X16.662 Y70.512 E29.78832
G1 X17.15 Y68.348 E29.86222
G1 X17.726 Y66.204 E29.93617
G1 X18.381 Y64.103 E30.00948
G1 X19.121 Y62.033 E30.0827
G1 X19.947 Y59.984 E30.15629
G1 X20.864 Y57.951 E30.23058
G1 X21.844 Y55.993 E30.30352
G1 X22.927 Y54.033 E30.37811
G1 X24.072 Y52.141 E30.45177
G1 X25.287 Y50.308 E30.52503
G1 X26.569 Y48.534 E30.59794
G1 X27.94 Y46.789 E30.67186
G1 X29.38 Y45.101 E30.74576
G1 X30.873 Y43.486 E30.81903
G1 X32.446 Y41.918 E30.89301
G1 X34.073 Y40.423 E30.96661
G1 X35.752 Y39.001 E31.0399
G1 X37.501 Y37.635 E31.11383
G1 X39.288 Y36.354 E31.18707
G1 X41.125 Y35.144 E31.26034
G1 X43.045 Y33.99 E31.33496
G1 X44.962 Y32.94 E31.40776
G1 X46.962 Y31.946 E31.48216
G1 X48.952 Y31.055 E31.55479
G1 X51.015 Y30.23 E31.6288
G1 X53.089 Y29.497 E31.70207
G1 X55.216 Y28.841 E31.77622
G1 X57.343 Y28.277 E31.84952
G1 X59.505 Y27.796 E31.92329
G1 X61.678 Y27.404 E31.99685
G1 X63.862 Y27.101 E32.07029
G1 X66.071 Y26.885 E32.14423
