;Generated by Cura LulzBot Edition GCodeWriter Version: 3.6.20
;FLAVOR:Marlin
;TIME:4198
;Filament used: 1.23223m
;Layer height: 0.25
;Generated with Cura_SteamEngine 3.6.20
M82 ;absolute extrusion mode
;This G-Code has been generated specifically for the LulzBot Mini 2 with SE 0.5mm Tool Head
M73 P0                  ; clear GLCD progress bar
M75 					; Start GLCD Print Timer
G26 					; clear potential 'probe fail' condition
M107 					; disable fans
M420 S0                 ; disable leveling matrix
G90 					; absolute positioning
M82 					; set extruder to absolute mode
G92 E0 					; set extruder position to 0
M140 S60.0 ; start bed heating up
G28 					; home all axes
G0 X0 Y187 Z156 F200 			; move away from endstops
M117 Mini 2 Wiping...			; progress indicator message on LCD
M109 R140 	; soften filament before retraction
G1 E-15 F75 				; retract filament
M109 R140 	; wait for extruder to reach wiping temp
G1 X45 Y176 F11520 			; move above wiper pad
G1 Z0 F1200 				; push nozzle into wiper
G1 X45 Y178 Z-.5 F4000		; wiping
G1 X55 Y176 Z-.5 F4000		; wiping
G1 X45 Y177 Z0 F4000		; wiping
G1 X55 Y176 F4000		; wiping
G1 X45 Y178 F4000		; wiping
G1 X55 Y176 F4000		; wiping
G1 X45 Y178 F4000		; wiping
G1 X55 Y176 F4000		; wiping
G1 X60 Y178 F4000		; wiping
G1 X80 Y176 F4000		; wiping
G1 X60 Y178 F4000		; wiping
G1 X80 Y176 F4000		; wiping
G1 X60 Y178 F4000		; wiping
G1 X90 Y176 F4000		; wiping
G1 X80 Y178 F4000		; wiping
G1 X100 Y176 F4000		; wiping
G1 X80 Y178 F4000		; wiping
G1 X100 Y176 F4000		; wiping
G1 X80 Y178 F4000		; wiping
G1 X100 Y176 F4000		; wiping
G1 X110 Y178 F4000		; wiping
G1 X100 Y176 F4000		; wiping
G1 X110 Y178 F4000		; wiping
G1 X100 Y176 F4000		; wiping
G1 X110 Y178 F4000		; wiping
G1 X115 Y176 Z-0.5 F1000	; wiping
G1 Z10					; raise extruder
G28 X0 Y0				; home X and Y
M109 R140	; wait for extruder to reach probe temp
M204 S300				; set probing acceleration
G29					; start auto-leveling sequence
M420 S1                     ; enable leveling matrix
M425 Z			     		; use measured Z backlash for compensation
M425 Z F0		     		; turn off measured Z backlash compensation. (if activated in the quality settings, this command will automatically be ignored)
M204 S2000				; restore standard acceleration
G1 X5 Y15 Z10 F5000			; move up off last probe point
G4 S1					; pause
M400					; wait for moves to finish
M117 Heating...				; progress indicator message on LCD
M109 R210 ; wait for extruder to reach initial printing temp
M190 R60.0 ; wait for bed to reach printing temp
G1 Z2 E0 F75				; prime tiny bit of filment into the nozzle
M117 Mini 2 Printing...		; progress indicator message on LCD

M221 S100 T0
G92 E0
G1 F600 E-1.75
;LAYER_COUNT:134
;LAYER:0
M107
G0 F2625 X43.496 Y97.661 Z0.425
;TYPE:SKIRT
G1 F600 E0
G1 F900 X45.572 Y96.775 E0.07519
G1 X45.978 Y96.624 E0.08962
G1 X47.989 Y95.975 E0.16001
G1 X48.641 Y95.814 E0.18238
G1 X50.601 Y95.476 E0.24863
G1 X51.05 Y95.421 E0.2637
G1 X53.352 Y95.247 E0.3406
G1 X53.968 Y95.24 E0.36112
G1 X54.58 Y95.313 E0.38165
G1 X55.177 Y95.465 E0.40217
G1 X55.749 Y95.693 E0.42268
G1 X56.287 Y95.993 E0.4432
G1 X56.782 Y96.36 E0.46372
G1 X56.796 Y96.373 E0.46436
G1 X56.913 Y96.317 E0.46868
G1 X57.485 Y96.089 E0.48919
G1 X58.082 Y95.936 E0.50972
G1 X58.693 Y95.861 E0.53023
G1 X59.309 Y95.867 E0.55075
G1 X60.198 Y96.019 E0.58079
G1 X61.53 Y96.379 E0.62675
G1 X61.891 Y96.492 E0.63935
G1 X63.087 Y96.92 E0.68166
G1 X63.507 Y97.093 E0.69679
G1 X65.831 Y98.185 E0.78233
G1 X66.365 Y98.479 E0.80263
G1 X68.51 Y99.847 E0.88738
G1 X68.967 Y100.178 E0.90617
G1 X70.137 Y101.137 E0.95657
G1 X70.587 Y101.558 E0.97709
G1 X70.979 Y102.033 E0.99761
G1 X71.306 Y102.556 E1.01815
G1 X71.515 Y102.994 E1.03432
G1 X71.693 Y103.424 E1.04982
G1 X71.891 Y104.008 E1.07036
G1 X72.012 Y104.612 E1.09088
G1 X72.054 Y105.226 E1.11138
G1 X72.027 Y105.751 E1.12889
G1 X71.976 Y106.223 E1.14471
G1 X71.87 Y106.83 E1.16523
G1 X71.686 Y107.418 E1.18576
G1 X71.428 Y107.978 E1.20629
G1 X71.142 Y108.44 E1.22439
G1 X70.872 Y108.825 E1.24006
G1 X70.486 Y109.306 E1.2606
G1 X70.042 Y109.732 E1.2811
G1 X69.545 Y110.098 E1.30166
G1 X69.103 Y110.349 E1.31859
G1 X68.678 Y110.561 E1.33441
G1 X68.11 Y110.799 E1.35492
G1 X67.516 Y110.962 E1.37544
G1 X67.001 Y111.039 E1.39279
G1 X65.239 Y111.204 E1.45174
G1 X64.372 Y111.206 E1.48062
G1 X63.268 Y111.107 E1.51754
G1 X62.659 Y111.012 E1.53807
G1 X62.068 Y110.84 E1.55857
G1 X61.236 Y110.442 E1.5893
G1 X60.212 Y109.824 E1.62914
G1 X58.647 Y109.053 E1.68725
G1 X56.751 Y108.421 E1.75382
G1 X56.18 Y108.188 E1.77437
G1 X55.645 Y107.884 E1.79486
G1 X55.331 Y107.648 E1.80795
G1 X55.228 Y107.711 E1.81197
G1 X54.665 Y107.961 E1.83249
G1 X54.074 Y108.135 E1.85301
G1 X53.564 Y108.222 E1.87024
G1 X52.264 Y108.371 E1.91383
G1 X50.517 Y108.793 E1.9737
G1 X49.292 Y109.264 E2.01742
G1 X48.704 Y109.448 E2.03794
G1 X48.097 Y109.554 E2.05846
G1 X47.481 Y109.58 E2.079
G1 X47.47 Y109.579 E2.07937
G1 X47.229 Y110.05 E2.09699
G1 X46.879 Y110.558 E2.11754
G1 X46.578 Y110.903 E2.13279
G1 X45.115 Y112.426 E2.20314
G1 X44.103 Y113.845 E2.2612
G1 X43.324 Y115.371 E2.31827
G1 X42.766 Y117.021 E2.37629
G1 X42.459 Y118.712 E2.43354
G1 X42.402 Y120.437 E2.49103
G1 X42.597 Y122.142 E2.54819
G1 X43.045 Y123.819 E2.60601
G1 X43.729 Y125.406 E2.66358
G1 X44.639 Y126.876 E2.72117
G1 X45.749 Y128.193 E2.77854
G1 X47.041 Y129.334 E2.83596
G1 X48.496 Y130.282 E2.8938
G1 X50.068 Y131.001 E2.95138
G1 X51.713 Y131.482 E3.00847
G1 X53.432 Y131.718 E3.06627
G1 X55.169 Y131.701 E3.12413
G1 X56.919 Y131.426 E3.18314
G1 X57.616 Y131.236 E3.20721
G1 X59.302 Y130.57 E3.26759
G1 X61.103 Y129.532 E3.33683
G1 X61.886 Y129.171 E3.36556
G1 X62.334 Y129.012 E3.38139
G1 X62.927 Y128.844 E3.40192
G1 X63.537 Y128.754 E3.42246
G1 X63.899 Y128.738 E3.43453
G1 X65.66 Y128.729 E3.49319
G1 X66.562 Y128.811 E3.52336
G1 X67.663 Y129.018 E3.56068
G1 X68.26 Y129.171 E3.58121
G1 X68.832 Y129.4 E3.60173
G1 X69.369 Y129.7 E3.62222
G1 X69.867 Y130.072 E3.64293
G1 X70.22 Y130.373 E3.65838
G1 X70.662 Y130.802 E3.6789
G1 X71.045 Y131.285 E3.69943
G1 X71.361 Y131.813 E3.71993
G1 X71.572 Y132.284 E3.73712
G1 X71.741 Y132.724 E3.75282
G1 X71.924 Y133.312 E3.77333
G1 X72.03 Y133.919 E3.79386
G1 X72.056 Y134.535 E3.8144
G1 X72.014 Y135.065 E3.8321
G1 X71.95 Y135.537 E3.84797
G1 X71.828 Y136.141 E3.8685
G1 X71.628 Y136.724 E3.88903
G1 X71.355 Y137.276 E3.90954
G1 X71.061 Y137.724 E3.92739
G1 X70.785 Y138.097 E3.94285
G1 X70.388 Y138.568 E3.96337
G1 X69.753 Y139.119 E3.99137
G1 X67.513 Y140.741 E4.08349
G1 X66.95 Y141.092 E4.10559
G1 X64.488 Y142.396 E4.1984
G1 X64.041 Y142.603 E4.21481
G1 X62.754 Y143.122 E4.26103
G1 X62.278 Y143.286 E4.2778
G1 X59.597 Y144.049 E4.37065
G1 X58.951 Y144.185 E4.39264
G1 X56.203 Y144.567 E4.48506
G1 X55.546 Y144.612 E4.507
G1 X52.774 Y144.61 E4.59933
G1 X52.117 Y144.564 E4.62127
G1 X49.371 Y144.179 E4.71364
G1 X48.721 Y144.041 E4.73577
G1 X46.045 Y143.273 E4.82851
G1 X45.424 Y143.047 E4.85052
G1 X42.885 Y141.917 E4.94309
G1 X42.301 Y141.606 E4.96513
G1 X39.946 Y140.136 E5.05761
G1 X39.411 Y139.748 E5.07962
G1 X37.281 Y137.964 E5.17217
G1 X36.804 Y137.505 E5.19422
G1 X34.942 Y135.441 E5.28682
G1 X34.533 Y134.918 E5.30893
G1 X32.981 Y132.621 E5.40127
G1 X32.747 Y132.237 E5.41625
G1 X32.014 Y130.894 E5.46722
G1 X31.896 Y130.755 E5.47329
G1 X31.823 Y130.715 E5.47606
G1 X31.745 Y130.695 E5.47875
G1 X26.008 Y130.658 E5.66985
G1 X25.394 Y130.614 E5.69036
G1 X24.79 Y130.491 E5.71089
G1 X24.207 Y130.291 E5.73142
G1 X23.771 Y130.081 E5.74754
G1 X23.495 Y129.931 E5.758
G1 X23.396 Y129.869 E5.7619
G1 X23.144 Y130.04 E5.77204
G1 X22.595 Y130.318 E5.79254
G1 X22.013 Y130.523 E5.81309
G1 X21.411 Y130.65 E5.83359
G1 X20.73 Y130.699 E5.85633
G1 X14.949 Y130.698 E6.0489
G1 X14.334 Y130.658 E6.06943
G1 X13.73 Y130.539 E6.08993
G1 X13.146 Y130.342 E6.11046
G1 X12.592 Y130.072 E6.13099
G1 X12.078 Y129.732 E6.15152
G1 X11.724 Y129.422 E6.16719
G1 X11.246 Y129.387 E6.18316
G1 X10.643 Y129.264 E6.20366
G1 X10.06 Y129.063 E6.2242
G1 X9.477 Y128.771 E6.24592
G1 X9.247 Y128.635 E6.25482
G1 X8.738 Y128.287 E6.27536
G1 X8.279 Y127.877 E6.29586
G1 X7.876 Y127.411 E6.31638
G1 X7.537 Y126.896 E6.33692
G1 X7.388 Y126.612 E6.3476
G1 X7.217 Y126.258 E6.3607
G1 X6.985 Y125.687 E6.38123
G1 X6.83 Y125.091 E6.40174
G1 X6.744 Y124.191 E6.43186
G1 X6.745 Y115.703 E6.7146
G1 X6.785 Y115.089 E6.73509
G1 X6.904 Y114.484 E6.75563
G1 X7.198 Y113.68 E6.78415
G1 X7.369 Y113.317 E6.79751
G1 X7.667 Y112.778 E6.81803
G1 X8.033 Y112.282 E6.83856
G1 X8.459 Y111.837 E6.85908
G1 X8.94 Y111.451 E6.87963
G1 X9.363 Y111.187 E6.89624
G1 X9.547 Y111.085 E6.90324
G1 X10.104 Y110.821 E6.92378
G1 X10.691 Y110.633 E6.94431
G1 X11.297 Y110.521 E6.96484
G1 X11.722 Y110.494 E6.97902
G1 X12.055 Y110.202 E6.99377
G1 X12.567 Y109.859 E7.0143
G1 X13.119 Y109.585 E7.03483
G1 X13.701 Y109.384 E7.05534
G1 X14.305 Y109.261 E7.07587
G1 X14.952 Y109.217 E7.09747
G1 X20.725 Y109.218 E7.28977
G1 X21.34 Y109.258 E7.3103
G1 X21.944 Y109.377 E7.33081
G1 X22.528 Y109.574 E7.35134
G1 X23.082 Y109.844 E7.37187
G1 X23.374 Y110.037 E7.38353
G1 X23.441 Y109.989 E7.38627
G1 X23.985 Y109.699 E7.40681
G1 X24.561 Y109.481 E7.42732
G1 X25.161 Y109.34 E7.44785
G1 X25.929 Y109.274 E7.47353
G1 X31.493 Y109.252 E7.65887
G1 X31.779 Y109.215 E7.66848
G1 X31.858 Y109.184 E7.6713
G1 X31.917 Y109.142 E7.67372
G1 X32.21 Y108.696 E7.69149
G1 X33.414 Y106.591 E7.77227
G1 X33.754 Y106.078 E7.79277
G1 X35.311 Y104.027 E7.87855
G1 X35.713 Y103.562 E7.89902
G1 X37.532 Y101.719 E7.98528
G1 X37.993 Y101.31 E8.00581
G1 X38.502 Y100.963 E8.02633
G1 X39.052 Y100.686 E8.04684
G1 X39.879 Y100.42 E8.07578
G1 X40.193 Y100.35 E8.08649
G1 X40.802 Y100.255 E8.10702
G1 X40.967 Y100.251 E8.11252
G1 X41.107 Y99.917 E8.12459
G1 X41.416 Y99.384 E8.14511
G1 X41.792 Y98.896 E8.16563
G1 X42.227 Y98.46 E8.18614
G1 X42.716 Y98.085 E8.20667
G1 X43.496 Y97.661 E8.23624
G0 F2625 X43.693 Y98.121
G1 F900 X45.769 Y97.235 E8.31143
G1 X46.132 Y97.099 E8.32434
G1 X48.143 Y96.45 E8.39473
G1 X48.726 Y96.307 E8.41473
G1 X50.686 Y95.969 E8.48098
G1 X51.088 Y95.919 E8.49447
G1 X53.39 Y95.745 E8.57137
G1 X53.972 Y95.741 E8.59076
G1 X54.55 Y95.817 E8.61018
G1 X55.112 Y95.971 E8.62959
G1 X55.648 Y96.201 E8.64902
G1 X56.147 Y96.501 E8.66841
G1 X56.6 Y96.867 E8.68781
G1 X56.705 Y96.979 E8.69293
G1 X56.885 Y96.885 E8.69969
G1 X57.128 Y96.769 E8.70866
G1 X57.67 Y96.554 E8.72808
G1 X58.236 Y96.416 E8.74749
G1 X58.816 Y96.356 E8.76691
G1 X59.398 Y96.377 E8.78631
G1 X60.068 Y96.501 E8.80901
G1 X61.4 Y96.861 E8.85497
G1 X61.723 Y96.963 E8.86625
G1 X62.919 Y97.391 E8.90857
G1 X63.294 Y97.545 E8.92207
G1 X65.618 Y98.637 E9.0076
G1 X66.096 Y98.901 E9.02579
G1 X68.241 Y100.269 E9.11054
G1 X68.65 Y100.565 E9.12736
G1 X69.82 Y101.524 E9.17775
G1 X70.244 Y101.924 E9.19716
G1 X70.61 Y102.377 E9.21656
G1 X70.91 Y102.877 E9.23599
G1 X71.053 Y103.185 E9.2473
G1 X71.231 Y103.615 E9.2628
G1 X71.416 Y104.168 E9.28222
G1 X71.524 Y104.741 E9.30165
G1 X71.553 Y105.323 E9.32106
G1 X71.529 Y105.698 E9.33357
G1 X71.478 Y106.17 E9.34939
G1 X71.376 Y106.743 E9.36878
G1 X71.197 Y107.298 E9.3882
G1 X70.943 Y107.822 E9.4076
G1 X70.733 Y108.153 E9.42066
G1 X70.463 Y108.538 E9.43632
G1 X70.096 Y108.991 E9.45574
G1 X69.671 Y109.39 E9.47516
G1 X69.195 Y109.727 E9.49458
G1 X68.88 Y109.901 E9.50657
G1 X68.455 Y110.113 E9.52239
G1 X67.917 Y110.337 E9.5418
G1 X67.353 Y110.485 E9.56123
G1 X66.954 Y110.541 E9.57465
G1 X65.192 Y110.706 E9.6336
G1 X64.416 Y110.708 E9.65945
G1 X63.312 Y110.609 E9.69637
G1 X62.737 Y110.517 E9.71577
G1 X62.179 Y110.348 E9.73519
G1 X61.494 Y110.014 E9.76057
G1 X60.446 Y109.381 E9.80136
G1 X58.837 Y108.588 E9.86111
G1 X56.909 Y107.946 E9.9288
G1 X56.37 Y107.725 E9.9482
G1 X55.867 Y107.431 E9.96761
G1 X55.408 Y107.072 E9.98702
G1 X55.373 Y107.038 E9.98865
G1 X55.283 Y107.103 E9.99234
G1 X54.769 Y107.378 E10.01176
G1 X54.223 Y107.58 E10.03115
G1 X53.507 Y107.725 E10.05549
G1 X52.18 Y107.877 E10.09998
G1 X50.37 Y108.314 E10.162
G1 X49.112 Y108.798 E10.2069
G1 X48.556 Y108.969 E10.22628
G1 X47.98 Y109.063 E10.24572
G1 X47.398 Y109.077 E10.26511
G1 X47.156 Y109.049 E10.27323
G1 X47.139 Y109.1 E10.27502
G1 X47.051 Y109.303 E10.28239
G1 X46.783 Y109.821 E10.30182
G1 X46.447 Y110.297 E10.32122
G1 X46.217 Y110.557 E10.33279
G1 X44.731 Y112.104 E10.40424
G1 X43.675 Y113.584 E10.4648
G1 X42.86 Y115.181 E10.52453
G1 X42.281 Y116.893 E10.58473
G1 X41.961 Y118.654 E10.64435
G1 X41.902 Y120.464 E10.70467
G1 X42.104 Y122.233 E10.76398
G1 X42.571 Y123.983 E10.82431
G1 X43.284 Y125.637 E10.88431
G1 X44.233 Y127.169 E10.94434
G1 X45.394 Y128.547 E11.00436
G1 X46.737 Y129.733 E11.06404
G1 X48.255 Y130.722 E11.12439
G1 X49.885 Y131.468 E11.1841
G1 X51.619 Y131.975 E11.24428
G1 X53.396 Y132.219 E11.30403
G1 X55.21 Y132.2 E11.36446
G1 X57.021 Y131.915 E11.42553
G1 X57.777 Y131.71 E11.45162
G1 X59.516 Y131.023 E11.5139
G1 X61.352 Y129.965 E11.58449
G1 X62.054 Y129.642 E11.61023
G1 X62.502 Y129.483 E11.62606
G1 X63.063 Y129.326 E11.64547
G1 X63.901 Y129.238 E11.67354
G1 X65.662 Y129.229 E11.7322
G1 X66.469 Y129.302 E11.75919
G1 X67.57 Y129.509 E11.7965
G1 X68.134 Y129.656 E11.81592
G1 X68.673 Y129.878 E11.83534
G1 X69.176 Y130.172 E11.85474
G1 X69.543 Y130.452 E11.87012
G1 X69.896 Y130.753 E11.88557
G1 X70.312 Y131.161 E11.90498
G1 X70.669 Y131.621 E11.92438
G1 X70.959 Y132.127 E11.94381
G1 X71.105 Y132.463 E11.95601
G1 X71.274 Y132.903 E11.97171
G1 X71.446 Y133.46 E11.99113
G1 X71.539 Y134.035 E12.01053
G1 X71.553 Y134.618 E12.02996
G1 X71.518 Y134.998 E12.04267
G1 X71.454 Y135.47 E12.05853
G1 X71.337 Y136.041 E12.07795
G1 X71.142 Y136.59 E12.09736
G1 X70.874 Y137.108 E12.11678
G1 X70.659 Y137.427 E12.1296
G1 X70.383 Y137.8 E12.14505
G1 X70.005 Y138.244 E12.16448
G1 X69.46 Y138.714 E12.18845
G1 X67.22 Y140.336 E12.28057
G1 X66.716 Y140.65 E12.30035
G1 X64.254 Y141.954 E12.39316
G1 X63.854 Y142.14 E12.40785
G1 X62.567 Y142.659 E12.45407
G1 X62.141 Y142.805 E12.46907
G1 X59.46 Y143.568 E12.56193
G1 X58.882 Y143.69 E12.5816
G1 X56.134 Y144.072 E12.67402
G1 X55.546 Y144.112 E12.69365
G1 X52.774 Y144.11 E12.78599
G1 X52.187 Y144.069 E12.80559
G1 X49.441 Y143.684 E12.89795
G1 X48.859 Y143.56 E12.91778
G1 X46.183 Y142.792 E13.01051
G1 X45.627 Y142.59 E13.03022
G1 X43.088 Y141.46 E13.12279
G1 X42.566 Y141.182 E13.14249
G1 X40.211 Y139.712 E13.23497
G1 X39.732 Y139.365 E13.25467
G1 X37.602 Y137.581 E13.34722
G1 X37.175 Y137.17 E13.36696
G1 X35.313 Y135.106 E13.45955
G1 X34.947 Y134.638 E13.47935
G1 X33.395 Y132.341 E13.57169
G1 X33.186 Y131.997 E13.58509
G1 X32.429 Y130.61 E13.63773
G1 X32.217 Y130.36 E13.64865
G1 X32.007 Y130.246 E13.65661
G1 X31.807 Y130.196 E13.66347
G1 X26.011 Y130.158 E13.85655
G1 X25.43 Y130.114 E13.87595
G1 X24.861 Y129.991 E13.89535
G1 X24.313 Y129.792 E13.91477
G1 X24.01 Y129.642 E13.92603
G1 X23.734 Y129.492 E13.93649
G1 X23.375 Y129.264 E13.95066
G1 X23.168 Y129.431 E13.95952
G1 X22.669 Y129.731 E13.97891
G1 X22.134 Y129.961 E13.99831
G1 X21.572 Y130.115 E14.01772
G1 X20.73 Y130.199 E14.04591
G1 X14.949 Y130.198 E14.23847
G1 X14.368 Y130.158 E14.25787
G1 X13.797 Y130.039 E14.2773
G1 X13.249 Y129.843 E14.29669
G1 X12.732 Y129.573 E14.31612
G1 X12.257 Y129.236 E14.33552
G1 X11.944 Y128.952 E14.3496
G1 X11.924 Y128.932 E14.35054
G1 X11.864 Y128.932 E14.35254
G1 X11.283 Y128.888 E14.37195
G1 X10.714 Y128.765 E14.39134
G1 X10.166 Y128.565 E14.41077
G1 X9.732 Y128.34 E14.42705
G1 X9.502 Y128.204 E14.43595
G1 X9.022 Y127.874 E14.45536
G1 X8.591 Y127.481 E14.47479
G1 X8.219 Y127.033 E14.49418
G1 X7.838 Y126.395 E14.51894
G1 X7.667 Y126.041 E14.53203
G1 X7.45 Y125.5 E14.55145
G1 X7.309 Y124.934 E14.57088
G1 X7.244 Y124.191 E14.59572
G1 X7.245 Y115.703 E14.87846
G1 X7.285 Y115.122 E14.89786
G1 X7.404 Y114.552 E14.91726
G1 X7.65 Y113.893 E14.94069
G1 X7.821 Y113.53 E14.95405
G1 X8.105 Y113.021 E14.97347
G1 X8.456 Y112.556 E14.99288
G1 X8.867 Y112.143 E15.01228
G1 X9.331 Y111.79 E15.0317
G1 X9.605 Y111.624 E15.04238
G1 X9.789 Y111.522 E15.04938
G1 X10.317 Y111.275 E15.0688
G1 X10.874 Y111.103 E15.08822
G1 X11.449 Y111.008 E15.10763
G1 X11.799 Y110.989 E15.11931
G1 X11.92 Y110.988 E15.12334
