;Generated by Cura LulzBot Edition GCodeWriter Version: 3.6.20
;FLAVOR:Marlin
;TIME:3263
;Filament used: 0.990552m
;Layer height: 0.18
;Generated with Cura_SteamEngine 3.6.20
M82 ;absolute extrusion mode
;This G-Code has been generated specifically for the LulzBot Mini 2 with SE 0.5mm Tool Head
M73 P0                  ; clear GLCD progress bar
M75 					; Start GLCD Print Timer
G26 					; clear potential 'probe fail' condition
M107 					; disable fans
M420 S0                 ; disable leveling matrix
G90 					; absolute positioning
M82 					; set extruder to absolute mode
G92 E0 					; set extruder position to 0
M140 S60.0 ; start bed heating up
G28 					; home all axes
G0 X0 Y187 Z156 F200 			; move away from endstops
M117 Mini 2 Wiping...			; progress indicator message on LCD
M109 R140 	; soften filament before retraction
G1 E-15 F75 				; retract filament
M109 R140 	; wait for extruder to reach wiping temp
G1 X45 Y176 F11520 			; move above wiper pad
G1 Z0 F1200 				; push nozzle into wiper
G1 X45 Y178 Z-.5 F4000		; wiping
G1 X55 Y176 Z-.5 F4000		; wiping
G1 X45 Y177 Z0 F4000		; wiping
G1 X55 Y176 F4000		; wiping
G1 X45 Y178 F4000		; wiping
G1 X55 Y176 F4000		; wiping
G1 X45 Y178 F4000		; wiping
G1 X55 Y176 F4000		; wiping
G1 X60 Y178 F4000		; wiping
G1 X80 Y176 F4000		; wiping
G1 X60 Y178 F4000		; wiping
G1 X80 Y176 F4000		; wiping
G1 X60 Y178 F4000		; wiping
G1 X90 Y176 F4000		; wiping
G1 X80 Y178 F4000		; wiping
G1 X100 Y176 F4000		; wiping
G1 X80 Y178 F4000		; wiping
G1 X100 Y176 F4000		; wiping
G1 X80 Y178 F4000		; wiping
G1 X100 Y176 F4000		; wiping
G1 X110 Y178 F4000		; wiping
G1 X100 Y176 F4000		; wiping
G1 X110 Y178 F4000		; wiping
G1 X100 Y176 F4000		; wiping
G1 X110 Y178 F4000		; wiping
G1 X115 Y176 Z-0.5 F1000	; wiping
G1 Z10					; raise extruder
G28 X0 Y0				; home X and Y
M109 R140	; wait for extruder to reach probe temp
M204 S300				; set probing acceleration
G29					; start auto-leveling sequence
M420 S1                     ; enable leveling matrix
M425 Z			     		; use measured Z backlash for compensation
M425 Z F0		     		; turn off measured Z backlash compensation. (if activated in the quality settings, this command will automatically be ignored)
M204 S2000				; restore standard acceleration
G1 X5 Y15 Z10 F5000			; move up off last probe point
G4 S1					; pause
M400					; wait for moves to finish
M117 Heating...				; progress indicator message on LCD
M109 R210 ; wait for extruder to reach initial printing temp
M190 R60.0 ; wait for bed to reach printing temp
G1 Z2 E0 F75				; prime tiny bit of filment into the nozzle
M117 Mini 2 Printing...		; progress indicator message on LCD

M221 S100 T0
G92 E0
G1 F600 E-1.75
;LAYER_COUNT:66
;LAYER:0
M107
G0 F2625 X50.482 Y70.981 Z0.425
;TYPE:SKIRT
G1 F600 E0
G1 F900 X50.927 Y70.663 E0.01822
G1 X51.414 Y70.412 E0.03647
G1 X54.377 Y69.151 E0.14373
G1 X54.701 Y69.031 E0.15524
G1 X60.491 Y67.177 E0.35776
G1 X65.56 Y65.22 E0.53875
G1 X70.506 Y62.981 E0.7196
G1 X75.344 Y60.454 E0.90142
G1 X82.151 Y56.315 E1.16679
G1 X82.411 Y56.17 E1.1767
G1 X84.961 Y54.885 E1.27182
G1 X85.404 Y54.697 E1.28785
G1 X88.077 Y53.756 E1.38224
G1 X88.307 Y53.683 E1.39028
G1 X92.364 Y52.542 E1.53067
G1 X94.956 Y51.718 E1.62126
G1 X100.06 Y49.858 E1.80222
G1 X102.574 Y48.819 E1.89283
G1 X107.521 Y46.523 E2.0745
G1 X112.329 Y43.952 E2.25612
G1 X116.989 Y41.109 E2.43795
G1 X122.127 Y37.641 E2.64444
G1 X122.602 Y37.368 E2.66269
G1 X123.145 Y37.158 E2.68208
G1 X123.807 Y36.959 E2.7051
G1 X124.342 Y36.84 E2.72336
G1 X124.68 Y36.806 E2.73468
G1 X125.387 Y36.767 E2.75826
G1 X125.935 Y36.777 E2.77652
G1 X126.294 Y36.827 E2.78859
G1 X127.026 Y36.966 E2.81341
G1 X127.554 Y37.107 E2.83162
G1 X127.93 Y37.26 E2.84514
G1 X128.617 Y37.585 E2.87045
G1 X129.093 Y37.855 E2.88868
G1 X129.383 Y38.069 E2.90069
G1 X129.915 Y38.503 E2.92356
G1 X130.313 Y38.879 E2.9418
G1 X130.535 Y39.146 E2.95336
G1 X130.977 Y39.73 E2.97776
G1 X131.275 Y40.189 E2.99599
G1 X131.441 Y40.534 E3.00874
G1 X131.735 Y41.23 E3.03391
G1 X131.911 Y41.748 E3.05213
G1 X131.995 Y42.167 E3.06637
G1 X132.105 Y42.95 E3.09271
G1 X132.141 Y43.496 E3.11093
G1 X132.116 Y43.903 E3.12452
G1 X132.034 Y44.612 E3.14829
G1 X131.932 Y45.15 E3.16653
G1 X131.833 Y45.462 E3.17743
G1 X131.6 Y46.103 E3.20015
G1 X131.376 Y46.603 E3.2184
G1 X131.183 Y46.921 E3.23079
G1 X127.721 Y52.044 E3.43676
G1 X124.906 Y56.722 E3.61862
G1 X122.362 Y61.545 E3.80025
G1 X120.104 Y66.486 E3.98121
G1 X118.126 Y71.55 E4.16231
G1 X116.432 Y76.736 E4.34404
G1 X115.024 Y82.048 E4.52709
G1 X114.455 Y84.64 E4.61549
G1 X113.507 Y90.025 E4.79762
G1 X112.756 Y96.03 E4.99921
G1 X112.649 Y96.566 E5.01742
G1 X112.464 Y97.082 E5.03568
G1 X112.207 Y97.565 E5.0539
G1 X111.831 Y98.063 E5.07469
G1 X108.822 Y101.429 E5.22508
G1 X105.337 Y105.666 E5.40782
G1 X103.669 Y107.867 E5.49981
G1 X103.307 Y108.278 E5.51806
G1 X102.89 Y108.632 E5.53628
G1 X102.425 Y108.921 E5.55452
G1 X102.113 Y109.067 E5.56599
G1 X101.726 Y109.227 E5.57994
G1 X101.206 Y109.399 E5.59818
G1 X100.667 Y109.493 E5.61641
G1 X100.374 Y109.511 E5.62619
G1 X97.1 Y109.582 E5.73527
G1 X96.958 Y109.582 E5.74
G1 X89.941 Y109.467 E5.97377
G1 X89.395 Y109.419 E5.99203
G1 X88.863 Y109.291 E6.01026
G1 X88.427 Y109.121 E6.02584
G1 X88.172 Y109.003 E6.0352
G1 X87.693 Y108.738 E6.05344
G1 X87.198 Y108.35 E6.07439
G1 X85.7 Y106.962 E6.14242
G1 X81.528 Y103.37 E6.3258
G1 X77.209 Y100.055 E6.50716
G1 X72.687 Y96.975 E6.68941
G1 X70.419 Y95.568 E6.77831
G1 X65.666 Y92.891 E6.96002
G1 X60.774 Y90.489 E7.14156
G1 X51.284 Y86.484 E7.48467
G1 X50.797 Y86.235 E7.50289
G1 X50.351 Y85.918 E7.52112
G1 X49.956 Y85.539 E7.53935
G1 X49.62 Y85.106 E7.55761
G1 X49.347 Y84.622 E7.57612
G1 X49.24 Y84.394 E7.58451
G1 X49.044 Y83.883 E7.60274
G1 X48.925 Y83.349 E7.62096
G1 X48.887 Y82.913 E7.63554
G1 X48.79 Y79.677 E7.74338
G1 X48.788 Y79.52 E7.74861
G1 X48.851 Y74.243 E7.9244
G1 X48.898 Y73.698 E7.94263
G1 X49.023 Y73.165 E7.96086
G1 X49.225 Y72.656 E7.9791
G1 X49.473 Y72.22 E7.99581
G1 X49.754 Y71.795 E8.01278
G1 X50.088 Y71.361 E8.03103
G1 X50.482 Y70.981 E8.04926
G0 F2625 X50.857 Y71.321
G1 F900 X51.279 Y71.036 E8.06622
G1 X51.609 Y70.873 E8.07848
G1 X54.572 Y69.612 E8.18575
G1 X54.854 Y69.507 E8.19577
G1 X60.65 Y67.651 E8.39849
G1 X65.752 Y65.681 E8.58067
G1 X70.749 Y63.42 E8.76337
G1 X75.576 Y60.898 E8.94478
G1 X82.411 Y56.742 E9.21125
G1 X82.636 Y56.617 E9.21982
G1 X85.186 Y55.332 E9.31494
G1 X85.57 Y55.168 E9.32884
G1 X88.243 Y54.227 E9.42324
G1 X88.442 Y54.164 E9.43019
G1 X92.537 Y53.012 E9.57189
G1 X95.085 Y52.202 E9.66095
G1 X100.257 Y50.318 E9.84431
G1 X102.762 Y49.283 E9.93459
G1 X107.758 Y46.963 E10.11808
G1 X112.573 Y44.388 E10.29996
G1 X117.257 Y41.531 E10.48272
G1 X122.407 Y38.055 E10.68969
G1 X122.85 Y37.804 E10.70665
G1 X123.289 Y37.637 E10.7223
G1 X123.951 Y37.438 E10.74532
G1 X124.449 Y37.33 E10.7623
G1 X124.708 Y37.305 E10.77096
G1 X125.415 Y37.266 E10.79455
G1 X125.924 Y37.278 E10.81151
G1 X126.2 Y37.318 E10.8208
G1 X126.932 Y37.457 E10.84562
G1 X127.424 Y37.591 E10.8626
G1 X127.716 Y37.712 E10.87313
G1 X128.403 Y38.037 E10.89845
G1 X128.845 Y38.29 E10.91541
G1 X129.067 Y38.457 E10.92467
G1 X129.599 Y38.891 E10.94754
G1 X129.968 Y39.243 E10.96452
G1 X130.136 Y39.448 E10.97335
G1 X130.578 Y40.032 E10.99775
G1 X130.853 Y40.461 E11.01472
G1 X130.981 Y40.728 E11.02459
G1 X131.275 Y41.424 E11.04975
G1 X131.436 Y41.908 E11.06675
G1 X131.499 Y42.237 E11.0779
G1 X131.609 Y43.02 E11.10424
G1 X131.641 Y43.528 E11.1212
G1 X131.619 Y43.845 E11.13178
G1 X131.537 Y44.554 E11.15556
G1 X131.363 Y45.291 E11.18078
G1 X131.13 Y45.932 E11.2035
G1 X130.919 Y46.396 E11.22048
G1 X130.769 Y46.642 E11.23008
G1 X127.295 Y51.784 E11.43679
G1 X124.467 Y56.482 E11.61944
G1 X121.912 Y61.327 E11.8019
G1 X119.644 Y66.291 E11.98369
G1 X117.652 Y71.386 E12.16592
G1 X115.951 Y76.595 E12.34845
G1 X114.537 Y81.929 E12.53226
G1 X113.968 Y84.521 E12.62066
G1 X113.012 Y89.958 E12.80455
G1 X112.26 Y95.967 E13.00627
G1 X112.157 Y96.466 E13.02324
G1 X111.978 Y96.943 E13.04021
G1 X111.726 Y97.386 E13.05719
G1 X111.458 Y97.73 E13.07172
G1 X108.451 Y101.094 E13.22201
G1 X104.93 Y105.374 E13.40663
G1 X103.27 Y107.565 E13.49819
G1 X102.932 Y107.946 E13.51516
G1 X102.538 Y108.269 E13.53213
G1 X101.922 Y108.605 E13.5555
G1 X101.535 Y108.765 E13.56945
G1 X101.05 Y108.923 E13.58644
G1 X100.363 Y109.011 E13.60951
G1 X97.089 Y109.082 E13.7186
G1 X96.966 Y109.083 E13.72269
G1 X89.949 Y108.968 E13.95646
G1 X89.442 Y108.919 E13.97343
G1 X88.948 Y108.792 E13.99042
G1 X88.637 Y108.668 E14.00157
G1 X88.382 Y108.55 E14.01093
G1 X87.938 Y108.3 E14.02791
G1 X87.538 Y107.983 E14.04491
G1 X86.041 Y106.595 E14.11291
G1 X81.842 Y102.98 E14.29747
G1 X77.509 Y99.655 E14.4794
G1 X72.954 Y96.552 E14.66299
G1 X70.684 Y95.145 E14.75196
G1 X65.881 Y92.439 E14.93559
G1 X60.986 Y90.035 E15.11725
G1 X51.478 Y86.023 E15.461
G1 X51.026 Y85.789 E15.47796
G1 X50.616 Y85.487 E15.49492
G1 X50.258 Y85.124 E15.5119
G1 X49.961 Y84.71 E15.52887
G1 X49.8 Y84.41 E15.54022
G1 X49.693 Y84.182 E15.54861
G1 X49.513 Y83.705 E15.56559
G1 X49.41 Y83.206 E15.58256
G1 X49.386 Y82.898 E15.59285
G1 X49.289 Y79.662 E15.70069
G1 X49.288 Y79.526 E15.70522
G1 X49.351 Y74.249 E15.88101
G1 X49.397 Y73.742 E15.89797
G1 X49.522 Y73.248 E15.91494
G1 X49.722 Y72.779 E15.93193
G1 X49.89 Y72.496 E15.94289
G1 X50.171 Y72.071 E15.95986
G1 X50.484 Y71.669 E15.97683
G1 X50.857 Y71.321 E15.99383
G1 F600 E14.24383
G0 F2625 X52.995 Y74.079
;TYPE:SUPPORT
G1 F600 E15.99383
G1 F900 X53.051 Y74.062 E15.99578
G1 X54.111 Y74.061 E16.03108
G1 X54.111 Y82.917 E16.32608
G1 X53.024 Y82.916 E16.36229
G1 X52.924 Y82.858 E16.36614
G1 X52.85 Y82.699 E16.37198
G1 X52.825 Y82.569 E16.37639
G1 X52.822 Y81.937 E16.39744
G1 X52.83 Y81.088 E16.42573
G1 X52.779 Y79.6 E16.47532
G1 X52.866 Y78.982 E16.49611
G1 X52.955 Y78.451 E16.51404
G1 X52.876 Y78.035 E16.52815
G1 X52.822 Y77.671 E16.54041
G1 X52.785 Y76.954 E16.56432
G1 X52.847 Y75.776 E16.60362
G1 X52.8 Y74.666 E16.64062
G1 X52.838 Y74.338 E16.65162
G1 X52.892 Y74.182 E16.65712
G1 X52.932 Y74.129 E16.65933
G1 X52.995 Y74.079 E16.66201
G0 F2625 X53.344 Y74.261
G1 F900 X53.344 Y82.716 E16.94365
G1 F600 E15.19365
G0 F2625 X53.024 Y81.683
G1 F600 E16.94365
G1 F900 X53.91 Y81.683 E16.97316
G1 F600 E15.22316
G0 F2625 X53.91 Y80.016
G1 F600 E16.97316
G1 F900 X52.992 Y80.016 E17.00374
G1 F600 E15.25374
G0 F2625 X53.138 Y78.349
G1 F600 E17.00374
G1 F900 X53.91 Y78.349 E17.02946
G1 F600 E15.27946
G0 F2625 X53.91 Y76.682
G1 F600 E17.02946
G1 F900 X53 Y76.682 E17.05977
G1 F600 E15.30977
G0 F2625 X53.014 Y75.015
G1 F600 E17.05977
G1 F900 X53.91 Y75.015 E17.08962
G1 F600 E15.33962
G0 F2625 X55.2 Y84.527
G0 X55.678 Y85.008
G0 X94.128 Y105.57
G1 F600 E17.08962
G1 F900 X94.166 Y105.57 E17.09088
G1 X94.134 Y105.575 E17.09196
G1 X94.128 Y105.57 E17.09222
G1 F600 E15.34222
G0 F2625 X96.359 Y105.576
G1 F600 E17.09222
G1 F900 X96.416 Y105.576 E17.09412
G1 X96.407 Y105.583 E17.0945
G1 X96.359 Y105.576 E17.09612
G1 F600 E15.34612
;MESH:
G0 F2625 X91.228 Y100.822
G0 X91.441 Y99.405
G0 X74.231 Y84.961
G0 X73.684 Y84.559
G0 X72.998 Y84.219
G0 X71.834 Y83.703
G0 X71.812 Y83.8
;TYPE:WALL-INNER
G1 F600 E17.09612
G1 F900 X71.147 Y83.684 E17.1186
G1 X70.496 Y83.647 E17.14032
G1 X56.861 Y83.651 E17.59451
G1 X56.611 Y83.651 E17.60284
G1 X56.611 Y83.401 E17.60823
G1 X56.616 Y77.292 E17.81172
G1 X56.612 Y73.584 E17.93523
G1 X56.612 Y73.334 E17.94356
G1 X56.862 Y73.334 E17.94895
G1 X70.496 Y73.338 E18.4031
G1 X71.147 Y73.301 E18.42482
G1 X71.812 Y73.185 E18.44731
G1 X72.458 Y72.992 E18.46977
G1 X73.077 Y72.727 E18.4922
G1 X73.663 Y72.393 E18.51466
G1 X74.206 Y71.994 E18.53711
G1 X74.699 Y71.534 E18.55957
G1 X75.135 Y71.023 E18.58194
G1 X75.511 Y70.463 E18.60441
G1 X75.805 Y69.893 E18.62578
G1 X76.413 Y68.631 E18.67244
G1 X77.1 Y67.415 E18.71896
G1 X77.845 Y66.278 E18.76424
G1 X78.675 Y65.172 E18.8103
G1 X79.576 Y64.121 E18.85642
G1 X80.546 Y63.13 E18.90261
G1 X81.558 Y62.219 E18.94797
G1 X82.649 Y61.359 E18.99424
G1 X83.785 Y60.578 E19.04016
G1 X84.956 Y59.879 E19.08559
G1 X86.201 Y59.242 E19.13217
G1 X87.449 Y58.702 E19.17747
G1 X88.753 Y58.236 E19.2236
G1 X90.081 Y57.854 E19.26963
G1 X91.438 Y57.561 E19.31587
G1 X92.783 Y57.358 E19.36118
G1 X94.155 Y57.242 E19.40704
G1 X95.547 Y57.214 E19.45342
G1 X96.907 Y57.276 E19.49877
G1 X98.304 Y57.43 E19.54559
G1 X99.632 Y57.665 E19.59051
G1 X100.982 Y57.994 E19.6368
G1 X102.314 Y58.412 E19.6833
G1 X103.572 Y58.898 E19.72822
G1 X104.833 Y59.484 E19.77454
G1 X106.048 Y60.144 E19.8206
G1 X107.212 Y60.879 E19.86645
G1 X108.132 Y61.547 E19.90433
G1 X108.294 Y61.665 E19.911
G1 X108.349 Y61.719 E19.91357
G1 X108.368 Y61.748 E19.91472
G1 X108.381 Y61.816 E19.91703
G1 X108.361 Y61.886 E19.91945
G1 X108.31 Y61.939 E19.9219
G1 X108.263 Y61.963 E19.92366
G1 X108.071 Y62.022 E19.92915
G1 X107.502 Y62.197 E19.94898
G1 X106.72 Y62.354 E19.97555
G1 X105.892 Y62.436 E20.00326
G1 X105.089 Y62.435 E20.03001
G1 X104.281 Y62.354 E20.05706
G1 X104.185 Y62.318 E20.06048
G1 X103.042 Y61.737 E20.10319
G1 X101.824 Y61.224 E20.14721
G1 X100.571 Y60.799 E20.19128
G1 X99.291 Y60.466 E20.23534
G1 X97.991 Y60.224 E20.27939
G1 X96.676 Y60.076 E20.32347
G1 X95.357 Y60.023 E20.36744
G1 X94.036 Y60.063 E20.41146
G1 X92.72 Y60.198 E20.45553
G1 X91.418 Y60.428 E20.49957
G1 X90.135 Y60.75 E20.54363
G1 X88.878 Y61.164 E20.58772
G1 X87.655 Y61.665 E20.63174
G1 X86.471 Y62.253 E20.67578
G1 X85.33 Y62.924 E20.71987
G1 X84.242 Y63.676 E20.76393
G1 X83.21 Y64.503 E20.80798
G1 X82.241 Y65.402 E20.85201
G1 X81.337 Y66.367 E20.89605
G1 X80.505 Y67.395 E20.94011
G1 X79.75 Y68.48 E20.98414
G1 X79.072 Y69.617 E21.02823
G1 X78.479 Y70.799 E21.07228
G1 X77.971 Y72.02 E21.11633
G1 X77.552 Y73.275 E21.16041
G1 X77.224 Y74.556 E21.20445
G1 X76.988 Y75.856 E21.24847
G1 X76.846 Y77.172 E21.29256
G1 X76.8 Y78.492 E21.33655
G1 X76.846 Y79.813 E21.38058
G1 X76.988 Y81.129 E21.42467
G1 X77.224 Y82.429 E21.46869
G1 X77.552 Y83.71 E21.51273
G1 X77.971 Y84.965 E21.55681
G1 X78.479 Y86.186 E21.60086
G1 X79.072 Y87.367 E21.64488
G1 X79.75 Y88.505 E21.689
G1 X80.505 Y89.59 E21.73303
G1 X81.337 Y90.618 E21.77709
G1 X82.241 Y91.583 E21.82113
G1 X83.21 Y92.482 E21.86516
G1 X84.242 Y93.309 E21.90921
G1 X85.33 Y94.06 E21.95325
G1 X86.471 Y94.732 E21.99736
G1 X87.655 Y95.32 E22.04139
G1 X88.878 Y95.821 E22.08542
G1 X90.135 Y96.235 E22.1295
G1 X91.418 Y96.557 E22.17357
G1 X92.72 Y96.787 E22.21761
G1 X94.036 Y96.922 E22.26167
G1 X95.357 Y96.962 E22.3057
G1 X96.676 Y96.909 E22.34967
G1 X97.991 Y96.761 E22.39375
G1 X99.291 Y96.519 E22.4378
G1 X100.571 Y96.186 E22.48185
G1 X101.824 Y95.761 E22.52593
G1 X103.042 Y95.248 E22.56995
G1 X104.247 Y94.64 E22.61491
G1 X104.289 Y94.629 E22.61635
G1 X105.079 Y94.549 E22.6428
G1 X105.892 Y94.549 E22.66989
G1 X106.72 Y94.631 E22.6976
G1 X107.502 Y94.788 E22.72417
G1 X108.07 Y94.963 E22.74397
G1 X108.263 Y95.022 E22.75069
G1 X108.339 Y95.07 E22.75368
G1 X108.376 Y95.135 E22.75618
G1 X108.381 Y95.169 E22.75732
G1 X108.368 Y95.237 E22.75963
G1 X108.349 Y95.266 E22.76078
G1 X108.296 Y95.319 E22.76328
G1 X108.133 Y95.437 E22.76877
G1 X107.214 Y96.105 E22.80661
G1 X106.048 Y96.84 E22.85253
G1 X104.834 Y97.502 E22.89859
G1 X103.572 Y98.087 E22.94492
G1 X102.314 Y98.573 E22.98984
G1 X100.979 Y98.992 E23.03645
G1 X99.634 Y99.319 E23.08256
G1 X98.291 Y99.556 E23.12799
G1 X96.919 Y99.708 E23.17397
G1 X95.547 Y99.771 E23.21972
G1 X94.155 Y99.743 E23.2661
G1 X92.783 Y99.627 E23.31196
G1 X91.438 Y99.424 E23.35727
G1 X90.081 Y99.13 E23.40352
G1 X88.752 Y98.749 E23.44957
G1 X87.449 Y98.283 E23.49567
G1 X86.201 Y97.743 E23.54097
G1 X84.956 Y97.106 E23.58755
G1 X83.785 Y96.407 E23.63298
G1 X82.649 Y95.626 E23.6789
G1 X81.558 Y94.766 E23.72517
G1 X80.544 Y93.853 E23.77062
G1 X79.576 Y92.864 E23.81672
G1 X78.675 Y91.813 E23.86283
G1 X77.845 Y90.707 E23.9089
G1 X77.099 Y89.568 E23.95425
G1 X76.413 Y88.354 E24.0007
G1 X75.805 Y87.092 E24.04736
G1 X75.511 Y86.522 E24.06872
G1 X75.135 Y85.962 E24.09119
G1 X74.699 Y85.451 E24.11357
G1 X74.206 Y84.991 E24.13603
G1 X73.663 Y84.592 E24.15847
G1 X73.077 Y84.258 E24.18094
G1 X72.458 Y83.993 E24.20337
