;Generated by Cura LulzBot Edition GCodeWriter Version: 3.6.20
;FLAVOR:Marlin
;TIME:2718
;Filament used: 1.27465m
;Layer height: 0.25
;Generated with Cura_SteamEngine 3.6.20
M82 ;absolute extrusion mode
;This G-Code has been generated specifically for the LulzBot Mini 2 with SE 0.5mm Tool Head
M73 P0                  ; clear GLCD progress bar
M75 					; Start GLCD Print Timer
G26 					; clear potential 'probe fail' condition
M107 					; disable fans
M420 S0                 ; disable leveling matrix
G90 					; absolute positioning
M82 					; set extruder to absolute mode
G92 E0 					; set extruder position to 0
M140 S60.0 ; start bed heating up
G28 					; home all axes
G0 X0 Y187 Z156 F200 			; move away from endstops
M117 Mini 2 Wiping...			; progress indicator message on LCD
M109 R140 	; soften filament before retraction
G1 E-15 F75 				; retract filament
M109 R140 	; wait for extruder to reach wiping temp
G1 X45 Y176 F11520 			; move above wiper pad
G1 Z0 F1200 				; push nozzle into wiper
G1 X45 Y178 Z-.5 F4000		; wiping
G1 X55 Y176 Z-.5 F4000		; wiping
G1 X45 Y177 Z0 F4000		; wiping
G1 X55 Y176 F4000		; wiping
G1 X45 Y178 F4000		; wiping
G1 X55 Y176 F4000		; wiping
G1 X45 Y178 F4000		; wiping
G1 X55 Y176 F4000		; wiping
G1 X60 Y178 F4000		; wiping
G1 X80 Y176 F4000		; wiping
G1 X60 Y178 F4000		; wiping
G1 X80 Y176 F4000		; wiping
G1 X60 Y178 F4000		; wiping
G1 X90 Y176 F4000		; wiping
G1 X80 Y178 F4000		; wiping
G1 X100 Y176 F4000		; wiping
G1 X80 Y178 F4000		; wiping
G1 X100 Y176 F4000		; wiping
G1 X80 Y178 F4000		; wiping
G1 X100 Y176 F4000		; wiping
G1 X110 Y178 F4000		; wiping
G1 X100 Y176 F4000		; wiping
G1 X110 Y178 F4000		; wiping
G1 X100 Y176 F4000		; wiping
G1 X110 Y178 F4000		; wiping
G1 X115 Y176 Z-0.5 F1000	; wiping
G1 Z10					; raise extruder
G28 X0 Y0				; home X and Y
M109 R140	; wait for extruder to reach probe temp
M204 S300				; set probing acceleration
G29					; start auto-leveling sequence
M420 S1                     ; enable leveling matrix
M425 Z			     		; use measured Z backlash for compensation
M425 Z F0		     		; turn off measured Z backlash compensation. (if activated in the quality settings, this command will automatically be ignored)
M204 S2000				; restore standard acceleration
G1 X5 Y15 Z10 F5000			; move up off last probe point
G4 S1					; pause
M400					; wait for moves to finish
M117 Heating...				; progress indicator message on LCD
M109 R210 ; wait for extruder to reach initial printing temp
M190 R60.0 ; wait for bed to reach printing temp
G1 Z2 E0 F75				; prime tiny bit of filment into the nozzle
M117 Mini 2 Printing...		; progress indicator message on LCD

M221 S100 T0
G92 E0
G1 F600 E-1.75
;LAYER_COUNT:16
;LAYER:0
M107
G0 F2625 X40.604 Y38.42 Z0.425
;TYPE:SKIRT
G1 F600 E0
G1 F900 X40.757 Y38.275 E0.00702
G1 X43.161 Y36.136 E0.11421
G1 X43.33 Y35.995 E0.12154
G1 X46.804 Y33.303 E0.26794
G1 X46.989 Y33.17 E0.27553
G1 X49.967 Y31.18 E0.39484
G1 X50.144 Y31.069 E0.40179
G1 X52.94 Y29.45 E0.50942
G1 X53.135 Y29.347 E0.51676
G1 X57.084 Y27.405 E0.66335
G1 X57.274 Y27.319 E0.6703
G1 X59.866 Y26.245 E0.76376
G1 X60.022 Y26.184 E0.76934
G1 X62.66 Y25.247 E0.86259
G1 X62.834 Y25.191 E0.86868
G1 X66.333 Y24.166 E0.99013
G1 X66.522 Y24.117 E0.99663
G1 X69.265 Y23.489 E1.09037
G1 X69.44 Y23.454 E1.09631
G1 X72.645 Y22.904 E1.20463
G1 X72.865 Y22.874 E1.21203
G1 X77.193 Y22.432 E1.35694
G1 X77.422 Y22.417 E1.36459
G1 X81.054 Y22.304 E1.48563
G1 X81.258 Y22.304 E1.49243
G1 X84.435 Y22.405 E1.59831
G1 X84.658 Y22.419 E1.60575
G1 X89.057 Y22.862 E1.75302
G1 X89.286 Y22.894 E1.76072
G1 X92.887 Y23.518 E1.88246
G1 X93.075 Y23.556 E1.88885
G1 X95.8 Y24.196 E1.98209
G1 X95.974 Y24.242 E1.98809
G1 X99.037 Y25.143 E2.09444
G1 X99.246 Y25.212 E2.10177
G1 X103.372 Y26.736 E2.24829
G1 X103.586 Y26.824 E2.25599
G1 X106.926 Y28.336 E2.37812
G1 X107.113 Y28.428 E2.38506
G1 X109.934 Y29.929 E2.4915
G1 X110.125 Y30.039 E2.49885
G1 X113.861 Y32.365 E2.64544
G1 X114.052 Y32.493 E2.6531
G1 X116.978 Y34.616 E2.77352
G1 X117.142 Y34.744 E2.78045
G1 X119.606 Y36.784 E2.887
G1 X119.736 Y36.897 E2.89274
G1 X121.828 Y38.825 E2.98751
G1 X121.979 Y38.974 E2.99457
G1 X124.961 Y42.107 E3.13865
G1 X125.113 Y42.278 E3.14627
G1 X127.456 Y45.114 E3.26881
G1 X127.584 Y45.281 E3.27582
G1 X129.468 Y47.889 E3.38299
G1 X129.591 Y48.071 E3.39031
G1 X131.901 Y51.771 E3.5356
G1 X132.015 Y51.968 E3.54318
G1 X133.716 Y55.173 E3.66405
G1 X133.808 Y55.363 E3.67108
G1 X135.136 Y58.312 E3.77881
G1 X135.22 Y58.515 E3.78613
G1 X136.755 Y62.651 E3.93308
G1 X136.827 Y62.87 E3.94076
G1 X137.84 Y66.333 E4.06095
G1 X137.892 Y66.533 E4.06783
G1 X138.585 Y69.618 E4.17316
G1 X138.619 Y69.79 E4.179
G1 X139.105 Y72.675 E4.27645
G1 X139.133 Y72.884 E4.28348
G1 X139.569 Y77.147 E4.42622
G1 X139.584 Y77.375 E4.43383
G1 X139.7 Y81.046 E4.55617
G1 X139.7 Y81.254 E4.5631
G1 X139.596 Y84.462 E4.67002
G1 X139.582 Y84.683 E4.67739
G1 X139.15 Y88.974 E4.82105
G1 X139.119 Y89.199 E4.82862
G1 X138.488 Y92.865 E4.95253
G1 X138.449 Y93.056 E4.95902
G1 X137.806 Y95.799 E5.05287
G1 X137.76 Y95.974 E5.0589
G1 X136.866 Y99.012 E5.16438
G1 X136.797 Y99.221 E5.17172
G1 X135.272 Y103.351 E5.31837
G1 X135.185 Y103.563 E5.326
G1 X133.675 Y106.905 E5.44816
G1 X133.561 Y107.134 E5.45668
G1 X131.273 Y111.293 E5.6148
G1 X131.149 Y111.498 E5.62278
G1 X129.14 Y114.587 E5.74552
G1 X129.02 Y114.76 E5.75254
G1 X127.098 Y117.333 E5.85952
G1 X126.99 Y117.469 E5.8653
G1 X125.165 Y119.658 E5.96023
G1 X125.057 Y119.781 E5.96569
G1 X123.151 Y121.846 E6.05929
G1 X123.002 Y121.998 E6.06638
G1 X119.85 Y124.994 E6.21124
G1 X119.678 Y125.146 E6.21889
G1 X116.878 Y127.454 E6.33976
G1 X116.716 Y127.579 E6.34657
G1 X114.138 Y129.444 E6.45256
G1 X113.954 Y129.568 E6.45995
G1 X110.223 Y131.897 E6.60646
G1 X110.026 Y132.011 E6.61404
G1 X106.842 Y133.701 E6.73412
G1 X106.654 Y133.793 E6.74109
G1 X103.699 Y135.126 E6.84907
G1 X103.538 Y135.193 E6.85488
G1 X100.894 Y136.218 E6.94934
G1 X100.694 Y136.288 E6.9564
G1 X96.578 Y137.583 E7.10013
G1 X96.358 Y137.644 E7.10773
G1 X92.776 Y138.5 E7.23041
G1 X92.586 Y138.539 E7.23687
G1 X89.84 Y139.024 E7.32976
G1 X89.661 Y139.051 E7.33579
G1 X86.408 Y139.44 E7.44492
G1 X86.189 Y139.459 E7.45224
G1 X81.871 Y139.681 E7.59627
G1 X81.641 Y139.684 E7.60393
G1 X77.942 Y139.612 E7.72717
G1 X77.735 Y139.602 E7.73407
G1 X74.604 Y139.341 E7.83873
G1 X74.385 Y139.315 E7.84607
G1 X70.058 Y138.656 E7.99187
G1 X69.854 Y138.618 E7.99878
G1 X67.117 Y138.021 E8.09209
G1 X66.957 Y137.982 E8.09758
G1 X64.289 Y137.256 E8.18968
G1 X64.114 Y137.203 E8.19578
G1 X60.592 Y136.029 E8.31944
G1 X60.393 Y135.955 E8.32651
G1 X57.424 Y134.744 E8.43332
G1 X57.223 Y134.654 E8.44066
G1 X53.305 Y132.737 E8.58595
G1 X53.104 Y132.63 E8.59354
G1 X49.928 Y130.79 E8.7158
G1 X49.749 Y130.679 E8.72282
G1 X47.072 Y128.887 E8.83013
G1 X46.893 Y128.758 E8.83747
G1 X43.47 Y126.114 E8.98155
G1 X43.294 Y125.968 E8.98917
G1 X40.517 Y123.492 E9.1131
G1 X40.377 Y123.359 E9.11953
G1 X38.439 Y121.412 E9.21104
G1 X38.316 Y121.281 E9.21702
G1 X36.169 Y118.872 E9.32451
G1 X36.027 Y118.702 E9.33189
G1 X33.332 Y115.229 E9.47832
G1 X33.198 Y115.042 E9.48599
G1 X31.173 Y112.011 E9.60741
G1 X31.063 Y111.835 E9.61432
G1 X29.459 Y109.065 E9.72095
G1 X29.354 Y108.869 E9.72835
G1 X27.412 Y104.917 E9.87503
G1 X27.326 Y104.727 E9.88198
G1 X26.266 Y102.167 E9.97427
G1 X26.201 Y101.997 E9.98034
G1 X24.997 Y98.554 E10.10183
G1 X24.934 Y98.351 E10.10891
G1 X24.053 Y95.179 E10.21858
G1 X24.011 Y95.011 E10.22434
G1 X23.414 Y92.312 E10.31642
G1 X23.375 Y92.105 E10.32344
G1 X22.715 Y87.819 E10.46789
G1 X22.688 Y87.593 E10.47547
G1 X22.384 Y83.936 E10.59771
G1 X22.373 Y83.724 E10.60478
G1 X22.316 Y80.47 E10.71319
G1 X22.32 Y80.252 E10.72045
G1 X22.533 Y75.966 E10.86339
G1 X22.552 Y75.737 E10.87105
G1 X22.999 Y72.035 E10.99526
G1 X23.031 Y71.83 E11.00217
G1 X23.607 Y68.739 E11.1069
G1 X23.644 Y68.568 E11.11273
G1 X24.318 Y65.788 E11.20802
G1 X24.374 Y65.583 E11.2151
G1 X25.673 Y61.434 E11.35992
G1 X25.749 Y61.218 E11.36754
G1 X27.087 Y57.807 E11.48959
G1 X27.171 Y57.614 E11.49661
G1 X28.562 Y54.648 E11.60573
G1 X28.661 Y54.452 E11.61304
G1 X30.745 Y50.692 E11.75624
G1 X30.862 Y50.498 E11.76379
G1 X32.831 Y47.465 E11.88424
G1 X32.95 Y47.294 E11.89118
G1 X34.867 Y44.719 E11.99812
G1 X35.005 Y44.546 E12.00549
G1 X37.867 Y41.204 E12.15205
G1 X38.023 Y41.035 E12.15971
G1 X40.604 Y38.42 E12.2821
G1 F600 E10.5321
;MESH:
G0 F2625 X46.63 Y36.639
G0 X47.537 Y37.75
G0 X83.774 Y26.463
G0 X83.779 Y26.364
;TYPE:WALL-INNER
G1 F600 E12.2821
G1 F900 X86.543 Y26.574 E12.37444
G1 X89.298 Y26.925 E12.46695
G1 X92.01 Y27.411 E12.55873
G1 X94.716 Y28.039 E12.65126
G1 X97.385 Y28.803 E12.74374
G1 X100.013 Y29.701 E12.83625
G1 X102.587 Y30.729 E12.92857
G1 X105.095 Y31.882 E13.02052
G1 X107.549 Y33.164 E13.11275
G1 X109.948 Y34.576 E13.20547
G1 X112.252 Y36.094 E13.29738
G1 X114.476 Y37.727 E13.38929
G1 X116.654 Y39.502 E13.48288
G1 X118.682 Y41.335 E13.57394
G1 X120.669 Y43.322 E13.66754
G1 X122.513 Y45.362 E13.75914
G1 X124.254 Y47.497 E13.85091
G1 X125.909 Y49.751 E13.94405
G1 X127.428 Y52.055 E14.03598
G1 X128.835 Y54.447 E14.12842
G1 X130.129 Y56.923 E14.22148
G1 X131.274 Y59.416 E14.31286
G1 X132.303 Y61.99 E14.4052
G1 X133.2 Y64.615 E14.4976
G1 X133.966 Y67.291 E14.59032
G1 X134.592 Y69.993 E14.68271
G1 X135.077 Y72.694 E14.77412
G1 X135.429 Y75.456 E14.86687
G1 X135.641 Y78.231 E14.95957
G1 X135.711 Y80.991 E15.05154
G1 X135.641 Y83.764 E15.14394
G1 X135.429 Y86.535 E15.23651
G1 X135.08 Y89.28 E15.32869
G1 X134.592 Y92.002 E15.4208
G1 X133.966 Y94.705 E15.51322
G1 X133.201 Y97.376 E15.60577
G1 X132.303 Y100.005 E15.69831
G1 X131.274 Y102.578 E15.79062
G1 X130.122 Y105.087 E15.88258
G1 X128.84 Y107.541 E15.97481
G1 X127.428 Y109.94 E16.06754
G1 X125.916 Y112.234 E16.15906
G1 X124.27 Y114.476 E16.2517
G1 X122.51 Y116.634 E16.34446
G1 X120.652 Y118.692 E16.43682
G1 X118.691 Y120.652 E16.52918
G1 X116.654 Y122.493 E16.62063
G1 X114.486 Y124.26 E16.7138
G1 X112.254 Y125.899 E16.80604
G1 X109.948 Y127.419 E16.89804
G1 X107.549 Y128.831 E16.99077
G1 X105.095 Y130.113 E17.08299
G1 X102.587 Y131.266 E17.17494
G1 X100.013 Y132.294 E17.26727
G1 X97.385 Y133.192 E17.35977
G1 X94.716 Y133.957 E17.45226
G1 X92.01 Y134.584 E17.54479
G1 X89.298 Y135.07 E17.63656
G1 X86.543 Y135.421 E17.72907
G1 X83.779 Y135.631 E17.82141
G1 X81.006 Y135.703 E17.91381
G1 X78.233 Y135.631 E18.00621
G1 X75.469 Y135.421 E18.09855
G1 X72.714 Y135.07 E18.19106
G1 X70.002 Y134.584 E18.28283
G1 X67.296 Y133.956 E18.37537
G1 X64.627 Y133.192 E18.46784
G1 X61.998 Y132.294 E18.56038
G1 X59.425 Y131.266 E18.65268
G1 X56.924 Y130.116 E18.74437
G1 X54.455 Y128.826 E18.83717
G1 X52.063 Y127.419 E18.92961
G1 X49.758 Y125.899 E19.02158
G1 X47.516 Y124.253 E19.11423
G1 X45.358 Y122.493 E19.20699
G1 X43.321 Y120.652 E19.29844
G1 X41.36 Y118.692 E19.3908
G1 X39.502 Y116.634 E19.48316
G1 X37.726 Y114.455 E19.5768
G1 X36.106 Y112.249 E19.66796
G1 X34.577 Y109.928 E19.76055
G1 X33.172 Y107.541 E19.85281
G1 X31.89 Y105.087 E19.94503
G1 X30.731 Y102.564 E20.03752
G1 X29.712 Y100.012 E20.12905
G1 X28.811 Y97.376 E20.22185
G1 X28.046 Y94.705 E20.3144
G1 X27.419 Y92.002 E20.40683
G1 X26.932 Y89.28 E20.49894
G1 X26.583 Y86.535 E20.59111
G1 X26.371 Y83.764 E20.68368
G1 X26.301 Y81.004 E20.77565
G1 X26.371 Y78.231 E20.86805
G1 X26.583 Y75.456 E20.96075
G1 X26.933 Y72.706 E21.0531
G1 X27.419 Y69.994 E21.14487
G1 X28.046 Y67.292 E21.23727
G1 X28.812 Y64.615 E21.33002
G1 X29.713 Y61.98 E21.42278
G1 X30.731 Y59.43 E21.51424
G1 X31.883 Y56.923 E21.60614
G1 X33.177 Y54.447 E21.69921
G1 X34.577 Y52.067 E21.79118
G1 X36.11 Y49.74 E21.88401
G1 X37.727 Y47.538 E21.97501
G1 X39.511 Y45.349 E22.06907
G1 X41.343 Y43.322 E22.16008
G1 X43.33 Y41.335 E22.25369
G1 X45.358 Y39.502 E22.34474
G1 X47.525 Y37.735 E22.43788
G1 X49.76 Y36.094 E22.53024
G1 X52.063 Y34.576 E22.62212
G1 X54.455 Y33.169 E22.71456
G1 X56.924 Y31.879 E22.80736
G1 X59.425 Y30.729 E22.89905
G1 X61.998 Y29.701 E22.99135
G1 X64.627 Y28.803 E23.08389
G1 X67.296 Y28.038 E23.17637
G1 X70.002 Y27.411 E23.2689
G1 X72.714 Y26.925 E23.36067
G1 X75.469 Y26.574 E23.45319
G1 X78.233 Y26.364 E23.54552
G1 X81.006 Y26.293 E23.63792
G1 X83.779 Y26.364 E23.73032
G0 F2625 X83.774 Y26.463
G0 X60.713 Y37.02
G0 X58.213 Y38.261
G0 X55.789 Y39.645
G0 X53.449 Y41.168
G0 X51.199 Y42.821
G0 X49.049 Y44.601
G0 X47.005 Y46.504
G0 X45.074 Y48.52
G0 X43.262 Y50.644
G0 X41.577 Y52.869
G0 X40.022 Y55.187
G0 X38.602 Y57.591
G0 X37.324 Y60.073
G0 X36.191 Y62.624
G0 X35.209 Y65.236
G0 X34.375 Y67.902
G0 X33.697 Y70.61
G0 X33.178 Y73.353
G0 X32.817 Y76.121
G0 X32.616 Y78.906
G0 X32.577 Y81.695
G0 X32.697 Y84.483
G0 X32.978 Y87.261
G0 X33.418 Y90.017
G0 X34.018 Y92.744
G0 X34.772 Y95.432
G0 X35.681 Y98.071
G0 X36.739 Y100.654
G0 X37.946 Y103.173
G0 X39.295 Y105.616
G0 X40.783 Y107.978
G0 X42.404 Y110.252
G0 X44.153 Y112.426
G0 X46.026 Y114.497
G0 X48.013 Y116.457
G0 X50.111 Y118.299
G0 X52.313 Y120.018
G0 X54.608 Y121.605
G0 X55.958 Y122.428
G0 X59.427 Y124.427
G0 X59.471 Y124.338
G1 F900 X62.005 Y125.506 E23.82326
G1 X64.599 Y126.527 E23.91612
G1 X67.238 Y127.393 E24.00864
G1 X69.947 Y128.112 E24.102
G1 X72.679 Y128.671 E24.19489
G1 X75.439 Y129.071 E24.28779
G1 X78.219 Y129.312 E24.38074
G1 X81.006 Y129.393 E24.47362
G1 X83.793 Y129.312 E24.56649
G1 X86.573 Y129.071 E24.65944
G1 X89.332 Y128.671 E24.75231
G1 X92.065 Y128.112 E24.84523
G1 X94.774 Y127.393 E24.93859
G1 X97.412 Y126.527 E25.03108
G1 X100.007 Y125.506 E25.12397
G1 X102.54 Y124.338 E25.21688
G1 X105.001 Y123.024 E25.30981
G1 X107.383 Y121.572 E25.40273
G1 X109.676 Y119.986 E25.49561
G1 X111.876 Y118.269 E25.58857
G1 X113.972 Y116.428 E25.68149
G1 X115.958 Y114.47 E25.77439
G1 X117.828 Y112.401 E25.86729
G1 X119.576 Y110.228 E25.96018
G1 X121.196 Y107.956 E26.05313
G1 X122.683 Y105.596 E26.14605
G1 X124.031 Y103.154 E26.23896
G1 X125.236 Y100.638 E26.33189
G1 X126.294 Y98.057 E26.42481
G1 X127.202 Y95.421 E26.51768
G1 X127.956 Y92.735 E26.61061
G1 X128.555 Y90.01 E26.70354
G1 X128.995 Y87.256 E26.79644
G1 X129.275 Y84.481 E26.88935
G1 X129.396 Y81.695 E26.98224
G1 X129.356 Y78.907 E27.07512
G1 X129.156 Y76.125 E27.16803
G1 X128.795 Y73.359 E27.26094
G1 X128.275 Y70.618 E27.35388
G1 X127.599 Y67.912 E27.44678
G1 X126.766 Y65.249 E27.53973
G1 X125.784 Y62.639 E27.63262
G1 X124.652 Y60.09 E27.72552
G1 X123.375 Y57.61 E27.81844
G1 X121.956 Y55.208 E27.91137
G1 X120.403 Y52.892 E28.00426
G1 X118.719 Y50.669 E28.09715
G1 X116.909 Y48.546 E28.19008
G1 X114.979 Y46.532 E28.283
G1 X112.936 Y44.631 E28.37596
G1 X110.789 Y42.852 E28.46884
G1 X108.541 Y41.2 E28.56177
G1 X106.203 Y39.679 E28.65467
G1 X103.781 Y38.296 E28.74758
G1 X101.283 Y37.056 E28.84048
G1 X98.718 Y35.96 E28.93339
G1 X96.093 Y35.014 E29.02633
G1 X93.418 Y34.222 E29.11926
G1 X90.703 Y33.584 E29.21216
G1 X87.955 Y33.103 E29.30509
G1 X85.185 Y32.783 E29.39798
G1 X82.399 Y32.622 E29.49093
G1 X79.613 Y32.622 E29.58374
G1 X76.827 Y32.783 E29.67669
G1 X74.057 Y33.103 E29.76958
G1 X71.309 Y33.584 E29.86251
G1 X68.594 Y34.222 E29.95541
G1 X65.919 Y35.014 E30.04834
G1 X63.294 Y35.96 E30.14128
G1 X60.729 Y37.056 E30.23419
G1 X58.231 Y38.296 E30.32709
G1 X55.809 Y39.679 E30.42
G1 X53.471 Y41.2 E30.5129
G1 X51.223 Y42.852 E30.60583
G1 X49.075 Y44.631 E30.69874
G1 X47.033 Y46.532 E30.79167
G1 X45.103 Y48.546 E30.88459
G1 X43.293 Y50.669 E30.97752
G1 X41.609 Y52.892 E31.07041
G1 X40.055 Y55.208 E31.16332
G1 X38.637 Y57.61 E31.25623
G1 X37.36 Y60.09 E31.34915
G1 X36.228 Y62.639 E31.44205
G1 X35.246 Y65.249 E31.53494
G1 X34.413 Y67.912 E31.62789
G1 X33.736 Y70.618 E31.7208
G1 X33.217 Y73.359 E31.81373
G1 X32.856 Y76.125 E31.90665
G1 X32.655 Y78.907 E31.99956
G1 X32.616 Y81.695 E32.09244
G1 X32.736 Y84.481 E32.18533
G1 X33.017 Y87.256 E32.27824
G1 X33.457 Y90.01 E32.37114
G1 X34.056 Y92.735 E32.46407
G1 X34.81 Y95.421 E32.557
G1 X35.718 Y98.057 E32.64987
G1 X36.775 Y100.638 E32.74278
G1 X37.981 Y103.155 E32.83575
G1 X39.329 Y105.596 E32.92863
G1 X40.816 Y107.956 E33.02155
G1 X42.435 Y110.228 E33.11448
G1 X44.183 Y112.401 E33.20737
G1 X46.054 Y114.47 E33.30029
