;Generated by Cura LulzBot Edition GCodeWriter Version: 3.6.20
;FLAVOR:Marlin
;TIME:9402
;Filament used: 4.82816m
;Layer height: 0.25
;Generated with Cura_SteamEngine 3.6.20
M82 ;absolute extrusion mode
;This G-Code has been generated specifically for the LulzBot Mini 2 with SE 0.5mm Tool Head
M73 P0                  ; clear GLCD progress bar
M75 					; Start GLCD Print Timer
G26 					; clear potential 'probe fail' condition
M107 					; disable fans
M420 S0                 ; disable leveling matrix
G90 					; absolute positioning
M82 					; set extruder to absolute mode
G92 E0 					; set extruder position to 0
M140 S60.0 ; start bed heating up
G28 					; home all axes
G0 X0 Y187 Z156 F200 			; move away from endstops
M117 Mini 2 Wiping...			; progress indicator message on LCD
M109 R140 	; soften filament before retraction
G1 E-15 F75 				; retract filament
M109 R140 	; wait for extruder to reach wiping temp
G1 X45 Y176 F11520 			; move above wiper pad
G1 Z0 F1200 				; push nozzle into wiper
G1 X45 Y178 Z-.5 F4000		; wiping
G1 X55 Y176 Z-.5 F4000		; wiping
G1 X45 Y177 Z0 F4000		; wiping
G1 X55 Y176 F4000		; wiping
G1 X45 Y178 F4000		; wiping
G1 X55 Y176 F4000		; wiping
G1 X45 Y178 F4000		; wiping
G1 X55 Y176 F4000		; wiping
G1 X60 Y178 F4000		; wiping
G1 X80 Y176 F4000		; wiping
G1 X60 Y178 F4000		; wiping
G1 X80 Y176 F4000		; wiping
G1 X60 Y178 F4000		; wiping
G1 X90 Y176 F4000		; wiping
G1 X80 Y178 F4000		; wiping
G1 X100 Y176 F4000		; wiping
G1 X80 Y178 F4000		; wiping
G1 X100 Y176 F4000		; wiping
G1 X80 Y178 F4000		; wiping
G1 X100 Y176 F4000		; wiping
G1 X110 Y178 F4000		; wiping
G1 X100 Y176 F4000		; wiping
G1 X110 Y178 F4000		; wiping
G1 X100 Y176 F4000		; wiping
G1 X110 Y178 F4000		; wiping
G1 X115 Y176 Z-0.5 F1000	; wiping
G1 Z10					; raise extruder
G28 X0 Y0				; home X and Y
M109 R140	; wait for extruder to reach probe temp
M204 S300				; set probing acceleration
G29					; start auto-leveling sequence
M420 S1                     ; enable leveling matrix
M425 Z			     		; use measured Z backlash for compensation
M425 Z F0		     		; turn off measured Z backlash compensation. (if activated in the quality settings, this command will automatically be ignored)
M204 S2000				; restore standard acceleration
G1 X5 Y15 Z10 F5000			; move up off last probe point
G4 S1					; pause
M400					; wait for moves to finish
M117 Heating...				; progress indicator message on LCD
M109 R210 ; wait for extruder to reach initial printing temp
M190 R60.0 ; wait for bed to reach printing temp
G1 Z2 E0 F75				; prime tiny bit of filment into the nozzle
M117 Mini 2 Printing...		; progress indicator message on LCD

M221 S100 T0
G92 E0
G1 F600 E-1.75
;LAYER_COUNT:30
;LAYER:0
M107
G0 F2625 X10.406 Y52.386 Z0.425
;TYPE:SKIRT
G1 F600 E0
G1 F900 X11.052 Y52.342 E0.02157
G1 X137.48 Y52.342 E4.23293
G1 X138.095 Y52.382 E4.25346
G1 X138.699 Y52.501 E4.27397
G1 X139.283 Y52.698 E4.2945
G1 X139.837 Y52.968 E4.31503
G1 X140.351 Y53.308 E4.33555
G1 X140.839 Y53.733 E4.35711
G1 X140.985 Y53.879 E4.36399
G1 X141.391 Y54.342 E4.3845
G1 X141.734 Y54.854 E4.40503
G1 X142.008 Y55.406 E4.42556
G1 X142.209 Y55.988 E4.44607
G1 X142.332 Y56.592 E4.4666
G1 X142.376 Y57.238 E4.48817
G1 X142.376 Y149.625 E7.56561
G1 X142.336 Y150.24 E7.58614
G1 X142.217 Y150.844 E7.60665
G1 X142.02 Y151.428 E7.62718
G1 X141.75 Y151.982 E7.64771
G1 X141.41 Y152.496 E7.66823
G1 X140.985 Y152.984 E7.68979
G1 X140.839 Y153.13 E7.69667
G1 X140.376 Y153.536 E7.71718
G1 X139.864 Y153.879 E7.73771
G1 X139.312 Y154.153 E7.75824
G1 X138.73 Y154.354 E7.77875
G1 X138.126 Y154.477 E7.79928
G1 X137.48 Y154.521 E7.82085
G1 X11.052 Y154.521 E12.03221
G1 X10.437 Y154.481 E12.05274
G1 X9.833 Y154.362 E12.07324
G1 X9.249 Y154.165 E12.09378
G1 X8.695 Y153.895 E12.1143
G1 X8.181 Y153.555 E12.13483
G1 X7.693 Y153.13 E12.15639
G1 X7.547 Y152.984 E12.16327
G1 X7.141 Y152.521 E12.18378
G1 X6.798 Y152.009 E12.20431
G1 X6.524 Y151.457 E12.22483
G1 X6.323 Y150.875 E12.24534
G1 X6.2 Y150.271 E12.26588
G1 X6.156 Y149.625 E12.28745
G1 X6.156 Y57.238 E15.36489
G1 X6.196 Y56.623 E15.38542
G1 X6.315 Y56.019 E15.40593
G1 X6.512 Y55.435 E15.42646
G1 X6.782 Y54.881 E15.44698
G1 X7.122 Y54.367 E15.46751
G1 X7.547 Y53.879 E15.48907
G1 X7.693 Y53.733 E15.49595
G1 X8.156 Y53.327 E15.51646
G1 X8.668 Y52.984 E15.53699
G1 X9.22 Y52.71 E15.55752
G1 X9.802 Y52.509 E15.57803
G1 X10.406 Y52.386 E15.59856
G0 F2625 X10.631 Y52.863
G1 F900 X11.052 Y52.842 E15.6126
G1 X137.48 Y52.842 E19.82396
G1 X138.061 Y52.882 E19.84336
G1 X138.632 Y53.001 E19.86279
G1 X139.181 Y53.197 E19.88221
G1 X139.697 Y53.466 E19.90159
G1 X140.173 Y53.804 E19.92104
G1 X140.485 Y54.087 E19.93507
G1 X140.631 Y54.233 E19.94195
G1 X141.014 Y54.672 E19.96135
G1 X141.333 Y55.16 E19.98077
G1 X141.583 Y55.686 E20.00017
G1 X141.758 Y56.242 E20.01959
G1 X141.855 Y56.817 E20.03901
G1 X141.876 Y57.238 E20.05305
G1 X141.876 Y149.625 E23.1305
G1 X141.836 Y150.206 E23.1499
G1 X141.717 Y150.777 E23.16933
G1 X141.521 Y151.326 E23.18874
G1 X141.252 Y151.842 E23.20813
G1 X140.914 Y152.318 E23.22757
G1 X140.631 Y152.63 E23.24161
G1 X140.485 Y152.776 E23.24848
G1 X140.046 Y153.159 E23.26789
G1 X139.558 Y153.478 E23.28731
G1 X139.032 Y153.728 E23.30671
G1 X138.476 Y153.903 E23.32613
G1 X137.901 Y154 E23.34555
G1 X137.48 Y154.021 E23.35959
G1 X11.052 Y154.021 E27.57095
G1 X10.471 Y153.981 E27.59035
G1 X9.9 Y153.862 E27.60978
G1 X9.351 Y153.666 E27.6292
G1 X8.835 Y153.397 E27.64858
G1 X8.359 Y153.059 E27.66803
G1 X8.047 Y152.776 E27.68206
G1 X7.901 Y152.63 E27.68894
G1 X7.518 Y152.191 E27.70834
G1 X7.199 Y151.703 E27.72776
G1 X6.949 Y151.177 E27.74716
G1 X6.774 Y150.621 E27.76658
G1 X6.677 Y150.046 E27.786
G1 X6.656 Y149.625 E27.80005
G1 X6.656 Y57.238 E30.87749
G1 X6.696 Y56.657 E30.89689
G1 X6.815 Y56.086 E30.91632
G1 X7.011 Y55.537 E30.93574
G1 X7.28 Y55.021 E30.95512
G1 X7.618 Y54.545 E30.97457
G1 X7.901 Y54.233 E30.9886
G1 X8.047 Y54.087 E30.99548
G1 X8.486 Y53.704 E31.01488
G1 X8.974 Y53.385 E31.0343
G1 X9.5 Y53.135 E31.0537
G1 X10.056 Y52.96 E31.07312
G1 X10.631 Y52.863 E31.09254
G0 F2625 X10.303 Y53.418
G1 F900 X11.052 Y53.342 E31.11762
G1 X137.48 Y53.342 E35.32898
G1 X138.026 Y53.382 E35.34722
G1 X138.56 Y53.501 E35.36544
G1 X139.071 Y53.696 E35.38366
G1 X139.549 Y53.964 E35.40191
G1 X140.132 Y54.44 E35.42699
G1 X140.278 Y54.586 E35.43386
G1 X140.635 Y55.001 E35.4521
G1 X140.929 Y55.463 E35.47034
G1 X141.152 Y55.962 E35.48855
G1 X141.3 Y56.489 E35.50678
G1 X141.376 Y57.238 E35.53186
G1 X141.376 Y149.625 E38.6093
G1 X141.336 Y150.171 E38.62754
G1 X141.217 Y150.705 E38.64576
G1 X141.022 Y151.216 E38.66398
G1 X140.754 Y151.694 E38.68223
G1 X140.278 Y152.277 E38.7073
G1 X140.132 Y152.423 E38.71418
G1 X139.717 Y152.78 E38.73242
G1 X139.255 Y153.074 E38.75066
G1 X138.756 Y153.297 E38.76886
G1 X138.229 Y153.445 E38.7871
G1 X137.48 Y153.521 E38.81218
G1 X11.052 Y153.521 E43.02354
G1 X10.506 Y153.481 E43.04177
G1 X9.972 Y153.362 E43.06
G1 X9.461 Y153.167 E43.07822
G1 X8.983 Y152.899 E43.09647
G1 X8.4 Y152.423 E43.12154
G1 X8.254 Y152.277 E43.12842
G1 X7.897 Y151.862 E43.14666
G1 X7.603 Y151.4 E43.1649
G1 X7.38 Y150.901 E43.1831
G1 X7.232 Y150.374 E43.20134
G1 X7.156 Y149.625 E43.22641
G1 X7.156 Y57.238 E46.30386
G1 X7.196 Y56.692 E46.32209
G1 X7.315 Y56.158 E46.34032
G1 X7.51 Y55.647 E46.35854
G1 X7.778 Y55.169 E46.37679
G1 X8.254 Y54.586 E46.40186
G1 X8.4 Y54.44 E46.40874
G1 X8.815 Y54.083 E46.42697
G1 X9.277 Y53.789 E46.44522
G1 X9.776 Y53.566 E46.46342
G1 X10.303 Y53.418 E46.48166
G0 F2625 X10.542 Y53.882
G1 F900 X11.052 Y53.842 E46.4987
G1 X137.48 Y53.842 E50.71006
G1 X137.988 Y53.882 E50.72703
G1 X138.483 Y54.001 E50.74399
G1 X138.954 Y54.196 E50.76097
G1 X139.389 Y54.462 E50.77796
G1 X139.778 Y54.794 E50.79499
G1 X139.924 Y54.94 E50.80187
G1 X140.255 Y55.327 E50.81883
G1 X140.521 Y55.762 E50.83582
G1 X140.716 Y56.232 E50.85277
G1 X140.836 Y56.728 E50.86977
G1 X140.876 Y57.238 E50.88681
G1 X140.876 Y149.625 E53.96425
G1 X140.836 Y150.133 E53.98122
G1 X140.717 Y150.628 E53.99818
G1 X140.522 Y151.099 E54.01516
G1 X140.256 Y151.534 E54.03215
G1 X139.924 Y151.923 E54.04918
G1 X139.778 Y152.069 E54.05606
G1 X139.391 Y152.4 E54.07302
G1 X138.956 Y152.666 E54.09001
G1 X138.486 Y152.861 E54.10696
G1 X137.99 Y152.981 E54.12396
G1 X137.48 Y153.021 E54.141
G1 X11.052 Y153.021 E58.35236
G1 X10.544 Y152.981 E58.36933
G1 X10.049 Y152.862 E58.38629
G1 X9.578 Y152.667 E58.40327
G1 X9.143 Y152.401 E58.42026
G1 X8.754 Y152.069 E58.43729
G1 X8.608 Y151.923 E58.44417
G1 X8.277 Y151.536 E58.46113
G1 X8.011 Y151.101 E58.47812
G1 X7.816 Y150.631 E58.49507
G1 X7.696 Y150.135 E58.51207
G1 X7.656 Y149.625 E58.52911
G1 X7.656 Y57.238 E61.60655
G1 X7.696 Y56.73 E61.62352
G1 X7.815 Y56.235 E61.64048
G1 X8.01 Y55.764 E61.65746
G1 X8.276 Y55.329 E61.67445
G1 X8.608 Y54.94 E61.69148
G1 X8.754 Y54.794 E61.69836
G1 X9.141 Y54.463 E61.71532
G1 X9.576 Y54.197 E61.73231
G1 X10.046 Y54.002 E61.74926
G1 X10.542 Y53.882 E61.76626
G0 F2625 X10.769 Y54.357
G1 F900 X11.052 Y54.342 E61.7757
G1 X137.48 Y54.342 E65.98706
G1 X137.947 Y54.382 E66.00267
G1 X138.4 Y54.501 E66.01827
G1 X138.827 Y54.694 E66.03388
G1 X139.214 Y54.958 E66.04949
G1 X139.425 Y55.147 E66.05892
G1 X139.571 Y55.293 E66.0658
G1 X139.872 Y55.652 E66.08141
G1 X140.109 Y56.056 E66.09701
G1 X140.274 Y56.495 E66.11263
G1 X140.361 Y56.955 E66.12823
G1 X140.376 Y57.238 E66.13767
G1 X140.376 Y149.625 E69.21511
G1 X140.336 Y150.092 E69.23072
G1 X140.217 Y150.545 E69.24632
G1 X140.024 Y150.972 E69.26193
G1 X139.76 Y151.359 E69.27754
G1 X139.571 Y151.57 E69.28697
G1 X139.425 Y151.716 E69.29385
G1 X139.066 Y152.017 E69.30946
G1 X138.662 Y152.254 E69.32506
G1 X138.223 Y152.419 E69.34068
G1 X137.763 Y152.506 E69.35628
G1 X137.48 Y152.521 E69.36572
G1 X11.052 Y152.521 E73.57708
G1 X10.585 Y152.481 E73.59269
G1 X10.132 Y152.362 E73.60829
G1 X9.705 Y152.169 E73.6239
G1 X9.318 Y151.905 E73.63951
G1 X9.107 Y151.716 E73.64894
G1 X8.961 Y151.57 E73.65582
G1 X8.66 Y151.211 E73.67143
G1 X8.423 Y150.807 E73.68703
G1 X8.258 Y150.368 E73.70265
G1 X8.171 Y149.908 E73.71824
G1 X8.156 Y149.625 E73.72768
G1 X8.156 Y57.238 E76.80513
G1 X8.196 Y56.771 E76.82074
G1 X8.315 Y56.318 E76.83634
G1 X8.508 Y55.891 E76.85195
G1 X8.772 Y55.504 E76.86756
G1 X8.961 Y55.293 E76.87699
G1 X9.107 Y55.147 E76.88387
G1 X9.466 Y54.846 E76.89948
G1 X9.87 Y54.609 E76.91508
G1 X10.309 Y54.444 E76.9307
G1 X10.769 Y54.357 E76.94629
G0 F2625 X10.562 Y54.896
G1 F900 X11.052 Y54.842 E76.96272
G1 X137.48 Y54.842 E81.17408
G1 X137.902 Y54.882 E81.1882
G1 X138.309 Y55 E81.20231
G1 X138.686 Y55.193 E81.21642
G1 X139.071 Y55.501 E81.23284
G1 X139.217 Y55.647 E81.23972
G1 X139.487 Y55.974 E81.25385
G1 X139.691 Y56.345 E81.26795
G1 X139.822 Y56.748 E81.28207
G1 X139.876 Y57.238 E81.29849
G1 X139.876 Y149.625 E84.37593
G1 X139.836 Y150.047 E84.39005
G1 X139.718 Y150.454 E84.40417
G1 X139.525 Y150.831 E84.41828
G1 X139.217 Y151.216 E84.4347
G1 X139.071 Y151.362 E84.44158
G1 X138.744 Y151.632 E84.4557
G1 X138.373 Y151.836 E84.46981
G1 X137.97 Y151.967 E84.48392
G1 X137.48 Y152.021 E84.50034
G1 X11.052 Y152.021 E88.7117
G1 X10.63 Y151.981 E88.72582
G1 X10.223 Y151.863 E88.73994
G1 X9.846 Y151.67 E88.75405
G1 X9.461 Y151.362 E88.77047
G1 X9.315 Y151.216 E88.77735
G1 X9.045 Y150.889 E88.79147
G1 X8.841 Y150.518 E88.80558
G1 X8.71 Y150.115 E88.81969
G1 X8.656 Y149.625 E88.83611
G1 X8.656 Y57.238 E91.91356
G1 X8.696 Y56.816 E91.92768
G1 X8.814 Y56.409 E91.94179
G1 X9.007 Y56.032 E91.9559
G1 X9.315 Y55.647 E91.97233
G1 X9.461 Y55.501 E91.9792
G1 X9.788 Y55.231 E91.99333
G1 X10.159 Y55.027 E92.00743
G1 X10.562 Y54.896 E92.02155
G0 F2625 X10.801 Y55.36
G1 F900 X11.052 Y55.342 E92.02993
G1 X137.48 Y55.342 E96.24129
G1 X137.851 Y55.382 E96.25372
G1 X138.206 Y55.5 E96.26618
G1 X138.528 Y55.69 E96.27864
G1 X138.717 Y55.855 E96.28699
G1 X138.863 Y56.001 E96.29387
G1 X139.098 Y56.291 E96.30631
G1 X139.265 Y56.625 E96.31874
G1 X139.358 Y56.987 E96.33119
G1 X139.376 Y57.238 E96.33958
G1 X139.376 Y149.625 E99.41702
G1 X139.336 Y149.996 E99.42945
G1 X139.218 Y150.351 E99.44191
G1 X139.028 Y150.673 E99.45437
G1 X138.863 Y150.862 E99.46272
G1 X138.717 Y151.008 E99.4696
G1 X138.427 Y151.243 E99.48203
G1 X138.093 Y151.41 E99.49447
G1 X137.731 Y151.503 E99.50692
G1 X137.48 Y151.521 E99.51531
G1 X11.052 Y151.521 E103.72667
G1 X10.681 Y151.481 E103.7391
G1 X10.326 Y151.363 E103.75156
G1 X10.004 Y151.173 E103.76401
G1 X9.815 Y151.008 E103.77237
G1 X9.669 Y150.862 E103.77925
G1 X9.434 Y150.572 E103.79168
G1 X9.267 Y150.238 E103.80412
G1 X9.174 Y149.876 E103.81657
G1 X9.156 Y149.625 E103.82495
G1 X9.156 Y57.238 E106.9024
G1 X9.196 Y56.867 E106.91483
G1 X9.314 Y56.512 E106.92729
G1 X9.504 Y56.19 E106.93974
G1 X9.669 Y56.001 E106.9481
G1 X9.815 Y55.855 E106.95498
G1 X10.105 Y55.62 E106.96741
G1 X10.439 Y55.453 E106.97985
G1 X10.801 Y55.36 E106.9923
G0 F2625 X11.052 Y55.842
G1 F900 X137.48 Y55.842 E111.20366
G1 X137.793 Y55.882 E111.21417
G1 X138.086 Y55.999 E111.22468
G1 X138.364 Y56.208 E111.23627
G1 X138.51 Y56.354 E111.24314
G1 X138.703 Y56.604 E111.25367
G1 X138.828 Y56.894 E111.26418
G1 X138.876 Y57.238 E111.27575
G1 X138.876 Y149.625 E114.3532
G1 X138.836 Y149.938 E114.36371
G1 X138.719 Y150.231 E114.37422
G1 X138.51 Y150.509 E114.3858
G1 X138.364 Y150.655 E114.39268
G1 X138.114 Y150.848 E114.4032
G1 X137.824 Y150.973 E114.41372
G1 X137.48 Y151.021 E114.42529
G1 X11.052 Y151.021 E118.63665
G1 X10.739 Y150.981 E118.64716
G1 X10.446 Y150.864 E118.65767
G1 X10.168 Y150.655 E118.66926
G1 X10.022 Y150.509 E118.67614
G1 X9.829 Y150.259 E118.68666
G1 X9.704 Y149.969 E118.69718
G1 X9.656 Y149.625 E118.70875
G1 X9.656 Y57.238 E121.78619
G1 X9.696 Y56.925 E121.7967
G1 X9.813 Y56.632 E121.80721
G1 X10.022 Y56.354 E121.8188
G1 X10.168 Y56.208 E121.82567
G1 X10.418 Y56.015 E121.83619
G1 X10.708 Y55.89 E121.84671
G1 X11.052 Y55.842 E121.85828
G0 F2625 X11.052 Y56.342
G1 F900 X137.48 Y56.342 E126.06965
G1 X137.721 Y56.382 E126.07778
G1 X138.01 Y56.562 E126.08912
G1 X138.156 Y56.708 E126.096
G1 X138.299 Y56.906 E126.10414
G1 X138.376 Y57.238 E126.11549
G1 X138.376 Y149.625 E129.19293
G1 X138.336 Y149.866 E129.20107
G1 X138.156 Y150.155 E129.21241
G1 X138.01 Y150.301 E129.21929
G1 X137.812 Y150.444 E129.22743
G1 X137.48 Y150.521 E129.23878
G1 X11.052 Y150.521 E133.45014
G1 X10.811 Y150.481 E133.45828
G1 X10.522 Y150.301 E133.46962
G1 X10.376 Y150.155 E133.4765
G1 X10.233 Y149.957 E133.48463
G1 X10.156 Y149.625 E133.49599
G1 X10.156 Y57.238 E136.57343
G1 X10.196 Y56.997 E136.58157
G1 X10.376 Y56.708 E136.59291
G1 X10.522 Y56.562 E136.59979
G1 X10.72 Y56.419 E136.60792
G1 X11.052 Y56.342 E136.61928
G0 F2625 X11.052 Y56.842
G1 F900 X137.48 Y56.842 E140.83064
G1 X137.657 Y56.915 E140.83702
G1 X137.803 Y57.061 E140.84389
G1 X137.876 Y57.238 E140.85027
G1 X137.876 Y149.625 E143.92772
G1 X137.803 Y149.802 E143.93409
G1 X137.657 Y149.948 E143.94097
G1 X137.48 Y150.021 E143.94735
G1 X11.052 Y150.021 E148.15871
G1 X10.875 Y149.948 E148.16509
G1 X10.729 Y149.802 E148.17197
G1 X10.656 Y149.625 E148.17834
G1 X10.656 Y57.238 E151.25579
G1 X10.729 Y57.061 E151.26217
G1 X10.875 Y56.915 E151.26904
G1 X11.052 Y56.842 E151.27542
G1 F600 E149.52542
G0 F2625 X11.052 Y56.427
G0 X11.226 Y56.466
G0 X11.27 Y56.475
G0 X54.774 Y66.326
G0 X54.818 Y66.335
G0 X55.965 Y66.597
;TYPE:SUPPORT
G1 F600 E151.27542
G1 F900 X56.72 Y65.3 E151.32541
G1 X58.222 Y65.305 E151.37544
G1 X58.967 Y66.608 E151.42544
G1 X58.212 Y67.905 E151.47543
G1 X56.711 Y67.899 E151.52543
G1 X55.965 Y66.597 E151.57542
G0 F2625 X56.241 Y66.68
G1 F900 X58.692 Y66.68 E151.65706
G0 F2625 X58.345 Y67.28
G1 F900 X58.345 Y65.924 E151.70223
G1 F600 E149.95223
G0 F2625 X56.678 Y65.769
G1 F600 E151.70223
G1 F900 X56.678 Y67.439 E151.75786
G1 F600 E150.00786
G0 F2625 X59.804 Y67.395
G0 X59.848 Y67.395
G0 X117.147 Y66.616
G0 X117.191 Y66.616
G0 X118.475 Y66.599
G1 F600 E151.75786
G1 F900 X119.226 Y65.301 E151.80781
G1 X120.728 Y65.304 E151.85784
G1 X121.477 Y66.606 E151.90788
G1 X120.726 Y67.904 E151.95783
G1 X119.224 Y67.901 E152.00786
G1 X118.475 Y66.599 E152.05789
G0 F2625 X118.753 Y66.68
