;Generated by Cura LulzBot Edition GCodeWriter Version: 3.6.20
;FLAVOR:Marlin
;TIME:1396
;Filament used: 0.417806m
;Layer height: 0.25
;Generated with Cura_SteamEngine 3.6.20
M82 ;absolute extrusion mode
;This G-Code has been generated specifically for the LulzBot Mini 2 with SE 0.5mm Tool Head
M73 P0                  ; clear GLCD progress bar
M75 					; Start GLCD Print Timer
G26 					; clear potential 'probe fail' condition
M107 					; disable fans
M420 S0                 ; disable leveling matrix
G90 					; absolute positioning
M82 					; set extruder to absolute mode
G92 E0 					; set extruder position to 0
M140 S60.0 ; start bed heating up
G28 					; home all axes
G0 X0 Y187 Z156 F200 			; move away from endstops
M117 Mini 2 Wiping...			; progress indicator message on LCD
M109 R140 	; soften filament before retraction
G1 E-15 F75 				; retract filament
M109 R140 	; wait for extruder to reach wiping temp
G1 X45 Y176 F11520 			; move above wiper pad
G1 Z0 F1200 				; push nozzle into wiper
G1 X45 Y178 Z-.5 F4000		; wiping
G1 X55 Y176 Z-.5 F4000		; wiping
G1 X45 Y177 Z0 F4000		; wiping
G1 X55 Y176 F4000		; wiping
G1 X45 Y178 F4000		; wiping
G1 X55 Y176 F4000		; wiping
G1 X45 Y178 F4000		; wiping
G1 X55 Y176 F4000		; wiping
G1 X60 Y178 F4000		; wiping
G1 X80 Y176 F4000		; wiping
G1 X60 Y178 F4000		; wiping
G1 X80 Y176 F4000		; wiping
G1 X60 Y178 F4000		; wiping
G1 X90 Y176 F4000		; wiping
G1 X80 Y178 F4000		; wiping
G1 X100 Y176 F4000		; wiping
G1 X80 Y178 F4000		; wiping
G1 X100 Y176 F4000		; wiping
G1 X80 Y178 F4000		; wiping
G1 X100 Y176 F4000		; wiping
G1 X110 Y178 F4000		; wiping
G1 X100 Y176 F4000		; wiping
G1 X110 Y178 F4000		; wiping
G1 X100 Y176 F4000		; wiping
G1 X110 Y178 F4000		; wiping
G1 X115 Y176 Z-0.5 F1000	; wiping
G1 Z10					; raise extruder
G28 X0 Y0				; home X and Y
M109 R140	; wait for extruder to reach probe temp
M204 S300				; set probing acceleration
G29					; start auto-leveling sequence
M420 S1                     ; enable leveling matrix
M425 Z			     		; use measured Z backlash for compensation
M425 Z F0		     		; turn off measured Z backlash compensation. (if activated in the quality settings, this command will automatically be ignored)
M204 S2000				; restore standard acceleration
G1 X5 Y15 Z10 F5000			; move up off last probe point
G4 S1					; pause
M400					; wait for moves to finish
M117 Heating...				; progress indicator message on LCD
M109 R210 ; wait for extruder to reach initial printing temp
M190 R60.0 ; wait for bed to reach printing temp
G1 Z2 E0 F75				; prime tiny bit of filment into the nozzle
M117 Mini 2 Printing...		; progress indicator message on LCD

M221 S100 T0
G92 E0
G1 F600 E-1.75
;LAYER_COUNT:58
;LAYER:0
M107
G0 F2625 X34.761 Y67.798 Z0.425
;TYPE:SKIRT
G1 F600 E0
G1 F900 X35.258 Y67.569 E0.01823
G1 X35.783 Y67.414 E0.03646
G1 X36.563 Y67.329 E0.0626
G1 X41.873 Y67.309 E0.23948
G1 X42.304 Y67.332 E0.25385
G1 X44.729 Y67.603 E0.33514
G1 X50.193 Y67.991 E0.5176
G1 X55.637 Y68.068 E0.69896
G1 X61.089 Y67.836 E0.88073
G1 X66.477 Y67.321 E1.06103
G1 X66.839 Y67.304 E1.0731
G1 X71.892 Y67.311 E1.24142
G1 X72.438 Y67.352 E1.25966
G1 X72.972 Y67.471 E1.27788
G1 X73.483 Y67.668 E1.29612
G1 X73.869 Y67.878 E1.31076
G1 X74.179 Y68.071 E1.32292
G1 X74.621 Y68.393 E1.34114
G1 X75.012 Y68.776 E1.35937
G1 X75.343 Y69.213 E1.37763
G1 X75.606 Y69.692 E1.39583
G1 X75.797 Y70.205 E1.41407
G1 X75.912 Y70.74 E1.4323
G1 X75.947 Y71.251 E1.44936
G1 X75.962 Y87.703 E1.99738
G1 X75.923 Y88.249 E2.01561
G1 X75.804 Y88.783 E2.03384
G1 X75.609 Y89.294 E2.05206
G1 X75.342 Y89.772 E2.0703
G1 X75.008 Y90.205 E2.08851
G1 X74.613 Y90.587 E2.10682
G1 X74.331 Y90.822 E2.11904
G1 X73.886 Y91.141 E2.13728
G1 X73.399 Y91.391 E2.15552
G1 X72.691 Y91.613 E2.18023
G1 X66.996 Y92.793 E2.37396
G1 X64.39 Y93.453 E2.46351
G1 X59.842 Y94.787 E2.62139
G1 X59.307 Y94.903 E2.63962
G1 X58.786 Y94.939 E2.65702
G1 X49.829 Y94.94 E2.95538
G1 X49.284 Y94.9 E2.97358
G1 X48.814 Y94.8 E2.98959
G1 X42.214 Y92.945 E3.21796
G1 X35.766 Y91.574 E3.43754
G1 X35.24 Y91.421 E3.45579
G1 X34.743 Y91.194 E3.47399
G1 X34.283 Y90.896 E3.49225
G1 X33.872 Y90.535 E3.51047
G1 X33.442 Y90.011 E3.53305
G1 X33.244 Y89.719 E3.5448
G1 X32.971 Y89.244 E3.56305
G1 X32.77 Y88.735 E3.58128
G1 X32.644 Y88.203 E3.59949
G1 X32.598 Y87.607 E3.6194
G1 X32.627 Y71.277 E4.16336
G1 X32.668 Y70.732 E4.18157
G1 X32.788 Y70.197 E4.19983
G1 X32.984 Y69.687 E4.21803
G1 X33.253 Y69.21 E4.23627
G1 X33.693 Y68.665 E4.25961
G1 X33.893 Y68.46 E4.26915
G1 X34.303 Y68.097 E4.28739
G1 X34.761 Y67.798 E4.30561
G0 F2625 X35.065 Y68.202
G1 F900 X35.533 Y68.001 E4.32257
G1 X36.027 Y67.876 E4.33955
G1 X36.565 Y67.829 E4.35754
G1 X41.875 Y67.809 E4.53441
G1 X42.248 Y67.829 E4.54686
G1 X44.686 Y68.102 E4.62858
G1 X50.169 Y68.49 E4.81167
G1 X55.651 Y68.568 E4.9943
G1 X61.121 Y68.335 E5.17667
G1 X66.525 Y67.819 E5.3575
G1 X66.839 Y67.804 E5.36797
G1 X71.892 Y67.811 E5.53629
G1 X72.399 Y67.852 E5.55323
G1 X72.895 Y67.971 E5.57022
G1 X73.365 Y68.167 E5.58718
G1 X73.605 Y68.302 E5.59636
G1 X73.915 Y68.495 E5.60852
G1 X74.325 Y68.797 E5.62548
G1 X74.683 Y69.16 E5.64247
G1 X74.979 Y69.574 E5.65942
G1 X75.208 Y70.03 E5.67642
G1 X75.362 Y70.515 E5.69337
G1 X75.447 Y71.251 E5.71805
G1 X75.462 Y87.703 E6.26607
G1 X75.423 Y88.211 E6.28304
G1 X75.304 Y88.707 E6.30003
G1 X75.11 Y89.178 E6.317
G1 X74.844 Y89.612 E6.33395
G1 X74.514 Y90 E6.35092
G1 X74.293 Y90.203 E6.36092
G1 X74.011 Y90.438 E6.37315
G1 X73.595 Y90.732 E6.39011
G1 X73.138 Y90.958 E6.4071
G1 X72.59 Y91.123 E6.42616
G1 X66.904 Y92.301 E6.61958
G1 X64.26 Y92.971 E6.71044
G1 X59.701 Y94.308 E6.8687
G1 X59.202 Y94.412 E6.88568
G1 X58.786 Y94.439 E6.89956
G1 X49.829 Y94.44 E7.19792
G1 X49.321 Y94.4 E7.2149
G1 X48.95 Y94.319 E7.22755
G1 X42.333 Y92.459 E7.4565
G1 X35.87 Y91.085 E7.6766
G1 X35.382 Y90.94 E7.69356
G1 X34.922 Y90.721 E7.71053
G1 X34.502 Y90.433 E7.72749
G1 X34.132 Y90.082 E7.74448
G1 X33.856 Y89.73 E7.75938
G1 X33.658 Y89.438 E7.77113
G1 X33.406 Y88.995 E7.78811
G1 X33.226 Y88.518 E7.80509
G1 X33.123 Y88.019 E7.82207
G1 X33.098 Y87.608 E7.83578
G1 X33.127 Y71.278 E8.37974
G1 X33.168 Y70.77 E8.39672
G1 X33.288 Y70.275 E8.41368
G1 X33.483 Y69.805 E8.43063
G1 X33.75 Y69.371 E8.44761
G1 X34.051 Y69.014 E8.46316
G1 X34.251 Y68.809 E8.4727
G1 X34.634 Y68.474 E8.48965
G1 X35.065 Y68.202 E8.50663
G1 F600 E6.75663
G0 F2625 X35.674 Y87.666
G0 X35.729 Y87.961
G0 X35.957 Y88.316
G0 X36.2 Y88.496
G0 X36.377 Y88.556
G0 X49.81 Y89.693
;TYPE:SUPPORT
G1 F600 E8.50663
G1 F900 X58.772 Y89.695 E8.80515
G1 X58.773 Y90.858 E8.84389
G1 X58.682 Y90.95 E8.8482
G1 X49.93 Y90.95 E9.13974
G1 X49.809 Y90.828 E9.14546
G1 X49.81 Y89.693 E9.18327
G0 F2625 X50.01 Y89.893
G1 F900 X50.01 Y90.75 E9.21182
G0 F2625 X50.009 Y90.018
G1 F900 X58.572 Y90.018 E9.49705
G0 F2625 X58.345 Y89.895
G1 F900 X58.345 Y90.75 E9.52553
G1 F600 E7.77553
G0 F2625 X56.678 Y90.75
G1 F600 E9.52553
G1 F900 X56.678 Y89.895 E9.55401
G1 F600 E7.80401
G0 F2625 X55.011 Y89.895
G1 F600 E9.55401
G1 F900 X55.011 Y90.75 E9.58249
G1 F600 E7.83249
G0 F2625 X53.344 Y90.75
G1 F600 E9.58249
G1 F900 X53.344 Y89.894 E9.61101
G1 F600 E7.86101
G0 F2625 X51.677 Y89.894
G1 F600 E9.61101
G1 F900 X51.677 Y90.75 E9.63952
G1 F600 E7.88952
;MESH:
G0 F2625 X51.678 Y88.609
G0 X51.678 Y87.178
G0 X42.215 Y83.745
G0 X41.77 Y83.519
G0 X41.84 Y83.449
;TYPE:WALL-INNER
G1 F600 E9.63952
G1 F900 X42.026 Y83.599 E9.64748
G1 X42.23 Y83.709 E9.6552
G1 X42.454 Y83.777 E9.663
G1 X42.652 Y83.798 E9.66963
G1 X65.933 Y83.799 E10.44513
G1 X66.133 Y83.776 E10.45183
G1 X66.35 Y83.709 E10.4594
G1 X66.555 Y83.6 E10.46713
G1 X66.74 Y83.45 E10.47507
G1 X66.89 Y83.266 E10.48297
G1 X67 Y83.06 E10.49075
G1 X67.07 Y82.833 E10.49867
G1 X67.088 Y82.634 E10.50532
G1 X67.091 Y71.801 E10.86617
G1 X71.239 Y71.799 E11.00434
G1 X71.489 Y71.799 E11.01267
G1 X71.489 Y72.049 E11.01806
G1 X71.492 Y86.949 E11.51438
G1 X71.492 Y87.199 E11.52271
G1 X71.242 Y87.199 E11.5281
G1 X37.338 Y87.196 E12.65745
G1 X37.088 Y87.196 E12.66578
G1 X37.088 Y86.946 E12.67117
G1 X37.09 Y71.801 E13.17566
G1 X41.239 Y71.799 E13.31386
G1 X41.489 Y71.799 E13.32219
G1 X41.489 Y72.049 E13.32758
G1 X41.492 Y82.642 E13.68043
G1 X41.514 Y82.84 E13.68707
G1 X41.582 Y83.06 E13.69474
G1 X41.691 Y83.264 E13.70244
G1 X41.84 Y83.449 E13.71036
G0 F2625 X42.196 Y83.094
;TYPE:WALL-OUTER
G1 F900 X42.304 Y83.181 E13.71498
G1 X42.423 Y83.245 E13.71948
G1 X42.554 Y83.285 E13.72404
G1 X42.678 Y83.298 E13.72819
G1 X65.905 Y83.299 E14.50189
G1 X66.029 Y83.285 E14.50605
G1 X66.157 Y83.245 E14.51052
G1 X66.278 Y83.181 E14.51508
G1 X66.385 Y83.094 E14.51967
G1 X66.472 Y82.988 E14.52424
G1 X66.536 Y82.867 E14.5288
G1 X66.577 Y82.735 E14.5334
G1 X66.588 Y82.612 E14.53751
G1 X66.591 Y71.389 E14.91136
G1 X66.617 Y71.334 E14.91338
G1 X66.653 Y71.307 E14.91488
G1 X66.677 Y71.301 E14.91571
G1 X71.695 Y71.299 E15.08286
G1 X71.871 Y71.299 E15.08872
G1 X71.932 Y71.31 E15.09078
G1 X71.964 Y71.333 E15.0921
G1 X71.989 Y71.389 E15.09414
G1 X71.989 Y71.565 E15.1
G1 X71.992 Y87.409 E15.62777
G1 X71.992 Y87.588 E15.63373
G1 X71.978 Y87.647 E15.63575
G1 X71.965 Y87.666 E15.63652
G1 X71.928 Y87.693 E15.63805
G1 X71.905 Y87.699 E15.63884
G1 X71.726 Y87.699 E15.6448
G1 X36.864 Y87.696 E16.80607
G1 X36.685 Y87.696 E16.81203
G1 X36.629 Y87.677 E16.814
G1 X36.597 Y87.633 E16.81581
G1 X36.588 Y87.592 E16.81721
G1 X36.588 Y87.413 E16.82317
G1 X36.59 Y71.414 E17.35611
G1 X36.617 Y71.334 E17.35892
G1 X36.653 Y71.307 E17.36042
G1 X36.677 Y71.301 E17.36124
G1 X41.695 Y71.299 E17.52839
G1 X41.871 Y71.299 E17.53425
G1 X41.932 Y71.31 E17.53632
G1 X41.964 Y71.333 E17.53763
G1 X41.989 Y71.389 E17.53968
G1 X41.989 Y71.565 E17.54554
G1 X41.992 Y82.614 E17.91358
G1 X42.006 Y82.737 E17.91771
G1 X42.046 Y82.867 E17.92224
G1 X42.11 Y82.987 E17.92677
G1 X42.196 Y83.094 E17.93134
G0 F2625 X42.304 Y83.181
G0 X42.402 Y83.234
G0 X42.04 Y84.164
;TYPE:SKIN
G1 F900 X42.356 Y84.259 E17.94233
G1 X42.626 Y84.288 E17.95138
G1 X65.961 Y84.289 E18.72868
G1 X66.235 Y84.258 E18.73786
G1 X66.539 Y84.164 E18.74846
G1 X66.827 Y84.01 E18.75934
G1 X67.087 Y83.799 E18.77049
G1 X67.3 Y83.539 E18.78169
G1 X67.454 Y83.25 E18.7926
G1 X67.554 Y82.929 E18.8038
G1 X67.578 Y82.656 E18.81293
G1 X67.581 Y72.291 E19.15819
G1 X70.999 Y72.289 E19.27204
G1 X71.002 Y86.709 E19.75238
G1 X37.578 Y86.706 E20.86574
G1 X37.58 Y72.291 E21.34591
G1 X40.999 Y72.289 E21.4598
G1 X41.002 Y82.669 E21.80556
G1 X41.032 Y82.94 E21.81464
G1 X41.128 Y83.25 E21.82545
G1 X41.281 Y83.536 E21.83626
G1 X41.491 Y83.798 E21.84744
G1 X41.754 Y84.009 E21.85867
G1 X42.04 Y84.164 E21.86951
G0 F2625 X38.397 Y86.48
G1 F900 X37.803 Y85.886 E21.89749
G0 F2625 X37.803 Y85.179
G1 F900 X39.104 Y86.48 E21.95878
G0 F2625 X39.811 Y86.48
G1 F900 X37.803 Y84.472 E22.05337
G0 F2625 X37.803 Y83.765
G1 F900 X40.518 Y86.48 E22.18127
G0 F2625 X41.225 Y86.48
G1 F900 X37.803 Y83.058 E22.34247
G0 F2625 X37.803 Y82.351
G1 F900 X41.932 Y86.48 E22.53698
G0 F2625 X42.639 Y86.48
G1 F900 X37.803 Y81.643 E22.76482
G0 F2625 X37.803 Y80.936
G1 F900 X43.347 Y86.48 E23.02599
G0 F2625 X44.054 Y86.48
G1 F900 X41.937 Y84.364 E23.12569
G0 F2625 X42.793 Y84.512
G1 F900 X44.761 Y86.48 E23.2184
G0 F2625 X45.468 Y86.48
G1 F900 X43.5 Y84.512 E23.31111
G0 F2625 X44.207 Y84.512
G1 F900 X46.176 Y86.481 E23.40386
G0 F2625 X46.883 Y86.481
G1 F900 X44.914 Y84.512 E23.49662
G0 F2625 X45.621 Y84.512
G1 F900 X47.59 Y86.481 E23.58937
G0 F2625 X48.297 Y86.481
G1 F900 X46.328 Y84.512 E23.68213
G0 F2625 X47.036 Y84.512
G1 F900 X49.004 Y86.481 E23.77486
G0 F2625 X49.711 Y86.481
G1 F900 X47.743 Y84.512 E23.86759
G0 F2625 X48.45 Y84.512
G1 F900 X50.418 Y86.481 E23.96033
G0 F2625 X51.125 Y86.481
G1 F900 X49.157 Y84.512 E24.05306
G0 F2625 X49.864 Y84.512
G1 F900 X51.833 Y86.481 E24.14581
G0 F2625 X52.54 Y86.481
G1 F900 X50.571 Y84.512 E24.23857
G0 F2625 X51.278 Y84.512
G1 F900 X53.247 Y86.481 E24.33133
G0 F2625 X53.954 Y86.481
G1 F900 X51.985 Y84.512 E24.42408
G0 F2625 X52.692 Y84.512
G1 F900 X54.662 Y86.481 E24.51686
G0 F2625 X55.369 Y86.481
G1 F900 X53.399 Y84.512 E24.60964
G0 F2625 X54.107 Y84.512
G1 F900 X56.076 Y86.481 E24.70239
G0 F2625 X56.783 Y86.481
G1 F900 X54.814 Y84.513 E24.79513
G0 F2625 X55.522 Y84.513
G1 F900 X57.49 Y86.481 E24.88784
G0 F2625 X58.197 Y86.481
G1 F900 X56.229 Y84.513 E24.98054
G0 F2625 X56.936 Y84.513
G1 F900 X58.904 Y86.481 E25.07325
G0 F2625 X59.611 Y86.481
G1 F900 X57.643 Y84.513 E25.16596
G0 F2625 X58.35 Y84.513
G1 F900 X60.319 Y86.481 E25.25869
G0 F2625 X61.026 Y86.481
G1 F900 X59.057 Y84.513 E25.35142
G0 F2625 X59.764 Y84.513
G1 F900 X61.733 Y86.481 E25.44416
G0 F2625 X62.44 Y86.481
G1 F900 X60.471 Y84.513 E25.53689
G0 F2625 X61.178 Y84.513
G1 F900 X63.148 Y86.482 E25.62967
G0 F2625 X63.855 Y86.482
G1 F900 X61.885 Y84.513 E25.72245
G0 F2625 X62.593 Y84.513
G1 F900 X64.562 Y86.482 E25.8152
G0 F2625 X65.269 Y86.482
G1 F900 X63.3 Y84.513 E25.90796
G0 F2625 X64.007 Y84.513
G1 F900 X65.976 Y86.482 E26.00071
G0 F2625 X66.683 Y86.482
G1 F900 X64.714 Y84.513 E26.09347
G0 F2625 X65.421 Y84.513
G1 F900 X67.39 Y86.482 E26.18622
G0 F2625 X68.097 Y86.482
G1 F900 X66.113 Y84.497 E26.27971
G0 F2625 X66.67 Y84.348
G1 F900 X68.805 Y86.482 E26.38026
G0 F2625 X69.512 Y86.482
G1 F900 X67.103 Y84.074 E26.49372
G0 F2625 X67.448 Y83.712
G1 F900 X70.219 Y86.482 E26.62423
G0 F2625 X70.777 Y86.333
G1 F900 X67.69 Y83.246 E26.76966
G0 F2625 X67.802 Y82.651
G1 F900 X70.777 Y85.626 E26.9098
G0 F2625 X70.777 Y84.919
G1 F900 X67.802 Y81.944 E27.04995
G0 F2625 X67.802 Y81.237
G1 F900 X70.777 Y84.212 E27.1901
G0 F2625 X70.776 Y83.504
G1 F900 X67.803 Y80.53 E27.33017
G0 F2625 X67.803 Y79.823
G1 F900 X70.776 Y82.797 E27.47025
G0 F2625 X70.776 Y82.09
G1 F900 X67.803 Y79.116 E27.61032
G0 F2625 X67.803 Y78.41
G1 F900 X70.776 Y81.383 E27.75037
G0 F2625 X70.775 Y80.675
G1 F900 X67.803 Y77.703 E27.89038
G0 F2625 X67.803 Y76.996
G1 F900 X70.775 Y79.968 E28.03038
G0 F2625 X70.775 Y79.261
G1 F900 X67.804 Y76.289 E28.17037
G0 F2625 X67.804 Y75.582
G1 F900 X70.775 Y78.553 E28.31032
G0 F2625 X70.775 Y77.846
G1 F900 X67.804 Y74.875 E28.45028
G0 F2625 X67.805 Y74.169
G1 F900 X70.775 Y77.138 E28.59017
G0 F2625 X70.775 Y76.431
G1 F900 X67.805 Y73.462 E28.73005
G0 F2625 X67.805 Y72.754
G1 F900 X70.775 Y75.724 E28.86997
G0 F2625 X70.774 Y75.016
G1 F900 X68.272 Y72.515 E28.98781
G0 F2625 X68.978 Y72.514
G1 F900 X70.774 Y74.309 E29.07239
G0 F2625 X70.774 Y73.602
G1 F900 X69.686 Y72.514 E29.12364
G0 F2625 X70.392 Y72.513
G1 F900 X70.774 Y72.895 E29.14164
G0 F2625 X66.923 Y83.288
G0 X66.577 Y83.633
G0 X66.141 Y83.815
G0 X42.447 Y83.816
G0 X42.004 Y83.632
G0 X41.658 Y83.286
G0 X41.511 Y82.932
G0 X40.774 Y72.594
G1 F900 X40.693 Y72.513 E29.14545
G0 F2625 X39.986 Y72.513
G1 F900 X40.774 Y73.301 E29.18257
G0 F2625 X40.774 Y74.008
G1 F900 X39.28 Y72.514 E29.25295
G0 F2625 X38.574 Y72.515
G1 F900 X40.774 Y74.715 E29.35659
G0 F2625 X40.775 Y75.423
G1 F900 X37.866 Y72.515 E29.4936
G0 F2625 X37.804 Y73.159
G1 F900 X40.775 Y76.13 E29.63356
G0 F2625 X40.775 Y76.837
G1 F900 X37.804 Y73.866 E29.77352
G0 F2625 X37.804 Y74.573
G1 F900 X40.775 Y77.544 E29.91348
G0 F2625 X40.776 Y78.252
G1 F900 X37.804 Y75.28 E30.05348
G0 F2625 X37.804 Y75.987
G1 F900 X40.776 Y78.959 E30.19349
G0 F2625 X40.776 Y79.666
G1 F900 X37.804 Y76.694 E30.33349
G0 F2625 X37.804 Y77.402
G1 F900 X40.776 Y80.374 E30.4735
G0 F2625 X40.776 Y81.081
M104 S205
G1 F900 X37.804 Y78.109 E30.6135
G0 F2625 X37.804 Y78.816
G1 F900 X40.776 Y81.788 E30.75351
G0 F2625 X40.776 Y82.496
G1 F900 X37.803 Y79.522 E30.89358
G0 F2625 X37.803 Y80.229
G1 F900 X40.93 Y83.356 E31.04089
G1 X41.018 Y83.444
G1 F600 E29.29089
;MESH:NONMESH
G0 F2625 X50.011 Y87.178
G0 X50.01 Y89.749
;TIME_ELAPSED:75.601763
;LAYER:1
M140 S60
M221 S100 T0
M106 S255
G0 F6562.5 X50.01 Y89.749 Z0.675
;TYPE:SUPPORT
G1 F600 E31.04089
G1 F1050 X51.677 Y89.749 E31.07355
G1 X51.677 Y90.95 E31.09709
G1 X53.344 Y90.95 E31.12975
G1 X53.344 Y89.749 E31.15328
G1 X55.011 Y89.749 E31.18595
G1 X55.011 Y90.95 E31.20948
G1 X56.678 Y90.95 E31.24214
G1 X56.678 Y89.749 E31.26568
G1 X58.345 Y89.749 E31.29834
G1 X58.772 Y89.749 E31.30671
