;Generated by Cura LulzBot Edition GCodeWriter Version: 3.6.20
;FLAVOR:Marlin
;TIME:101
;Filament used: 0.0193673m
;Layer height: 0.18
;Generated with Cura_SteamEngine 3.6.20
M82 ;absolute extrusion mode
;This G-Code has been generated specifically for the LulzBot Mini 2 with SE 0.5mm Tool Head
M73 P0                  ; clear GLCD progress bar
M75 					; Start GLCD Print Timer
G26 					; clear potential 'probe fail' condition
M107 					; disable fans
M420 S0                 ; disable leveling matrix
G90 					; absolute positioning
M82 					; set extruder to absolute mode
G92 E0 					; set extruder position to 0
M140 S60.0 ; start bed heating up
G28 					; home all axes
G0 X0 Y187 Z156 F200 			; move away from endstops
M117 Mini 2 Wiping...			; progress indicator message on LCD
M109 R140 	; soften filament before retraction
G1 E-15 F75 				; retract filament
M109 R140 	; wait for extruder to reach wiping temp
G1 X45 Y176 F11520 			; move above wiper pad
G1 Z0 F1200 				; push nozzle into wiper
G1 X45 Y178 Z-.5 F4000		; wiping
G1 X55 Y176 Z-.5 F4000		; wiping
G1 X45 Y177 Z0 F4000		; wiping
G1 X55 Y176 F4000		; wiping
G1 X45 Y178 F4000		; wiping
G1 X55 Y176 F4000		; wiping
G1 X45 Y178 F4000		; wiping
G1 X55 Y176 F4000		; wiping
G1 X60 Y178 F4000		; wiping
G1 X80 Y176 F4000		; wiping
G1 X60 Y178 F4000		; wiping
G1 X80 Y176 F4000		; wiping
G1 X60 Y178 F4000		; wiping
G1 X90 Y176 F4000		; wiping
G1 X80 Y178 F4000		; wiping
G1 X100 Y176 F4000		; wiping
G1 X80 Y178 F4000		; wiping
G1 X100 Y176 F4000		; wiping
G1 X80 Y178 F4000		; wiping
G1 X100 Y176 F4000		; wiping
G1 X110 Y178 F4000		; wiping
G1 X100 Y176 F4000		; wiping
G1 X110 Y178 F4000		; wiping
G1 X100 Y176 F4000		; wiping
G1 X110 Y178 F4000		; wiping
G1 X115 Y176 Z-0.5 F1000	; wiping
G1 Z10					; raise extruder
G28 X0 Y0				; home X and Y
M109 R140	; wait for extruder to reach probe temp
M204 S300				; set probing acceleration
G29					; start auto-leveling sequence
M420 S1                     ; enable leveling matrix
M425 Z			     		; use measured Z backlash for compensation
M425 Z F0		     		; turn off measured Z backlash compensation. (if activated in the quality settings, this command will automatically be ignored)
M204 S2000				; restore standard acceleration
G1 X5 Y15 Z10 F5000			; move up off last probe point
G4 S1					; pause
M400					; wait for moves to finish
M117 Heating...				; progress indicator message on LCD
M109 R210 ; wait for extruder to reach initial printing temp
M190 R60.0 ; wait for bed to reach printing temp
G1 Z2 E0 F75				; prime tiny bit of filment into the nozzle
M117 Mini 2 Printing...		; progress indicator message on LCD

M221 S100 T0
G92 E0
G1 F600 E-1.75
;LAYER_COUNT:16
;LAYER:0
M107
G0 F2625 X75.143 Y74.519 Z0.425
;TYPE:SKIRT
G1 F600 E0
G1 F751.1 X75.767 Y74.026 E0.02649
G1 X76.396 Y73.596 E0.05187
G1 X76.977 Y73.247 E0.07445
G1 X77.653 Y72.948 E0.09907
G1 X78.356 Y72.689 E0.12402
G1 X79.005 Y72.492 E0.14662
G1 X79.714 Y72.369 E0.17059
G1 X80.331 Y72.301 E0.19126
G1 X81.008 Y72.266 E0.21385
G1 X81.63 Y72.305 E0.23461
G1 X82.424 Y72.398 E0.26123
G1 X83.091 Y72.516 E0.2838
G1 X84.044 Y72.834 E0.31726
G1 X84.862 Y73.189 E0.34697
G1 X85.467 Y73.495 E0.36955
G1 X86.202 Y74.004 E0.39933
G1 X86.798 Y74.489 E0.42493
G1 X87.298 Y74.947 E0.44751
G1 X87.808 Y75.552 E0.47387
G1 X88.243 Y76.146 E0.4984
G1 X88.611 Y76.715 E0.52097
G1 X88.926 Y77.365 E0.54503
G1 X89.201 Y78.037 E0.56921
G1 X89.42 Y78.679 E0.59181
G1 X89.569 Y79.386 E0.61588
G1 X89.673 Y80.1 E0.63991
G1 X89.731 Y80.776 E0.66251
G1 X89.704 Y81.501 E0.68668
G1 X89.63 Y82.241 E0.71145
G1 X89.523 Y82.911 E0.73405
G1 X89.312 Y83.636 E0.7592
G1 X89.059 Y84.331 E0.78384
G1 X88.79 Y84.953 E0.80641
G1 X88.394 Y85.623 E0.83234
G1 X87.971 Y86.238 E0.8572
G1 X87.554 Y86.772 E0.87977
G1 X87.063 Y87.268 E0.90302
G1 X86.539 Y87.736 E0.92642
G1 X86.008 Y88.157 E0.949
G1 X85.39 Y88.534 E0.97311
G1 X84.724 Y88.885 E0.99819
G1 X84.107 Y89.165 E1.02076
G1 X83.607 Y89.331 E1.03831
G1 X83.108 Y89.472 E1.05558
G1 X82.445 Y89.618 E1.07819
G1 X81.571 Y89.689 E1.1074
G1 X80.525 Y89.694 E1.14224
G1 X79.849 Y89.657 E1.1648
G1 X79.132 Y89.529 E1.18906
G1 X78.711 Y89.426 E1.20349
G1 X78.063 Y89.227 E1.22607
G1 X77.277 Y88.863 E1.25493
G1 X76.285 Y88.31 E1.29276
G1 X75.714 Y87.946 E1.31531
G1 X75.189 Y87.517 E1.3379
G1 X74.906 Y87.238 E1.35114
G1 X74.424 Y86.728 E1.37451
G1 X73.988 Y86.208 E1.39712
G1 X73.598 Y85.609 E1.42093
G1 X73.232 Y84.962 E1.44569
G1 X72.934 Y84.353 E1.46827
G1 X72.685 Y83.627 E1.49384
G1 X72.494 Y82.918 E1.5183
G1 X72.356 Y82.254 E1.54089
G1 X72.297 Y81.515 E1.56558
G1 X72.285 Y80.77 E1.5904
G1 X72.314 Y80.092 E1.61301
G1 X72.432 Y79.38 E1.63705
G1 X72.595 Y78.676 E1.66112
G1 X72.787 Y78.026 E1.68369
G1 X73.074 Y77.363 E1.70776
G1 X73.396 Y76.731 E1.73139
G1 X73.738 Y76.146 E1.75396
G1 X74.177 Y75.572 E1.77803
G1 X74.67 Y75.004 E1.80308
G1 X75.143 Y74.519 E1.82565
G0 F2625 X75.501 Y74.87
G1 F751.1 X76.049 Y74.439 E1.84887
G1 X76.678 Y74.009 E1.87425
G1 X77.234 Y73.677 E1.89582
G1 X77.826 Y73.417 E1.91736
G1 X78.529 Y73.158 E1.94232
G1 X79.15 Y72.972 E1.96391
G1 X79.769 Y72.866 E1.98483
G1 X80.386 Y72.798 E2.00551
G1 X81.033 Y72.766 E2.02709
G1 X81.572 Y72.802 E2.04508
G1 X82.366 Y72.895 E2.07171
G1 X83.003 Y73.01 E2.09327
G1 X83.845 Y73.293 E2.12286
G1 X84.663 Y73.648 E2.15256
G1 X85.24 Y73.942 E2.17413
G1 X85.887 Y74.392 E2.20039
G1 X86.483 Y74.877 E2.22598
G1 X86.959 Y75.316 E2.24755
G1 X87.405 Y75.847 E2.27065
G1 X87.84 Y76.441 E2.29518
G1 X88.189 Y76.986 E2.31673
G1 X88.463 Y77.555 E2.33777
G1 X88.738 Y78.227 E2.36196
G1 X88.946 Y78.84 E2.38352
G1 X89.074 Y79.458 E2.40454
G1 X89.178 Y80.172 E2.42858
G1 X89.232 Y80.818 E2.45017
G1 X89.207 Y81.451 E2.47127
G1 X89.133 Y82.191 E2.49604
G1 X89.029 Y82.831 E2.51764
G1 X88.842 Y83.465 E2.53966
G1 X88.589 Y84.16 E2.5643
G1 X88.331 Y84.754 E2.58587
G1 X87.982 Y85.339 E2.60856
G1 X87.559 Y85.954 E2.63342
G1 X87.159 Y86.464 E2.65501
G1 X86.73 Y86.895 E2.67527
G1 X86.206 Y87.363 E2.69867
G1 X85.697 Y87.764 E2.72026
G1 X85.157 Y88.091 E2.74129
G1 X84.491 Y88.442 E2.76636
G1 X83.9 Y88.709 E2.78797
G1 X83.471 Y88.85 E2.80301
G1 X82.972 Y88.991 E2.82028
G1 X82.339 Y89.129 E2.84186
G1 X81.569 Y89.189 E2.86759
G1 X80.523 Y89.194 E2.90243
G1 X79.876 Y89.157 E2.92402
G1 X79.25 Y89.044 E2.94521
G1 X78.829 Y88.941 E2.95964
G1 X78.211 Y88.748 E2.98121
G1 X77.521 Y88.427 E3.00656
G1 X76.529 Y87.874 E3.04439
G1 X75.983 Y87.524 E3.066
G1 X75.269 Y86.894 E3.09771
G1 X74.787 Y86.384 E3.12109
G1 X74.372 Y85.887 E3.14266
G1 X74.033 Y85.363 E3.16345
G1 X73.667 Y84.716 E3.18821
G1 X73.384 Y84.134 E3.20976
G1 X73.168 Y83.497 E3.23217
G1 X72.977 Y82.788 E3.25663
G1 X72.847 Y82.153 E3.27822
G1 X72.797 Y81.507 E3.2998
G1 X72.785 Y80.762 E3.32462
G1 X72.814 Y80.114 E3.34623
G1 X72.919 Y79.493 E3.36721
G1 X73.082 Y78.789 E3.39128
G1 X73.267 Y78.168 E3.41286
G1 X73.519 Y77.59 E3.43387
G1 X73.841 Y76.958 E3.45749
G1 X74.17 Y76.4 E3.47907
G1 X74.554 Y75.9 E3.50007
G1 X75.047 Y75.332 E3.52512
G1 X75.501 Y74.87 E3.5467
G0 F2625 X75.858 Y75.221
G1 F751.1 X76.331 Y74.852 E3.56668
G1 X76.96 Y74.422 E3.59206
G1 X77.49 Y74.108 E3.61258
G1 X77.999 Y73.886 E3.63108
G1 X78.702 Y73.627 E3.65604
G1 X79.293 Y73.452 E3.67657
G1 X79.824 Y73.363 E3.6945
G1 X80.441 Y73.295 E3.71518
G1 X81.056 Y73.267 E3.73569
G1 X81.514 Y73.298 E3.75098
G1 X82.308 Y73.391 E3.77761
G1 X82.914 Y73.502 E3.79813
G1 X83.646 Y73.752 E3.8239
G1 X84.464 Y74.107 E3.8536
G1 X85.012 Y74.388 E3.87411
G1 X85.571 Y74.78 E3.89686
G1 X86.167 Y75.265 E3.92245
G1 X86.619 Y75.684 E3.94298
G1 X87.001 Y76.143 E3.96287
G1 X87.436 Y76.737 E3.9874
G1 X87.767 Y77.256 E4.0079
G1 X88 Y77.744 E4.02592
G1 X88.275 Y78.416 E4.0501
G1 X88.471 Y79 E4.07062
G1 X88.579 Y79.53 E4.08864
G1 X88.683 Y80.244 E4.11267
G1 X88.732 Y80.859 E4.13322
G1 X88.709 Y81.402 E4.15133
G1 X88.635 Y82.142 E4.1761
G1 X88.534 Y82.749 E4.1966
G1 X88.372 Y83.294 E4.21554
G1 X88.119 Y83.989 E4.24017
G1 X87.872 Y84.553 E4.26068
G1 X87.57 Y85.056 E4.28023
G1 X87.147 Y85.671 E4.30509
G1 X86.765 Y86.155 E4.32563
G1 X86.397 Y86.522 E4.34294
G1 X85.873 Y86.99 E4.36634
G1 X85.388 Y87.369 E4.38685
G1 X84.924 Y87.649 E4.4049
G1 X84.258 Y88 E4.42998
G1 X83.695 Y88.251 E4.45051
G1 X83.335 Y88.369 E4.46313
G1 X82.836 Y88.51 E4.4804
G1 X82.233 Y88.639 E4.50094
G1 X81.567 Y88.689 E4.52319
G1 X80.521 Y88.694 E4.55803
G1 X79.906 Y88.657 E4.57856
G1 X79.369 Y88.558 E4.59674
G1 X78.948 Y88.455 E4.61118
G1 X78.36 Y88.27 E4.63172
G1 X77.764 Y87.99 E4.65365
G1 X76.772 Y87.437 E4.69148
G1 X76.255 Y87.103 E4.71198
G1 X75.633 Y86.551 E4.73969
G1 X75.151 Y86.041 E4.76306
G1 X74.758 Y85.566 E4.7836
G1 X74.469 Y85.117 E4.80138
G1 X74.103 Y84.47 E4.82614
G1 X73.835 Y83.915 E4.84667
G1 X73.651 Y83.367 E4.86593
G1 X73.46 Y82.658 E4.89039
G1 X73.338 Y82.054 E4.91091
G1 X73.297 Y81.499 E4.92945
G1 X73.285 Y80.754 E4.95427
G1 X73.315 Y80.138 E4.97481
G1 X73.406 Y79.606 E4.99279
G1 X73.569 Y78.902 E5.01686
G1 X73.747 Y78.312 E5.03739
G1 X73.965 Y77.817 E5.05541
G1 X74.287 Y77.185 E5.07904
G1 X74.601 Y76.655 E5.09956
G1 X74.932 Y76.227 E5.11758
G1 X75.425 Y75.659 E5.14263
G1 X75.858 Y75.221 E5.16315
G0 F2625 X76.214 Y75.574
G1 F751.1 X76.613 Y75.264 E5.17998
G1 X77.242 Y74.834 E5.20536
G1 X77.745 Y74.539 E5.22478
G1 X78.172 Y74.355 E5.24027
G1 X78.875 Y74.096 E5.26523
G1 X79.434 Y73.933 E5.28462
G1 X79.878 Y73.86 E5.29961
G1 X80.495 Y73.792 E5.32029
G1 X81.078 Y73.768 E5.33972
G1 X81.455 Y73.795 E5.35232
G1 X82.249 Y73.888 E5.37894
G1 X82.822 Y73.995 E5.39836
G1 X83.447 Y74.21 E5.42038
G1 X84.265 Y74.565 E5.45008
G1 X84.782 Y74.833 E5.46948
G1 X85.256 Y75.168 E5.48881
G1 X85.852 Y75.653 E5.51441
G1 X86.277 Y76.05 E5.53378
G1 X86.598 Y76.438 E5.55056
G1 X87.033 Y77.032 E5.57508
G1 X87.344 Y77.525 E5.5945
G1 X87.537 Y77.933 E5.60953
G1 X87.812 Y78.605 E5.63372
G1 X87.996 Y79.159 E5.65316
G1 X88.085 Y79.602 E5.66821
G1 X88.189 Y80.316 E5.69225
G1 X88.233 Y80.897 E5.71166
G1 X88.212 Y81.352 E5.72683
G1 X88.138 Y82.092 E5.7516
G1 X88.04 Y82.666 E5.771
G1 X87.903 Y83.123 E5.78689
G1 X87.65 Y83.818 E5.81153
G1 X87.413 Y84.35 E5.83093
G1 X87.158 Y84.772 E5.84735
G1 X86.735 Y85.387 E5.87222
G1 X86.372 Y85.844 E5.89166
G1 X86.064 Y86.149 E5.9061
G1 X85.54 Y86.617 E5.9295
G1 X85.08 Y86.974 E5.94889
G1 X84.691 Y87.207 E5.964
G1 X84.025 Y87.558 E5.98908
G1 X83.492 Y87.794 E6.00849
G1 X83.199 Y87.888 E6.01874
G1 X82.7 Y88.029 E6.03602
G1 X82.129 Y88.149 E6.05545
G1 X81.564 Y88.189 E6.07432
G1 X80.518 Y88.194 E6.10916
G1 X79.937 Y88.157 E6.12855
G1 X79.488 Y88.072 E6.14378
G1 X79.067 Y87.969 E6.15821
G1 X78.512 Y87.792 E6.17762
G1 X78.008 Y87.553 E6.1962
G1 X77.016 Y87 E6.23403
G1 X76.527 Y86.682 E6.25346
G1 X75.996 Y86.207 E6.27719
G1 X75.514 Y85.697 E6.30057
G1 X75.144 Y85.247 E6.31997
G1 X74.904 Y84.871 E6.33483
G1 X74.538 Y84.224 E6.35959
G1 X74.286 Y83.698 E6.37902
G1 X74.133 Y83.237 E6.3952
G1 X73.942 Y82.528 E6.41966
G1 X73.83 Y81.956 E6.43907
G1 X73.797 Y81.49 E6.45464
G1 X73.785 Y80.745 E6.47946
G1 X73.815 Y80.163 E6.49887
G1 X73.894 Y79.718 E6.51392
G1 X74.057 Y79.014 E6.53799
G1 X74.227 Y78.457 E6.55739
G1 X74.41 Y78.044 E6.57244
G1 X74.732 Y77.412 E6.59607
G1 X75.032 Y76.912 E6.61549
G1 X75.309 Y76.555 E6.63054
G1 X75.802 Y75.987 E6.65559
G1 X76.214 Y75.574 E6.67503
G0 F2625 X76.568 Y75.929
G1 F751.1 X76.896 Y75.677 E6.6888
G1 X77.525 Y75.247 E6.71418
G1 X77.998 Y74.972 E6.73241
G1 X78.345 Y74.824 E6.74498
G1 X79.048 Y74.565 E6.76993
G1 X79.574 Y74.414 E6.78816
G1 X79.933 Y74.357 E6.80027
G1 X80.55 Y74.289 E6.82095
G1 X81.097 Y74.268 E6.83918
G1 X81.397 Y74.291 E6.8492
G1 X82.191 Y74.384 E6.87583
G1 X82.729 Y74.488 E6.89408
G1 X83.248 Y74.669 E6.91239
G1 X84.066 Y75.024 E6.9421
G1 X84.551 Y75.278 E6.96033
G1 X84.94 Y75.555 E6.97624
G1 X85.536 Y76.04 E7.00184
G1 X85.934 Y76.416 E7.02008
G1 X86.194 Y76.733 E7.03373
G1 X86.629 Y77.327 E7.05826
G1 X86.92 Y77.791 E7.0765
G1 X87.075 Y78.123 E7.08871
G1 X87.35 Y78.795 E7.11289
G1 X87.519 Y79.315 E7.13111
G1 X87.59 Y79.674 E7.1433
G1 X87.694 Y80.388 E7.16733
G1 X87.733 Y80.934 E7.18556
G1 X87.714 Y81.302 E7.19784
G1 X87.64 Y82.042 E7.22261
G1 X87.546 Y82.581 E7.24084
G1 X87.433 Y82.952 E7.25376
G1 X87.18 Y83.647 E7.27839
G1 X86.956 Y84.146 E7.29661
G1 X86.746 Y84.489 E7.31001
G1 X86.323 Y85.104 E7.33487
G1 X85.98 Y85.531 E7.35312
G1 X85.731 Y85.776 E7.36475
G1 X85.207 Y86.244 E7.38816
G1 X84.773 Y86.578 E7.4064
G1 X84.457 Y86.764 E7.41861
G1 X83.791 Y87.115 E7.44369
G1 X83.063 Y87.407 E7.46982
G1 X82.564 Y87.548 E7.48709
G1 X82.028 Y87.658 E7.50532
G1 X81.562 Y87.689 E7.52087
G1 X80.516 Y87.694 E7.55572
G1 X79.97 Y87.657 E7.57394
G1 X79.607 Y87.587 E7.58626
G1 X79.186 Y87.484 E7.6007
G1 X78.665 Y87.315 E7.61894
G1 X78.251 Y87.116 E7.63424
G1 X77.259 Y86.563 E7.67207
G1 X76.802 Y86.263 E7.69028
G1 X76.36 Y85.864 E7.71012
G1 X75.878 Y85.354 E7.73349
G1 X75.532 Y84.93 E7.75172
G1 X75.339 Y84.624 E7.76377
G1 X74.973 Y83.977 E7.78853
G1 X74.739 Y83.483 E7.80674
G1 X74.616 Y83.106 E7.81995
G1 X74.425 Y82.397 E7.84441
G1 X74.322 Y81.86 E7.86263
G1 X74.296 Y81.482 E7.87525
G1 X74.284 Y80.737 E7.90007
G1 X74.316 Y80.191 E7.91828
G1 X74.381 Y79.831 E7.93047
G1 X74.544 Y79.127 E7.95454
G1 X74.706 Y78.604 E7.97278
G1 X74.856 Y78.271 E7.98494
G1 X75.178 Y77.639 E8.00857
G1 X75.461 Y77.17 E8.02682
G1 X75.687 Y76.883 E8.03899
G1 X76.18 Y76.315 E8.06404
G1 X76.568 Y75.929 E8.08227
G0 F2625 X76.921 Y76.285
G1 F751.1 X77.178 Y76.09 E8.09302
G1 X77.807 Y75.66 E8.1184
G1 X78.249 Y75.406 E8.13538
G1 X78.517 Y75.293 E8.14507
G1 X79.22 Y75.034 E8.17002
G1 X79.711 Y74.896 E8.18701
G1 X79.988 Y74.854 E8.19634
G1 X80.605 Y74.786 E8.21702
G1 X81.339 Y74.788 E8.24147
G1 X82.133 Y74.881 E8.2681
G1 X82.633 Y74.98 E8.28508
G1 X83.049 Y75.128 E8.29979
G1 X83.867 Y75.483 E8.32949
G1 X84.317 Y75.722 E8.34646
G1 X84.624 Y75.943 E8.35906
G1 X85.22 Y76.428 E8.38466
G1 X85.589 Y76.78 E8.40164
G1 X85.791 Y77.029 E8.41233
G1 X86.226 Y77.623 E8.43685
G1 X86.494 Y78.056 E8.45381
G1 X86.612 Y78.312 E8.4632
G1 X86.887 Y78.984 E8.48739
G1 X87.042 Y79.469 E8.50435
G1 X87.095 Y79.747 E8.51378
G1 X87.199 Y80.461 E8.53781
G1 X87.233 Y80.969 E8.55477
G1 X87.217 Y81.252 E8.56421
G1 X87.143 Y81.992 E8.58898
G1 X87.053 Y82.494 E8.60597
G1 X86.963 Y82.781 E8.61599
G1 X86.71 Y83.476 E8.64063
G1 X86.499 Y83.939 E8.65758
G1 X86.334 Y84.206 E8.66803
G1 X85.911 Y84.821 E8.6929
G1 X85.59 Y85.217 E8.70988
G1 X85.398 Y85.403 E8.71878
G1 X84.874 Y85.871 E8.74218
G1 X84.468 Y86.18 E8.75918
G1 X84.224 Y86.322 E8.76858
G1 X83.558 Y86.673 E8.79366
G1 X82.927 Y86.926 E8.81631
G1 X82.428 Y87.067 E8.83358
G1 X81.928 Y87.166 E8.85056
G1 X81.56 Y87.189 E8.86284
G1 X80.514 Y87.194 E8.89768
G1 X80.005 Y87.156 E8.91468
G1 X79.726 Y87.101 E8.92416
G1 X79.305 Y86.998 E8.93859
G1 X78.821 Y86.838 E8.95557
G1 X78.495 Y86.68 E8.96764
G1 X77.503 Y86.127 E9.00547
G1 X77.078 Y85.845 E9.02246
G1 X76.723 Y85.52 E9.0385
G1 X76.241 Y85.01 E9.06187
G1 X75.921 Y84.614 E9.07883
G1 X75.774 Y84.378 E9.08809
G1 X75.408 Y83.731 E9.11285
G1 X75.193 Y83.269 E9.12983
G1 X75.099 Y82.976 E9.14008
G1 X74.908 Y82.267 E9.16454
G1 X74.814 Y81.767 E9.18148
G1 X74.796 Y81.474 E9.19126
G1 X74.784 Y80.729 E9.21608
G1 X74.816 Y80.221 E9.23304
G1 X74.868 Y79.944 E9.24242
G1 X75.031 Y79.24 E9.26649
G1 X75.184 Y78.754 E9.28347
G1 X75.301 Y78.498 E9.29284
G1 X75.623 Y77.866 E9.31647
G1 X75.889 Y77.431 E9.33345
G1 X76.065 Y77.211 E9.34284
G1 X76.558 Y76.643 E9.36789
G1 X76.921 Y76.285 E9.38488
G1 F600 E7.63488
;MESH:
G0 F2625 X78.909 Y77.994
G0 X79.774 Y79.137
G0 X81.185 Y78.858
G0 X81.193 Y78.759
;TYPE:WALL-INNER
G1 F600 E9.38488
G1 F751.1 X81.478 Y78.802 E9.39448
G1 X81.766 Y78.885 E9.40446
G1 X81.864 Y78.922 E9.40795
G1 X82.14 Y79.061 E9.41824
G1 X82.355 Y79.205 E9.42686
G1 X82.568 Y79.386 E9.43617
G1 X82.753 Y79.591 E9.44537
G1 X82.911 Y79.812 E9.45442
G1 X83.04 Y80.052 E9.4635
G1 X83.1 Y80.194 E9.46863
G1 X83.184 Y80.462 E9.47799
G1 X83.209 Y80.573 E9.48178
G1 X83.231 Y80.715 E9.48656
G1 X83.244 Y80.854 E9.49121
G1 X83.249 Y80.999 E9.49605
G1 X83.245 Y81.138 E9.50068
G1 X83.211 Y81.408 E9.50974
G1 X83.142 Y81.684 E9.51922
