;Generated by Cura LulzBot Edition GCodeWriter Version: 3.6.20
;FLAVOR:Marlin
;TIME:2875
;Filament used: 1.10191m
;Layer height: 0.25
;Generated with Cura_SteamEngine 3.6.20
M82 ;absolute extrusion mode
;This G-Code has been generated specifically for the LulzBot Mini 2 with SE 0.5mm Tool Head
M73 P0                  ; clear GLCD progress bar
M75 					; Start GLCD Print Timer
G26 					; clear potential 'probe fail' condition
M107 					; disable fans
M420 S0                 ; disable leveling matrix
G90 					; absolute positioning
M82 					; set extruder to absolute mode
G92 E0 					; set extruder position to 0
M140 S60.0 ; start bed heating up
G28 					; home all axes
G0 X0 Y187 Z156 F200 			; move away from endstops
M117 Mini 2 Wiping...			; progress indicator message on LCD
M109 R140 	; soften filament before retraction
G1 E-15 F75 				; retract filament
M109 R140 	; wait for extruder to reach wiping temp
G1 X45 Y176 F11520 			; move above wiper pad
G1 Z0 F1200 				; push nozzle into wiper
G1 X45 Y178 Z-.5 F4000		; wiping
G1 X55 Y176 Z-.5 F4000		; wiping
G1 X45 Y177 Z0 F4000		; wiping
G1 X55 Y176 F4000		; wiping
G1 X45 Y178 F4000		; wiping
G1 X55 Y176 F4000		; wiping
G1 X45 Y178 F4000		; wiping
G1 X55 Y176 F4000		; wiping
G1 X60 Y178 F4000		; wiping
G1 X80 Y176 F4000		; wiping
G1 X60 Y178 F4000		; wiping
G1 X80 Y176 F4000		; wiping
G1 X60 Y178 F4000		; wiping
G1 X90 Y176 F4000		; wiping
G1 X80 Y178 F4000		; wiping
G1 X100 Y176 F4000		; wiping
G1 X80 Y178 F4000		; wiping
G1 X100 Y176 F4000		; wiping
G1 X80 Y178 F4000		; wiping
G1 X100 Y176 F4000		; wiping
G1 X110 Y178 F4000		; wiping
G1 X100 Y176 F4000		; wiping
G1 X110 Y178 F4000		; wiping
G1 X100 Y176 F4000		; wiping
G1 X110 Y178 F4000		; wiping
G1 X115 Y176 Z-0.5 F1000	; wiping
G1 Z10					; raise extruder
G28 X0 Y0				; home X and Y
M109 R140	; wait for extruder to reach probe temp
M204 S300				; set probing acceleration
G29					; start auto-leveling sequence
M420 S1                     ; enable leveling matrix
M425 Z			     		; use measured Z backlash for compensation
M425 Z F0		     		; turn off measured Z backlash compensation. (if activated in the quality settings, this command will automatically be ignored)
M204 S2000				; restore standard acceleration
G1 X5 Y15 Z10 F5000			; move up off last probe point
G4 S1					; pause
M400					; wait for moves to finish
M117 Heating...				; progress indicator message on LCD
M109 R210 ; wait for extruder to reach initial printing temp
M190 R60.0 ; wait for bed to reach printing temp
G1 Z2 E0 F75				; prime tiny bit of filment into the nozzle
M117 Mini 2 Printing...		; progress indicator message on LCD

M221 S100 T0
G92 E0
G1 F600 E-1.75
;LAYER_COUNT:70
;LAYER:0
M107
G0 F2625 X39.895 Y20.4 Z0.425
;TYPE:SKIRT
G1 F600 E0
G1 F900 X40.013 Y20.171 E0.00858
G1 X40.77 Y18.838 E0.05964
G1 X40.956 Y18.548 E0.07112
G1 X42.43 Y16.494 E0.15533
G1 X42.629 Y16.243 E0.166
G1 X43.241 Y15.547 E0.19688
G1 X43.424 Y15.355 E0.20571
G1 X44.994 Y13.839 E0.27841
G1 X45.253 Y13.615 E0.28982
G1 X46.058 Y12.987 E0.32383
G1 X46.483 Y12.706 E0.3408
G1 X46.947 Y12.495 E0.35778
G1 X47.438 Y12.359 E0.37475
G1 X48.059 Y12.299 E0.39553
G1 X72.035 Y12.311 E1.19418
G1 X72.543 Y12.351 E1.21115
G1 X73.157 Y12.512 E1.2323
G1 X74.425 Y12.979 E1.27731
G1 X80.006 Y14.862 E1.47351
G1 X85.329 Y16.314 E1.6573
G1 X87.963 Y16.913 E1.74728
G1 X93.995 Y18.04 E1.95168
G1 X94.111 Y18.064 E1.95563
G1 X119.415 Y23.751 E2.81954
G1 X119.931 Y23.913 E2.83756
G1 X120.531 Y24.158 E2.85914
G1 X121.04 Y24.421 E2.87823
G1 X121.555 Y24.747 E2.89853
G1 X121.992 Y25.078 E2.91679
G1 X122.454 Y25.494 E2.9375
G1 X122.828 Y25.893 E2.95572
G1 X123.195 Y26.357 E2.97542
G1 X123.548 Y26.91 E2.99728
G1 X123.932 Y27.672 E3.0257
G1 X124.125 Y28.144 E3.04269
G1 X124.197 Y28.404 E3.05167
G1 X124.415 Y29.349 E3.08398
G1 X124.498 Y30.075 E3.10832
G1 X124.499 Y30.687 E3.12871
G1 X124.44 Y31.31 E3.14955
G1 X123.767 Y34.783 E3.26739
G1 X122.926 Y40.217 E3.45055
G1 X122.395 Y45.676 E3.63325
G1 X122.174 Y51.119 E3.81471
G1 X122.264 Y56.62 E3.99798
G1 X122.659 Y62.053 E4.17943
G1 X123.367 Y67.493 E4.36216
G1 X124.38 Y72.882 E4.54482
G1 X124.996 Y75.538 E4.63564
G1 X125.957 Y79.253 E4.76346
G1 X126.056 Y79.894 E4.78507
G1 X126.108 Y80.871 E4.81766
G1 X126.096 Y81.381 E4.83465
G1 X126.038 Y81.736 E4.84663
G1 X125.858 Y82.562 E4.87479
G1 X125.615 Y83.272 E4.89979
G1 X125.203 Y84.134 E4.93161
G1 X124.948 Y84.575 E4.94858
G1 X124.784 Y84.792 E4.95764
G1 X120.453 Y90.075 E5.1852
G1 X117.229 Y94.51 E5.36784
G1 X114.262 Y99.118 E5.5504
G1 X111.576 Y103.856 E5.73182
G1 X109.14 Y108.788 E5.91505
G1 X107 Y113.816 E6.09708
G1 X105.144 Y118.964 E6.27936
G1 X104.335 Y121.549 E6.36959
G1 X102.914 Y126.875 E6.5532
G1 X101.581 Y133.498 E6.77824
G1 X101.442 Y133.988 E6.79521
G1 X101.228 Y134.451 E6.8122
G1 X100.961 Y134.852 E6.82825
G1 X100.706 Y135.18 E6.84209
G1 X100.363 Y135.556 E6.85904
G1 X99.965 Y135.874 E6.87601
G1 X99.522 Y136.127 E6.893
G1 X98.83 Y136.361 E6.91734
G1 X92.203 Y137.8 E7.14323
G1 X89.608 Y138.494 E7.23271
G1 X86.101 Y139.552 E7.35473
G1 X85.603 Y139.66 E7.3717
G1 X85.198 Y139.69 E7.38523
G1 X78.327 Y139.766 E7.61412
G1 X78.1 Y139.76 E7.62168
G1 X76.602 Y139.672 E7.67167
G1 X75.867 Y139.543 E7.69652
G1 X71.62 Y138.281 E7.84411
G1 X66.279 Y136.977 E8.02724
G1 X63.196 Y136.36 E8.13197
G1 X62.706 Y136.221 E8.14894
G1 X62.244 Y136.007 E8.1659
G1 X61.82 Y135.724 E8.18288
G1 X61.536 Y135.471 E8.19555
G1 X61.342 Y135.277 E8.20469
G1 X61.011 Y134.89 E8.22165
G1 X60.745 Y134.455 E8.23864
G1 X60.55 Y133.985 E8.25559
G1 X60.468 Y133.688 E8.26585
G1 X60.34 Y133.115 E8.28541
G1 X60.32 Y133.017 E8.28874
G1 X59.982 Y131.252 E8.3486
G1 X58.719 Y125.906 E8.53158
G1 X57.981 Y123.278 E8.62251
G1 X56.275 Y118.069 E8.80509
G1 X55.31 Y115.5 E8.8965
G1 X53.173 Y110.472 E9.07849
G1 X50.754 Y105.565 E9.26072
G1 X48.056 Y100.794 E9.4433
G1 X45.09 Y96.178 E9.62606
G1 X42.826 Y92.967 E9.75694
G1 X42.7 Y92.773 E9.76464
G1 X41.925 Y91.489 E9.8146
G1 X41.809 Y91.28 E9.82256
G1 X41.215 Y90.109 E9.8663
G1 X41.109 Y89.88 E9.8747
G1 X40.523 Y88.461 E9.92584
G1 X40.407 Y88.13 E9.93753
G1 X39.673 Y85.613 E10.02486
G1 X39.577 Y85.169 E10.03999
G1 X39.205 Y82.599 E10.12649
G1 X39.173 Y82.256 E10.13797
G1 X39.12 Y80.86 E10.1845
G1 X39.12 Y80.615 E10.19266
G1 X39.174 Y79.177 E10.2406
G1 X39.206 Y78.827 E10.2523
G1 X40.355 Y71.003 E10.51572
G1 X40.863 Y65.559 E10.69785
G1 X41.065 Y60.077 E10.88058
G1 X40.956 Y54.614 E11.06259
G1 X40.537 Y49.163 E11.2447
G1 X39.813 Y43.747 E11.42672
G1 X38.77 Y38.317 E11.6109
G1 X37.922 Y34.654 E11.73614
G1 X37.876 Y34.414 E11.74428
G1 X37.669 Y33.065 E11.78974
G1 X37.641 Y32.821 E11.79792
G1 X37.528 Y31.348 E11.84713
G1 X37.518 Y31.099 E11.85543
G1 X37.518 Y29.686 E11.9025
G1 X37.527 Y29.44 E11.9107
G1 X37.636 Y28.006 E11.95861
G1 X37.681 Y27.661 E11.9702
G1 X38.156 Y25.092 E12.05722
G1 X38.274 Y24.641 E12.07275
G1 X39.166 Y22.007 E12.16538
G1 X39.3 Y21.673 E12.17737
G1 X39.895 Y20.4 E12.22418
G1 F600 E10.47418
G0 F2625 X40.134 Y31.897
G0 X41.751 Y82.223
G0 X41.919 Y83.681
G0 X42.198 Y85.124
G0 X42.581 Y86.538
G0 X43.075 Y87.934
G0 X63.135 Y133.46
G0 X63.433 Y133.728
G0 X63.847 Y133.854
G0 X76.517 Y134.969
;TYPE:SUPPORT
G1 F600 E12.22418
G1 F900 X85.483 Y134.969 E12.52284
G1 X85.48 Y135.82 E12.55119
G1 X85.452 Y135.943 E12.55539
G1 X85.428 Y135.986 E12.55703
G1 X85.302 Y136.116 E12.56306
G1 X85.126 Y136.2 E12.56956
G1 X85.087 Y136.209 E12.57089
G1 X84.989 Y136.167 E12.57444
G1 X84.341 Y136.266 E12.59628
G1 X77.605 Y136.266 E12.82065
G1 X77.004 Y136.169 E12.84093
G1 X76.912 Y136.209 E12.84428
G1 X76.882 Y136.203 E12.84529
G1 X76.712 Y136.123 E12.85155
G1 X76.589 Y136.008 E12.85716
G1 X76.544 Y135.923 E12.86037
G1 X76.52 Y135.803 E12.86444
G1 X76.517 Y134.969 E12.89222
G1 F600 E11.14222
G0 F2625 X78.349 Y135.169
G1 F600 E12.89222
G1 F900 X78.349 Y136.066 E12.9221
G1 F600 E11.1721
G0 F2625 X80.016 Y136.066
G1 F600 E12.9221
G1 F900 X80.016 Y135.169 E12.95198
G1 F600 E11.20198
G0 F2625 X81.683 Y135.169
G1 F600 E12.95198
G1 F900 X81.683 Y136.066 E12.98186
G1 F600 E11.23186
G0 F2625 X83.35 Y136.066
G1 F600 E12.98186
G1 F900 X83.35 Y135.169 E13.01174
G1 F600 E11.26174
G0 F2625 X85.017 Y135.169
G1 F600 E13.01174
G1 F900 X85.017 Y135.96 E13.03809
G1 F600 E11.28809
;MESH:
G0 F2625 X98.117 Y133.882
G0 X98.495 Y133.778
G0 X98.759 Y133.573
G0 X98.965 Y133.294
G0 X99.065 Y132.952
G0 X99.066 Y116.7
G0 X98.962 Y116.316
G0 X98.753 Y116.053
G0 X68.696 Y98.748
G0 X67.317 Y99.261
G0 X65.906 Y99.667
G0 X64.453 Y99.97
G0 X62.998 Y100.158
G0 X61.521 Y100.237
G0 X60.053 Y100.204
G0 X58.579 Y100.061
G0 X57.133 Y99.809
G0 X55.71 Y99.447
G0 X54.299 Y98.975
G0 X52.949 Y98.404
G0 X51.646 Y97.733
G0 X50.39 Y96.965
G0 X49.184 Y96.092
G0 X48.063 Y95.145
G0 X47.018 Y94.119
G0 X46.042 Y93.003
G0 X45.16 Y91.824
G0 X44.364 Y90.575
G0 X43.677 Y89.292
G0 X43.075 Y87.934
G0 X42.581 Y86.538
G0 X42.198 Y85.124
G0 X41.919 Y83.681
G0 X41.751 Y82.223
G0 X41.693 Y80.742
G0 X41.748 Y79.261
G0 X41.911 Y77.817
G0 X42.189 Y76.35
G0 X42.568 Y74.945
G0 X43.059 Y73.547
G0 X43.652 Y72.2
G0 X44.351 Y70.888
G0 X45.135 Y69.652
G0 X45.632 Y68.985
G0 X61.432 Y49.826
G0 X61.247 Y48.404
G0 X55.233 Y28.454
G0 X55.332 Y28.437
;TYPE:WALL-INNER
G1 F600 E13.03809
G1 F900 X55.578 Y28.394 E13.04641
G1 X92.698 Y21.848 E14.30197
G1 X118.512 Y27.637 E15.1832
G1 X118.96 Y27.825 E15.19938
G1 X119.371 Y28.086 E15.2156
G1 X119.735 Y28.413 E15.2319
G1 X120.033 Y28.788 E15.24785
G1 X120.267 Y29.213 E15.26401
G1 X120.429 Y29.678 E15.28042
G1 X120.509 Y30.149 E15.29633
G1 X120.509 Y30.641 E15.31272
G1 X120.429 Y31.114 E15.3287
G1 X120.268 Y31.576 E15.345
G1 X120.038 Y31.993 E15.36086
G1 X119.731 Y32.379 E15.37729
G1 X119.367 Y32.707 E15.39361
G1 X118.96 Y32.965 E15.40966
G1 X118.516 Y33.151 E15.4257
G1 X118.005 Y33.27 E15.44317
G1 X79.626 Y38.888 E16.73522
G1 X78.59 Y39.092 E16.77039
G1 X77.559 Y39.405 E16.80628
G1 X76.567 Y39.82 E16.8421
G1 X75.621 Y40.332 E16.87793
G1 X74.73 Y40.936 E16.91378
G1 X73.904 Y41.626 E16.94964
G1 X73.175 Y42.371 E16.98436
G1 X72.203 Y43.388 E17.03122
G1 X71.2 Y44.291 E17.07617
G1 X70.106 Y45.136 E17.12222
G1 X68.969 Y45.884 E17.16755
G1 X67.766 Y46.552 E17.21339
G1 X66.538 Y47.116 E17.2584
G1 X65.255 Y47.593 E17.304
G1 X63.946 Y47.969 E17.34936
G1 X62.592 Y48.25 E17.39543
G1 X61.243 Y48.424 E17.44074
G1 X59.882 Y48.498 E17.48614
G1 X58.519 Y48.467 E17.53155
G1 X57.148 Y48.332 E17.57744
G1 X55.807 Y48.098 E17.62279
G1 X54.482 Y47.761 E17.66833
G1 X53.175 Y47.323 E17.71424
G1 X51.938 Y46.8 E17.75898
G1 X50.708 Y46.167 E17.80506
G1 X49.549 Y45.456 E17.85035
G1 X48.445 Y44.657 E17.89575
G1 X47.393 Y43.768 E17.94163
G1 X46.425 Y42.816 E17.98685
G1 X45.525 Y41.787 E18.03239
G1 X44.703 Y40.69 E18.07805
G1 X43.968 Y39.533 E18.12371
G1 X43.326 Y38.335 E18.16898
G1 X42.772 Y37.083 E18.21459
G1 X42.317 Y35.797 E18.26003
G1 X41.959 Y34.479 E18.30552
G1 X41.7 Y33.13 E18.35128
G1 X41.545 Y31.78 E18.39654
G1 X41.492 Y30.411 E18.44218
G1 X41.543 Y29.034 E18.48808
G1 X41.694 Y27.691 E18.5331
G1 X41.951 Y26.342 E18.57884
G1 X42.304 Y25.036 E18.6239
G1 X42.761 Y23.736 E18.66981
G1 X43.313 Y22.483 E18.71541
G1 X43.957 Y21.274 E18.76104
G1 X44.693 Y20.115 E18.80678
G1 X45.502 Y19.032 E18.85181
G1 X46.399 Y18.001 E18.89733
G1 X47.061 Y17.337 E18.92856
G1 X47.762 Y16.714 E18.9598
G1 X48.3 Y16.29 E18.98262
G1 X71.823 Y16.29 E19.76618
G1 X72.076 Y16.42 E19.77565
G1 X72.381 Y16.576 E19.78706
G1 X72.717 Y16.791 E19.80035
G1 X72.429 Y16.841 E19.80223
G1 X72.092 Y16.9 E19.81113
G1 X53.865 Y20.115 E20.42765
G1 X55.289 Y28.191 E20.70081
G1 X55.332 Y28.437 E20.70618
G0 F2625 X55.233 Y28.454
G0 X117.019 Y28.143
G0 X117.044 Y28.239
G1 F900 X116.506 Y28.464 E20.72561
G1 X116.044 Y28.817 E20.74497
G1 X115.689 Y29.279 E20.76438
G1 X115.467 Y29.817 E20.78377
G1 X115.39 Y30.395 E20.80319
G1 X115.467 Y30.973 E20.82261
G1 X115.689 Y31.51 E20.84197
G1 X116.043 Y31.973 E20.86138
G1 X116.506 Y32.326 E20.88078
G1 X117.044 Y32.551 E20.9002
G1 X117.621 Y32.626 E20.91959
G1 X118.199 Y32.551 E20.939
G1 X118.738 Y32.326 E20.95846
G1 X119.199 Y31.973 E20.9778
G1 X119.553 Y31.511 E20.99718
G1 X119.777 Y30.972 E21.01663
G1 X119.852 Y30.395 E21.03601
G1 X119.777 Y29.818 E21.05539
G1 X119.553 Y29.278 E21.07486
G1 X119.198 Y28.817 E21.09425
G1 X118.738 Y28.464 E21.11356
G1 X118.199 Y28.239 E21.13302
G1 X117.621 Y28.164 E21.15243
G1 X117.044 Y28.239 E21.17181
G0 F2625 X117.019 Y28.143
G0 X116.487 Y28.43
G0 X116.014 Y28.791
G0 X115.655 Y29.259
G0 X115.592 Y29.413
G0 X115.3 Y30.315
G0 X115.894 Y30.395
;TYPE:WALL-OUTER
G1 F900 X115.954 Y30.842 E21.18684
G1 X116.126 Y31.258 E21.20183
G1 X116.4 Y31.616 E21.21685
G1 X116.758 Y31.89 E21.23187
G1 X117.175 Y32.064 E21.24692
G1 X117.621 Y32.122 E21.2619
G1 X118.068 Y32.064 E21.27691
G1 X118.485 Y31.89 E21.29196
G1 X118.842 Y31.616 E21.30695
G1 X119.117 Y31.258 E21.32199
G1 X119.29 Y30.842 E21.337
G1 X119.348 Y30.395 E21.35201
G1 X119.29 Y29.948 E21.36703
G1 X119.117 Y29.531 E21.38207
G1 X118.842 Y29.174 E21.39708
G1 X118.485 Y28.9 E21.41207
G1 X118.068 Y28.726 E21.42712
G1 X117.621 Y28.668 E21.44213
G1 X117.175 Y28.726 E21.45712
G1 X116.758 Y28.9 E21.47217
G1 X116.4 Y29.174 E21.48718
G1 X116.126 Y29.531 E21.50217
G1 X115.954 Y29.948 E21.5172
G1 X115.894 Y30.395 E21.53222
G0 F2625 X115.927 Y30.642
G0 X115.333 Y30.721
G0 X55.31 Y28.47
G0 X53.832 Y20.093
G0 X54.34 Y19.93
G0 X54.444 Y20.521
G1 F900 X54.487 Y20.767 E21.54054
G1 X55.738 Y27.858 E21.78039
G1 X92.711 Y21.338 E23.03098
G1 X118.095 Y27.027 E23.89751
G1 X118.668 Y27.16 E23.9171
G1 X119.191 Y27.38 E23.936
G1 X119.674 Y27.686 E23.95505
G1 X120.099 Y28.068 E23.97408
G1 X120.452 Y28.512 E23.99298
G1 X120.725 Y29.009 E24.01186
G1 X120.915 Y29.552 E24.03103
G1 X121.009 Y30.107 E24.04978
G1 X121.009 Y30.683 E24.06896
G1 X120.915 Y31.239 E24.08775
G1 X120.726 Y31.78 E24.10684
G1 X120.455 Y32.273 E24.12558
G1 X120.095 Y32.725 E24.14482
G1 X119.674 Y33.104 E24.16369
G1 X119.191 Y33.41 E24.18274
G1 X118.672 Y33.628 E24.20149
G1 X118.095 Y33.762 E24.22122
G1 X79.711 Y39.381 E25.51343
G1 X78.711 Y39.578 E25.54738
G1 X77.729 Y39.876 E25.58157
G1 X76.783 Y40.272 E25.61573
G1 X75.881 Y40.76 E25.64989
G1 X75.031 Y41.336 E25.68409
G1 X74.244 Y41.994 E25.71826
G1 X73.534 Y42.719 E25.75207
G1 X72.553 Y43.746 E25.79937
G1 X71.515 Y44.68 E25.84589
G1 X70.398 Y45.543 E25.89291
G1 X69.232 Y46.31 E25.9394
G1 X67.994 Y46.997 E25.98656
G1 X66.724 Y47.58 E26.03311
G1 X65.409 Y48.069 E26.07984
G1 X64.065 Y48.455 E26.12642
G1 X62.68 Y48.743 E26.17354
G1 X61.294 Y48.922 E26.22009
G1 X59.885 Y48.998 E26.2671
G1 X58.485 Y48.966 E26.31374
G1 X57.08 Y48.828 E26.36077
G1 X55.703 Y48.588 E26.40733
G1 X54.346 Y48.243 E26.45397
G1 X53.002 Y47.792 E26.50119
G1 X51.716 Y47.248 E26.5477
G1 X50.473 Y46.609 E26.59426
G1 X49.268 Y45.87 E26.64135
G1 X48.133 Y45.048 E26.68803
G1 X47.059 Y44.141 E26.73485
G1 X46.064 Y43.162 E26.78135
G1 X45.133 Y42.098 E26.82844
G1 X44.292 Y40.975 E26.87518
G1 X43.534 Y39.783 E26.92223
G1 X42.879 Y38.561 E26.96842
G1 X42.307 Y37.267 E27.01554
G1 X41.836 Y35.937 E27.06254
G1 X41.473 Y34.599 E27.10872
G1 X41.205 Y33.201 E27.15614
G1 X41.046 Y31.822 E27.20238
G1 X40.991 Y30.411 E27.24941
G1 X41.044 Y28.999 E27.29648
G1 X41.199 Y27.622 E27.34264
G1 X41.465 Y26.224 E27.39004
G1 X41.826 Y24.886 E27.43621
G1 X42.295 Y23.554 E27.48325
G1 X42.86 Y22.27 E27.52997
G1 X43.526 Y21.02 E27.57715
G1 X44.279 Y19.834 E27.62395
G1 X45.108 Y18.723 E27.67012
G1 X46.035 Y17.658 E27.71716
G1 X46.72 Y16.971 E27.74947
G1 X47.439 Y16.332 E27.78151
G1 X48.127 Y15.79 E27.81069
G1 X71.944 Y15.79 E28.60404
G1 X72.632 Y16.143 E28.6298
G1 X73.349 Y16.602 E28.65816
G1 X73.518 Y16.735 E28.66532
G1 X73.957 Y17.08 E28.68392
G1 X73.407 Y17.177 E28.69403
G1 X54.69 Y20.478 E29.32712
G1 X54.444 Y20.521 E29.33249
G0 F2625 X54.487 Y20.767
G0 X53.896 Y20.87
G0 X53.297 Y19.717
;TYPE:SKIN
G1 F900 X54.934 Y29.005 E29.64665
G1 X92.685 Y22.347 E30.92355
G1 X116.883 Y27.774 E31.74962
G1 X116.259 Y28.037 E31.77218
G1 X115.695 Y28.467 E31.7958
G1 X115.261 Y29.032 E31.81953
G1 X114.989 Y29.689 E31.84322
G1 X114.896 Y30.395 E31.86694
