;Generated by Cura LulzBot Edition GCodeWriter Version: 3.6.20
;FLAVOR:Marlin
;TIME:16424
;Filament used: 8.78791m
;Layer height: 0.25
;Generated with Cura_SteamEngine 3.6.20
M82 ;absolute extrusion mode
;This G-Code has been generated specifically for the LulzBot Mini 2 with SE 0.5mm Tool Head
M73 P0                  ; clear GLCD progress bar
M75 					; Start GLCD Print Timer
G26 					; clear potential 'probe fail' condition
M107 					; disable fans
M420 S0                 ; disable leveling matrix
G90 					; absolute positioning
M82 					; set extruder to absolute mode
G92 E0 					; set extruder position to 0
M140 S60.0 ; start bed heating up
G28 					; home all axes
G0 X0 Y187 Z156 F200 			; move away from endstops
M117 Mini 2 Wiping...			; progress indicator message on LCD
M109 R140 	; soften filament before retraction
G1 E-15 F75 				; retract filament
M109 R140 	; wait for extruder to reach wiping temp
G1 X45 Y176 F11520 			; move above wiper pad
G1 Z0 F1200 				; push nozzle into wiper
G1 X45 Y178 Z-.5 F4000		; wiping
G1 X55 Y176 Z-.5 F4000		; wiping
G1 X45 Y177 Z0 F4000		; wiping
G1 X55 Y176 F4000		; wiping
G1 X45 Y178 F4000		; wiping
G1 X55 Y176 F4000		; wiping
G1 X45 Y178 F4000		; wiping
G1 X55 Y176 F4000		; wiping
G1 X60 Y178 F4000		; wiping
G1 X80 Y176 F4000		; wiping
G1 X60 Y178 F4000		; wiping
G1 X80 Y176 F4000		; wiping
G1 X60 Y178 F4000		; wiping
G1 X90 Y176 F4000		; wiping
G1 X80 Y178 F4000		; wiping
G1 X100 Y176 F4000		; wiping
G1 X80 Y178 F4000		; wiping
G1 X100 Y176 F4000		; wiping
G1 X80 Y178 F4000		; wiping
G1 X100 Y176 F4000		; wiping
G1 X110 Y178 F4000		; wiping
G1 X100 Y176 F4000		; wiping
G1 X110 Y178 F4000		; wiping
G1 X100 Y176 F4000		; wiping
G1 X110 Y178 F4000		; wiping
G1 X115 Y176 Z-0.5 F1000	; wiping
G1 Z10					; raise extruder
G28 X0 Y0				; home X and Y
M109 R140	; wait for extruder to reach probe temp
M204 S300				; set probing acceleration
G29					; start auto-leveling sequence
M420 S1                     ; enable leveling matrix
M425 Z			     		; use measured Z backlash for compensation
M425 Z F0		     		; turn off measured Z backlash compensation. (if activated in the quality settings, this command will automatically be ignored)
M204 S2000				; restore standard acceleration
G1 X5 Y15 Z10 F5000			; move up off last probe point
G4 S1					; pause
M400					; wait for moves to finish
M117 Heating...				; progress indicator message on LCD
M109 R210 ; wait for extruder to reach initial printing temp
M190 R60.0 ; wait for bed to reach printing temp
G1 Z2 E0 F75				; prime tiny bit of filment into the nozzle
M117 Mini 2 Printing...		; progress indicator message on LCD

M221 S100 T0
G92 E0
G1 F600 E-1.75
;LAYER_COUNT:32
;LAYER:0
M107
G0 F2625 X2.405 Y2.267 Z0.425
;TYPE:SKIRT
G1 F600 E0
G1 F900 X2.792 Y1.935 E0.01698
G1 X3.227 Y1.669 E0.03397
G1 X3.697 Y1.473 E0.05093
G1 X4.192 Y1.354 E0.06789
G1 X4.705 Y1.313 E0.08503
G1 X155.91 Y1.314 E5.12173
G1 X156.418 Y1.354 E5.1387
G1 X156.913 Y1.473 E5.15566
G1 X157.384 Y1.668 E5.17264
G1 X157.819 Y1.934 E5.18962
G1 X158.206 Y2.264 E5.20656
G1 X158.538 Y2.651 E5.22355
G1 X158.804 Y3.086 E5.24053
G1 X159 Y3.556 E5.2575
G1 X159.119 Y4.051 E5.27446
G1 X159.16 Y4.564 E5.2916
G1 X159.16 Y157.445 E10.38412
G1 X159.12 Y157.953 E10.40109
G1 X159.001 Y158.448 E10.41805
G1 X158.806 Y158.919 E10.43503
G1 X158.54 Y159.354 E10.45202
G1 X158.21 Y159.741 E10.46896
G1 X157.823 Y160.073 E10.48594
G1 X157.388 Y160.339 E10.50293
G1 X156.918 Y160.535 E10.51989
G1 X156.423 Y160.654 E10.53685
G1 X155.91 Y160.695 E10.55399
G1 X4.705 Y160.695 E15.59068
G1 X4.197 Y160.655 E15.60766
G1 X3.702 Y160.536 E15.62462
G1 X3.231 Y160.341 E15.6416
G1 X2.796 Y160.075 E15.65858
G1 X2.409 Y159.745 E15.67552
G1 X2.077 Y159.358 E15.69251
G1 X1.811 Y158.923 E15.70949
G1 X1.615 Y158.453 E15.72645
G1 X1.496 Y157.958 E15.74341
G1 X1.455 Y157.445 E15.76056
G1 X1.455 Y4.563 E20.85311
G1 X1.495 Y4.055 E20.87008
G1 X1.614 Y3.56 E20.88704
G1 X1.809 Y3.089 E20.90402
G1 X2.075 Y2.654 E20.92101
G1 X2.405 Y2.267 E20.93795
G1 F600 E19.18795
;MESH:
G0 F2625 X4.031 Y5.318
G0 X5.46 Y5.318
G0 X17.113 Y43.178
G0 X17.137 Y43.274
;TYPE:WALL-INNER
G1 F600 E20.93795
G1 F900 X16.592 Y43.501 E20.95762
G1 X16.126 Y43.858 E20.97717
G1 X15.768 Y44.325 E20.99677
G1 X15.541 Y44.87 E21.01644
G1 X15.465 Y45.454 E21.03605
G1 X15.541 Y46.038 E21.05567
G1 X15.768 Y46.583 E21.07534
G1 X16.126 Y47.049 E21.09491
G1 X16.592 Y47.407 E21.11449
G1 X17.137 Y47.634 E21.13415
G1 X17.721 Y47.71 E21.15377
G1 X18.305 Y47.634 E21.17339
G1 X18.85 Y47.407 E21.19305
G1 X19.317 Y47.049 E21.21265
G1 X19.674 Y46.583 E21.23221
G1 X19.901 Y46.038 E21.25187
G1 X19.977 Y45.454 E21.27149
G1 X19.901 Y44.87 E21.29111
G1 X19.675 Y44.326 E21.31073
G1 X19.317 Y43.858 E21.33036
G1 X18.849 Y43.5 E21.34999
G1 X18.305 Y43.274 E21.36961
G1 X17.721 Y43.198 E21.38922
G1 X17.137 Y43.274 E21.40884
G0 F2625 X17.113 Y43.178
G0 X16.57 Y43.468
G0 X16.098 Y43.83
G0 X15.735 Y44.303
G0 X15.503 Y44.861
G0 X15.44 Y45.34
G0 X17.113 Y74.678
G0 X17.137 Y74.774
G1 F900 X16.592 Y75.001 E21.42851
G1 X16.126 Y75.358 E21.44806
G1 X15.768 Y75.825 E21.46766
G1 X15.541 Y76.37 E21.48733
G1 X15.465 Y76.954 E21.50695
G1 X15.541 Y77.538 E21.52656
G1 X15.768 Y78.083 E21.54623
G1 X16.126 Y78.549 E21.5658
G1 X16.592 Y78.907 E21.58538
G1 X17.137 Y79.134 E21.60504
G1 X17.721 Y79.21 E21.62466
G1 X18.305 Y79.134 E21.64428
G1 X18.85 Y78.907 E21.66394
G1 X19.317 Y78.549 E21.68355
G1 X19.674 Y78.083 E21.7031
G1 X19.901 Y77.538 E21.72277
G1 X19.977 Y76.954 E21.74238
G1 X19.901 Y76.37 E21.762
G1 X19.675 Y75.826 E21.78162
G1 X19.317 Y75.358 E21.80125
G1 X18.849 Y75 E21.82088
G1 X18.305 Y74.774 E21.8405
G1 X17.721 Y74.698 E21.86012
G1 X17.137 Y74.774 E21.87973
G0 F2625 X17.113 Y74.678
G0 X17.605 Y74.662
G0 X48.393 Y78.732
G0 X48.462 Y78.663
G1 F900 X48.956 Y79.041 E21.90045
G1 X49.53 Y79.278 E21.92114
G1 X50.145 Y79.36 E21.94181
G1 X50.763 Y79.279 E21.96257
G1 X51.337 Y79.041 E21.98327
G1 X51.83 Y78.663 E22.00396
G1 X52.209 Y78.169 E22.0247
G1 X52.447 Y77.594 E22.04543
G1 X52.527 Y76.979 E22.06609
G1 X52.447 Y76.363 E22.08678
G1 X52.208 Y75.787 E22.10755
G1 X51.83 Y75.295 E22.12822
G1 X51.338 Y74.917 E22.14889
G1 X50.762 Y74.678 E22.16966
G1 X50.146 Y74.598 E22.19035
G1 X49.531 Y74.678 E22.21101
G1 X48.956 Y74.916 E22.23174
G1 X48.462 Y75.295 E22.25248
G1 X48.084 Y75.788 E22.27317
G1 X47.846 Y76.362 E22.29387
G1 X47.765 Y76.98 E22.31463
G1 X47.847 Y77.595 E22.3353
G1 X48.084 Y78.169 E22.35599
G1 X48.462 Y78.663 E22.37671
G0 F2625 X48.393 Y78.732
G0 X48.939 Y79.077
G0 X49.519 Y79.315
G0 X50.026 Y79.383
G0 X77.543 Y78.732
G0 X77.612 Y78.663
G1 F900 X78.106 Y79.041 E22.39743
G1 X78.68 Y79.278 E22.41811
G1 X79.295 Y79.36 E22.43878
G1 X79.913 Y79.279 E22.45954
G1 X80.487 Y79.041 E22.48024
G1 X80.98 Y78.663 E22.50093
G1 X81.359 Y78.169 E22.52168
G1 X81.597 Y77.594 E22.5424
G1 X81.677 Y76.979 E22.56306
G1 X81.597 Y76.363 E22.58375
G1 X81.358 Y75.787 E22.60453
G1 X80.98 Y75.295 E22.62519
G1 X80.488 Y74.917 E22.64586
G1 X79.912 Y74.678 E22.66663
G1 X79.296 Y74.598 E22.68733
G1 X78.681 Y74.678 E22.70798
G1 X78.106 Y74.916 E22.72871
G1 X77.612 Y75.295 E22.74945
G1 X77.234 Y75.788 E22.77015
G1 X76.996 Y76.362 E22.79085
G1 X76.915 Y76.98 E22.81161
G1 X76.997 Y77.595 E22.83228
G1 X77.234 Y78.169 E22.85296
G1 X77.612 Y78.663 E22.87368
G0 F2625 X77.543 Y78.732
G0 X78.089 Y79.077
G0 X78.558 Y79.269
G0 X91.654 Y82.233
G0 X91.678 Y82.329
G1 F900 X91.097 Y82.571 E22.89465
G1 X90.601 Y82.952 E22.91548
G1 X90.218 Y83.45 E22.93641
G1 X89.976 Y84.031 E22.95737
G1 X89.895 Y84.654 E22.9783
G1 X89.976 Y85.277 E22.99923
G1 X90.218 Y85.858 E23.02019
G1 X90.601 Y86.354 E23.04107
G1 X91.097 Y86.737 E23.06194
G1 X91.678 Y86.979 E23.0829
G1 X92.301 Y87.06 E23.10383
G1 X92.924 Y86.979 E23.12476
G1 X93.505 Y86.737 E23.14572
G1 X94.003 Y86.354 E23.16665
G1 X94.384 Y85.858 E23.18748
G1 X94.626 Y85.277 E23.20845
G1 X94.707 Y84.654 E23.22938
G1 X94.626 Y84.031 E23.2503
G1 X94.385 Y83.451 E23.27123
G1 X94.003 Y82.952 E23.29216
G1 X93.504 Y82.57 E23.31309
G1 X92.924 Y82.329 E23.33401
G1 X92.301 Y82.248 E23.35494
G1 X91.678 Y82.329 E23.37587
G0 F2625 X91.654 Y82.233
G0 X91.465 Y68.014
G0 X91.543 Y67.421
G0 X91.775 Y66.863
G0 X92.138 Y66.39
G0 X92.404 Y66.186
G0 X93.153 Y65.738
G0 X93.177 Y65.834
G1 F900 X92.632 Y66.061 E23.39553
G1 X92.166 Y66.418 E23.41509
G1 X91.808 Y66.885 E23.43469
G1 X91.581 Y67.43 E23.45435
G1 X91.505 Y68.014 E23.47397
G1 X91.581 Y68.598 E23.49359
G1 X91.808 Y69.143 E23.51325
G1 X92.166 Y69.609 E23.53283
G1 X92.632 Y69.967 E23.5524
G1 X93.177 Y70.194 E23.57207
G1 X93.761 Y70.27 E23.59169
G1 X94.345 Y70.194 E23.6113
G1 X94.89 Y69.967 E23.63097
G1 X95.357 Y69.609 E23.65057
G1 X95.714 Y69.143 E23.67012
G1 X95.941 Y68.598 E23.68979
G1 X96.017 Y68.014 E23.70941
G1 X95.941 Y67.43 E23.72903
G1 X95.715 Y66.886 E23.74865
G1 X95.357 Y66.418 E23.76828
G1 X94.889 Y66.06 E23.7879
G1 X94.345 Y65.834 E23.80752
G1 X93.761 Y65.758 E23.82714
G1 X93.177 Y65.834 E23.84676
G0 F2625 X93.153 Y65.738
G0 X132.113 Y43.178
G0 X132.137 Y43.274
G1 F900 X131.592 Y43.501 E23.86643
G1 X131.126 Y43.858 E23.88598
G1 X130.768 Y44.325 E23.90558
G1 X130.541 Y44.87 E23.92525
G1 X130.465 Y45.454 E23.94486
G1 X130.541 Y46.038 E23.96448
G1 X130.768 Y46.583 E23.98415
G1 X131.126 Y47.049 E24.00372
G1 X131.592 Y47.407 E24.0233
G1 X132.137 Y47.634 E24.04296
G1 X132.721 Y47.71 E24.06258
G1 X133.305 Y47.634 E24.0822
G1 X133.85 Y47.407 E24.10186
G1 X134.317 Y47.049 E24.12146
G1 X134.674 Y46.583 E24.14102
G1 X134.901 Y46.038 E24.16068
G1 X134.977 Y45.454 E24.1803
G1 X134.901 Y44.87 E24.19992
G1 X134.675 Y44.326 E24.21954
G1 X134.317 Y43.858 E24.23917
G1 X133.849 Y43.5 E24.2588
G1 X133.305 Y43.274 E24.27842
G1 X132.721 Y43.198 E24.29803
G1 X132.137 Y43.274 E24.31765
G0 F2625 X132.113 Y43.178
G0 X74.07 Y8.04
G0 X73.598 Y7.677
G0 X73.235 Y7.205
G0 X73.003 Y6.647
G0 X72.959 Y6.312
G0 X72.945 Y5.446
G0 X73.041 Y5.47
G1 F900 X73.017 Y5.658 E24.32397
G1 X72.965 Y6.054 E24.33727
G1 X73.041 Y6.638 E24.35689
G1 X73.268 Y7.183 E24.37655
G1 X73.626 Y7.649 E24.39613
G1 X74.092 Y8.007 E24.4157
G1 X74.637 Y8.234 E24.43537
G1 X75.221 Y8.31 E24.45498
G1 X75.805 Y8.234 E24.4746
G1 X76.35 Y8.007 E24.49427
G1 X76.817 Y7.649 E24.51387
G1 X77.174 Y7.183 E24.53342
G1 X77.401 Y6.638 E24.55309
G1 X77.477 Y6.054 E24.57271
G1 X77.425 Y5.658 E24.58601
G1 X77.401 Y5.47 E24.59232
G1 X77.332 Y5.304 E24.59831
G1 X77.401 Y5.304
G1 X77.591 Y5.304 E24.60306
G1 X155.169 Y5.304 E27.18721
G1 X155.169 Y125.429 E31.18862
G1 X155.169 Y125.943 E31.20574
G1 X155.169 Y126.308 E31.2179
G1 X155.018 Y125.943 E31.22052
G1 X154.706 Y125.535 E31.23197
G1 X154.651 Y125.464 E31.23496
G1 X154.172 Y125.097 E31.25506
G1 X153.614 Y124.866 E31.27518
G1 X153.016 Y124.788 E31.29527
G1 X152.419 Y124.866 E31.31532
G1 X151.861 Y125.097 E31.33544
G1 X151.382 Y125.464 E31.35554
G1 X151.016 Y125.942 E31.37559
G1 X150.783 Y126.5 E31.39573
G1 X150.705 Y127.099 E31.41586
G1 X150.783 Y127.697 E31.43594
G1 X151.016 Y128.255 E31.45609
G1 X151.382 Y128.733 E31.47614
G1 X151.86 Y129.099 E31.49619
G1 X152.418 Y129.332 E31.51634
G1 X153.016 Y129.41 E31.53643
G1 X153.615 Y129.332 E31.55655
G1 X154.173 Y129.099 E31.57669
G1 X154.651 Y128.733 E31.59674
G1 X154.706 Y128.662 E31.59973
G1 X155.018 Y128.254 E31.61684
G1 X155.169 Y127.889 E31.63
G1 X155.169 Y128.254 E31.63163
G1 X155.169 Y128.768 E31.64309
G1 X155.169 Y156.704 E32.57365
G1 X5.446 Y156.704 E37.56098
G1 X5.446 Y5.304 E42.60417
G1 X72.851 Y5.304 E44.84945
G1 X73.041 Y5.304 E44.8542
G1 X73.11 Y5.304 E44.8565
G1 X73.041 Y5.47 E44.85949
G0 F2625 X72.945 Y5.446
G0 X47.808 Y76.353
G0 X38.187 Y109.276
G0 X38.283 Y109.3
G1 F900 X38.205 Y109.899 E44.87961
G1 X38.283 Y110.497 E44.8997
G1 X38.516 Y111.055 E44.91984
G1 X38.882 Y111.533 E44.93989
G1 X39.36 Y111.899 E44.95995
G1 X39.918 Y112.132 E44.98009
G1 X40.516 Y112.21 E45.00018
G1 X41.115 Y112.132 E45.0203
G1 X41.673 Y111.899 E45.04044
G1 X42.151 Y111.533 E45.06049
G1 X42.518 Y111.054 E45.0806
G1 X42.749 Y110.496 E45.10071
G1 X42.827 Y109.899 E45.12077
G1 X42.749 Y109.301 E45.14086
G1 X42.518 Y108.743 E45.16097
G1 X42.151 Y108.264 E45.18107
G1 X41.672 Y107.897 E45.20117
G1 X41.114 Y107.666 E45.22129
G1 X40.516 Y107.588 E45.24138
G1 X39.919 Y107.666 E45.26143
G1 X39.361 Y107.897 E45.28155
G1 X38.882 Y108.264 E45.30165
G1 X38.516 Y108.742 E45.32171
G1 X38.283 Y109.3 E45.34185
G0 F2625 X38.187 Y109.276
G0 X25.276 Y107.548
G0 X24.67 Y107.628
G0 X24.1 Y107.863
G0 X23.614 Y108.236
G0 X23.405 Y108.509
G0 X22.947 Y109.276
G0 X23.043 Y109.3
G1 F900 X22.965 Y109.899 E45.36197
G1 X23.043 Y110.497 E45.38206
G1 X23.276 Y111.055 E45.4022
G1 X23.642 Y111.533 E45.42225
G1 X24.12 Y111.899 E45.44231
G1 X24.678 Y112.132 E45.46245
G1 X25.276 Y112.21 E45.48254
G1 X25.875 Y112.132 E45.50266
G1 X26.433 Y111.899 E45.5228
G1 X26.911 Y111.533 E45.54286
G1 X27.278 Y111.054 E45.56296
G1 X27.509 Y110.496 E45.58307
G1 X27.587 Y109.899 E45.60313
G1 X27.509 Y109.301 E45.62322
G1 X27.278 Y108.743 E45.64333
G1 X26.911 Y108.264 E45.66344
G1 X26.432 Y107.897 E45.68354
G1 X25.874 Y107.666 E45.70365
G1 X25.276 Y107.588 E45.72374
G1 X24.679 Y107.666 E45.7438
G1 X24.121 Y107.897 E45.76391
G1 X23.642 Y108.264 E45.78401
G1 X23.276 Y108.742 E45.80407
G1 X23.043 Y109.3 E45.82421
G0 F2625 X22.947 Y109.276
G0 X17.113 Y129.678
G0 X17.137 Y129.774
G1 F900 X16.592 Y130.001 E45.84388
G1 X16.126 Y130.358 E45.86343
G1 X15.768 Y130.825 E45.88303
G1 X15.541 Y131.37 E45.9027
G1 X15.465 Y131.954 E45.92231
G1 X15.541 Y132.538 E45.94193
G1 X15.768 Y133.083 E45.9616
G1 X16.126 Y133.549 E45.98117
G1 X16.592 Y133.907 E46.00075
G1 X17.137 Y134.134 E46.02041
G1 X17.721 Y134.21 E46.04003
G1 X18.305 Y134.134 E46.05965
G1 X18.85 Y133.907 E46.07931
G1 X19.317 Y133.549 E46.09891
G1 X19.674 Y133.083 E46.11847
G1 X19.901 Y132.538 E46.13813
G1 X19.977 Y131.954 E46.15775
G1 X19.901 Y131.37 E46.17737
G1 X19.675 Y130.826 E46.19699
G1 X19.317 Y130.358 E46.21662
G1 X18.849 Y130 E46.23625
G1 X18.305 Y129.774 E46.25587
G1 X17.721 Y129.698 E46.27549
G1 X17.137 Y129.774 E46.2951
G0 F2625 X17.113 Y129.678
G0 X17.605 Y129.662
G0 X48.393 Y133.282
G0 X48.462 Y133.213
G1 F900 X48.956 Y133.591 E46.31582
G1 X49.53 Y133.828 E46.33651
G1 X50.145 Y133.91 E46.35718
G1 X50.763 Y133.829 E46.37794
G1 X51.337 Y133.591 E46.39864
G1 X51.83 Y133.213 E46.41933
G1 X52.209 Y132.719 E46.44007
G1 X52.447 Y132.144 E46.4608
G1 X52.527 Y131.529 E46.48146
G1 X52.447 Y130.913 E46.50215
G1 X52.208 Y130.337 E46.52292
G1 X51.83 Y129.845 E46.54359
G1 X51.338 Y129.467 E46.56426
G1 X50.762 Y129.228 E46.58503
G1 X50.146 Y129.148 E46.60572
G1 X49.531 Y129.228 E46.62638
G1 X48.956 Y129.466 E46.64711
G1 X48.462 Y129.845 E46.66785
G1 X48.084 Y130.338 E46.68854
G1 X47.846 Y130.912 E46.70924
G1 X47.765 Y131.53 E46.73
G1 X47.847 Y132.145 E46.75067
G1 X48.084 Y132.719 E46.77136
G1 X48.462 Y133.213 E46.79208
G0 F2625 X48.393 Y133.282
G0 X48.939 Y133.627
G0 X49.519 Y133.865
G0 X50.026 Y133.933
G0 X77.543 Y133.282
G0 X77.612 Y133.213
G1 F900 X78.106 Y133.591 E46.8128
G1 X78.68 Y133.828 E46.83348
G1 X79.295 Y133.91 E46.85415
G1 X79.913 Y133.829 E46.87491
G1 X80.487 Y133.591 E46.89561
G1 X80.98 Y133.213 E46.9163
G1 X81.359 Y132.719 E46.93704
G1 X81.597 Y132.144 E46.95777
G1 X81.677 Y131.529 E46.97843
G1 X81.597 Y130.913 E46.99912
G1 X81.358 Y130.337 E47.0199
G1 X80.98 Y129.845 E47.04056
G1 X80.488 Y129.467 E47.06123
G1 X79.912 Y129.228 E47.082
G1 X79.296 Y129.148 E47.10269
G1 X78.681 Y129.228 E47.12335
G1 X78.106 Y129.466 E47.14408
G1 X77.612 Y129.845 E47.16482
G1 X77.234 Y130.338 E47.18552
G1 X76.996 Y130.912 E47.20621
G1 X76.915 Y131.53 E47.22698
G1 X76.997 Y132.145 E47.24764
G1 X77.234 Y132.719 E47.26833
G1 X77.612 Y133.213 E47.28905
G0 F2625 X77.543 Y133.282
G0 X78.089 Y133.627
G0 X78.669 Y133.865
G0 X79.296 Y133.95
G0 X98.004 Y130.493
G0 X98.028 Y130.589
G1 F900 X97.447 Y130.831 E47.31001
G1 X96.951 Y131.212 E47.33085
G1 X96.568 Y131.71 E47.35178
G1 X96.326 Y132.291 E47.37274
G1 X96.245 Y132.914 E47.39367
G1 X96.326 Y133.537 E47.41459
G1 X96.568 Y134.118 E47.43556
G1 X96.951 Y134.614 E47.45643
G1 X97.447 Y134.997 E47.47731
