;Generated by Cura LulzBot Edition GCodeWriter Version: 3.6.20
;FLAVOR:Marlin
;TIME:2012
;Filament used: 0.860934m
;Layer height: 0.25
;Generated with Cura_SteamEngine 3.6.20
M82 ;absolute extrusion mode
;This G-Code has been generated specifically for the LulzBot Mini 2 with SE 0.5mm Tool Head
M73 P0                  ; clear GLCD progress bar
M75 					; Start GLCD Print Timer
G26 					; clear potential 'probe fail' condition
M107 					; disable fans
M420 S0                 ; disable leveling matrix
G90 					; absolute positioning
M82 					; set extruder to absolute mode
G92 E0 					; set extruder position to 0
M140 S60.0 ; start bed heating up
G28 					; home all axes
G0 X0 Y187 Z156 F200 			; move away from endstops
M117 Mini 2 Wiping...			; progress indicator message on LCD
M109 R140 	; soften filament before retraction
G1 E-15 F75 				; retract filament
M109 R140 	; wait for extruder to reach wiping temp
G1 X45 Y176 F11520 			; move above wiper pad
G1 Z0 F1200 				; push nozzle into wiper
G1 X45 Y178 Z-.5 F4000		; wiping
G1 X55 Y176 Z-.5 F4000		; wiping
G1 X45 Y177 Z0 F4000		; wiping
G1 X55 Y176 F4000		; wiping
G1 X45 Y178 F4000		; wiping
G1 X55 Y176 F4000		; wiping
G1 X45 Y178 F4000		; wiping
G1 X55 Y176 F4000		; wiping
G1 X60 Y178 F4000		; wiping
G1 X80 Y176 F4000		; wiping
G1 X60 Y178 F4000		; wiping
G1 X80 Y176 F4000		; wiping
G1 X60 Y178 F4000		; wiping
G1 X90 Y176 F4000		; wiping
G1 X80 Y178 F4000		; wiping
G1 X100 Y176 F4000		; wiping
G1 X80 Y178 F4000		; wiping
G1 X100 Y176 F4000		; wiping
G1 X80 Y178 F4000		; wiping
G1 X100 Y176 F4000		; wiping
G1 X110 Y178 F4000		; wiping
G1 X100 Y176 F4000		; wiping
G1 X110 Y178 F4000		; wiping
G1 X100 Y176 F4000		; wiping
G1 X110 Y178 F4000		; wiping
G1 X115 Y176 Z-0.5 F1000	; wiping
G1 Z10					; raise extruder
G28 X0 Y0				; home X and Y
M109 R140	; wait for extruder to reach probe temp
M204 S300				; set probing acceleration
G29					; start auto-leveling sequence
M420 S1                     ; enable leveling matrix
M425 Z			     		; use measured Z backlash for compensation
M425 Z F0		     		; turn off measured Z backlash compensation. (if activated in the quality settings, this command will automatically be ignored)
M204 S2000				; restore standard acceleration
G1 X5 Y15 Z10 F5000			; move up off last probe point
G4 S1					; pause
M400					; wait for moves to finish
M117 Heating...				; progress indicator message on LCD
M109 R210 ; wait for extruder to reach initial printing temp
M190 R60.0 ; wait for bed to reach printing temp
G1 Z2 E0 F75				; prime tiny bit of filment into the nozzle
M117 Mini 2 Printing...		; progress indicator message on LCD

M221 S100 T0
G92 E0
G1 F600 E-1.75
;LAYER_COUNT:48
;LAYER:0
M107
G0 F2625 X33.41 Y73.769 Z0.425
;TYPE:SKIRT
G1 F600 E0
G1 F900 X36.502 Y72.462 E0.11182
G1 X36.818 Y72.345 E0.12304
G1 X42.606 Y70.492 E0.32548
G1 X47.691 Y68.527 E0.50707
G1 X52.644 Y66.283 E0.6882
G1 X57.463 Y63.762 E0.86936
G1 X64.234 Y59.646 E1.13331
G1 X64.491 Y59.503 E1.14311
G1 X67.049 Y58.211 E1.23857
G1 X67.495 Y58.021 E1.25472
G1 X70.142 Y57.089 E1.34819
G1 X70.524 Y56.977 E1.36145
G1 X72.356 Y56.544 E1.42416
G1 X72.751 Y56.472 E1.43754
G1 X75.558 Y56.119 E1.53177
G1 X76.04 Y56.09 E1.54786
G1 X78.889 Y56.101 E1.64276
G1 X79.373 Y56.134 E1.65892
G1 X82.193 Y56.512 E1.7537
G1 X82.665 Y56.607 E1.76973
G1 X85.381 Y57.334 E1.86339
G1 X85.838 Y57.488 E1.87945
G1 X88.464 Y58.569 E1.97405
G1 X88.901 Y58.783 E1.99026
G1 X91.397 Y60.213 E2.08608
G1 X91.711 Y60.415 E2.09851
G1 X93.003 Y61.337 E2.15139
G1 X93.424 Y61.686 E2.1696
G1 X93.701 Y61.983 E2.18313
G1 X94.018 Y62.362 E2.19959
G1 X94.338 Y62.806 E2.21782
G1 X94.59 Y63.293 E2.23608
G1 X94.812 Y63.999 E2.26074
G1 X94.886 Y64.352 E2.27275
G1 X94.959 Y64.894 E2.29097
G1 X94.925 Y65.677 E2.31707
G1 X94.538 Y68.259 E2.40404
G1 X93.921 Y73.692 E2.58618
G1 X93.614 Y79.127 E2.76751
G1 X93.616 Y84.571 E2.94885
G1 X93.924 Y90.005 E3.13015
G1 X94.543 Y95.445 E3.31253
G1 X94.917 Y97.836 E3.39314
G1 X94.962 Y98.382 E3.41139
G1 X94.927 Y98.928 E3.42962
G1 X94.828 Y99.41 E3.44601
G1 X94.659 Y100.024 E3.46722
G1 X94.475 Y100.54 E3.48547
G1 X94.219 Y101.023 E3.50368
G1 X93.894 Y101.464 E3.52193
G1 X93.336 Y101.996 E3.54761
G1 X87.705 Y106.348 E3.78467
G1 X83.548 Y109.948 E3.96785
G1 X81.634 Y111.736 E4.05509
G1 X81.208 Y112.08 E4.07333
G1 X80.736 Y112.358 E4.09158
G1 X80.361 Y112.518 E4.10516
G1 X79.997 Y112.651 E4.11807
G1 X79.471 Y112.801 E4.13629
G1 X78.928 Y112.873 E4.15454
G1 X78.52 Y112.874 E4.16813
G1 X75.568 Y112.724 E4.26659
G1 X75.025 Y112.657 E4.28481
G1 X74.497 Y112.511 E4.30306
G1 X73.996 Y112.289 E4.32131
G1 X73.342 Y111.847 E4.34761
G1 X68.706 Y107.943 E4.54949
G1 X64.339 Y104.685 E4.73098
G1 X59.82 Y101.695 E4.91148
G1 X55.098 Y98.941 E5.09357
G1 X50.251 Y96.472 E5.27476
G1 X45.275 Y94.281 E5.45587
G1 X40.139 Y92.358 E5.63855
G1 X36.3 Y91.083 E5.7733
G1 X35.995 Y90.967 E5.78417
G1 X33.36 Y89.829 E5.87978
G1 X32.875 Y89.576 E5.898
G1 X32.432 Y89.254 E5.91624
G1 X32.04 Y88.872 E5.93447
G1 X31.643 Y88.335 E5.95672
G1 X31.542 Y88.169 E5.96319
G1 X31.293 Y87.682 E5.98141
G1 X31.117 Y87.164 E5.99964
G1 X31.044 Y86.817 E6.01145
G1 X30.955 Y86.265 E6.03007
G1 X30.907 Y85.657 E6.05039
G1 X30.931 Y77.64 E6.31744
G1 X30.973 Y77.094 E6.33568
G1 X31.093 Y76.56 E6.35391
G1 X31.251 Y76.136 E6.36898
G1 X31.44 Y75.708 E6.38457
G1 X31.697 Y75.225 E6.40279
G1 X32.021 Y74.784 E6.42102
G1 X32.407 Y74.396 E6.43925
G1 X32.845 Y74.067 E6.4575
G1 X33.41 Y73.769 E6.47878
G0 F2625 X33.605 Y74.229
G1 F900 X36.697 Y72.922 E6.5906
G1 X36.971 Y72.821 E6.60032
G1 X42.771 Y70.964 E6.80318
G1 X47.892 Y68.985 E6.98606
G1 X52.859 Y66.735 E7.1677
G1 X57.707 Y64.199 E7.34995
G1 X64.494 Y60.073 E7.61452
G1 X64.717 Y59.949 E7.62302
G1 X67.275 Y58.657 E7.71848
G1 X67.661 Y58.492 E7.73246
G1 X70.308 Y57.56 E7.82594
G1 X70.639 Y57.463 E7.83743
G1 X72.471 Y57.03 E7.90014
G1 X72.813 Y56.968 E7.91172
G1 X75.62 Y56.615 E8.00595
G1 X76.039 Y56.59 E8.01994
G1 X78.888 Y56.601 E8.11484
G1 X79.307 Y56.63 E8.12883
G1 X82.127 Y57.008 E8.2236
G1 X82.535 Y57.09 E8.23747
G1 X85.251 Y57.817 E8.33112
G1 X85.648 Y57.951 E8.34508
G1 X88.274 Y59.032 E8.43967
G1 X88.653 Y59.217 E8.45372
G1 X91.149 Y60.647 E8.54954
G1 X91.421 Y60.822 E8.56032
G1 X92.713 Y61.744 E8.61319
G1 X93.103 Y62.071 E8.63014
G1 X93.318 Y62.304 E8.6407
G1 X93.635 Y62.683 E8.65716
G1 X93.93 Y63.098 E8.67412
G1 X94.157 Y63.554 E8.69109
G1 X94.323 Y64.101 E8.71013
G1 X94.397 Y64.454 E8.72215
G1 X94.462 Y64.96 E8.73914
G1 X94.43 Y65.603 E8.76058
G1 X94.043 Y68.184 E8.84752
G1 X93.423 Y73.645 E9.0306
G1 X93.114 Y79.116 E9.21313
G1 X93.116 Y84.582 E9.3952
G1 X93.426 Y90.053 E9.57773
G1 X94.047 Y95.508 E9.76062
G1 X94.423 Y97.913 E9.8417
G1 X94.462 Y98.421 E9.85867
G1 X94.421 Y98.929 E9.87565
G1 X94.345 Y99.277 E9.88751
G1 X94.176 Y99.891 E9.90873
G1 X94.003 Y100.371 E9.92572
G1 X93.757 Y100.817 E9.94269
G1 X93.444 Y101.219 E9.95966
G1 X93.03 Y101.6 E9.9784
G1 X87.397 Y105.954 E10.21556
G1 X83.22 Y109.571 E10.39961
G1 X81.293 Y111.371 E10.48745
G1 X80.894 Y111.689 E10.50444
G1 X80.451 Y111.94 E10.5214
G1 X80.189 Y112.049 E10.53086
G1 X79.825 Y112.182 E10.54376
G1 X79.335 Y112.318 E10.5607
G1 X78.828 Y112.377 E10.57771
G1 X78.545 Y112.375 E10.58713
G1 X75.593 Y112.225 E10.68559
G1 X75.088 Y112.159 E10.70256
G1 X74.599 Y112.015 E10.71954
G1 X74.139 Y111.797 E10.73649
G1 X73.664 Y111.465 E10.7558
G1 X69.009 Y107.545 E10.95851
G1 X64.629 Y104.277 E11.14055
G1 X60.084 Y101.269 E11.3221
G1 X55.346 Y98.507 E11.50478
G1 X50.464 Y96.019 E11.6873
G1 X45.463 Y93.818 E11.86931
G1 X40.282 Y91.878 E12.05359
G1 X36.458 Y90.608 E12.18781
G1 X36.193 Y90.508 E12.19725
G1 X33.558 Y89.37 E12.29285
G1 X33.108 Y89.132 E12.30981
G1 X32.7 Y88.826 E12.3268
G1 X32.345 Y88.461 E12.34376
G1 X32.071 Y88.075 E12.35953
G1 X31.97 Y87.909 E12.366
G1 X31.74 Y87.455 E12.38295
G1 X31.537 Y86.737 E12.40781
G1 X31.448 Y86.185 E12.42643
G1 X31.407 Y85.658 E12.44404
G1 X31.431 Y77.641 E12.71109
G1 X31.472 Y77.133 E12.72807
G1 X31.593 Y76.638 E12.74504
G1 X31.708 Y76.338 E12.75574
G1 X31.897 Y75.91 E12.77133
G1 X32.139 Y75.462 E12.78829
G1 X32.448 Y75.056 E12.80528
G1 X32.816 Y74.704 E12.82225
G1 X33.235 Y74.414 E12.83922
G1 X33.605 Y74.229 E12.853
G1 F600 E11.103
G0 F2625 X35.058 Y77.376
;TYPE:SUPPORT
G1 F600 E12.853
G1 F900 X35.129 Y77.343 E12.85561
G1 X36.205 Y77.341 E12.89145
G1 X36.205 Y86.292 E13.18961
G1 X35.144 Y86.291 E13.22495
G1 X35.08 Y86.268 E13.22722
G1 X35.021 Y86.219 E13.22977
G1 X34.998 Y86.19 E13.23101
G1 X34.952 Y86.096 E13.23449
G1 X34.919 Y85.941 E13.23977
G1 X34.898 Y85.723 E13.24707
G1 X34.914 Y85.228 E13.26356
G1 X34.914 Y82.629 E13.35014
G1 X34.951 Y81.96 E13.37246
G1 X34.944 Y81.427 E13.39021
G1 X34.924 Y81.294 E13.39469
G1 X34.914 Y81.003 E13.40439
G1 X34.914 Y77.97 E13.50542
G1 X34.92 Y77.656 E13.51588
G1 X34.978 Y77.471 E13.52234
G1 X34.998 Y77.438 E13.52363
G1 X35.058 Y77.376 E13.5265
G0 F2625 X35.118 Y78.349
G1 F900 X36.004 Y78.349 E13.55601
G1 F600 E11.80601
G0 F2625 X36.004 Y80.016
G1 F600 E13.55601
G1 F900 X35.115 Y80.016 E13.58563
G1 F600 E11.83563
G0 F2625 X35.146 Y81.683
G1 F600 E13.58563
G1 F900 X36.004 Y81.683 E13.61421
G1 F600 E11.86421
G0 F2625 X36.004 Y83.35
G1 F600 E13.61421
G1 F900 X35.113 Y83.35 E13.64389
G1 F600 E11.89389
G0 F2625 X35.113 Y85.017
G1 F600 E13.64389
G1 F900 X36.004 Y85.017 E13.67357
G1 F600 E11.92357
;MESH:
G0 F2625 X38.726 Y85.02
G0 X53.914 Y87.086
G0 X54.565 Y87.279
G0 X54.918 Y87.43
G0 X56.362 Y88.237
G0 X56.299 Y88.314
;TYPE:WALL-INNER
G1 F600 E13.67357
G1 F900 X55.756 Y87.916 E13.69599
G1 X55.173 Y87.582 E13.71837
G1 X54.552 Y87.316 E13.74088
G1 X53.905 Y87.124 E13.76336
G1 X53.242 Y87.008 E13.78578
G1 X52.591 Y86.971 E13.8075
G1 X38.955 Y86.975 E14.26172
G1 X38.705 Y86.975 E14.27005
G1 X38.705 Y86.725 E14.27543
G1 X38.71 Y80.616 E14.47893
G1 X38.706 Y76.907 E14.60248
G1 X38.706 Y76.657 E14.6108
G1 X38.956 Y76.657 E14.61619
G1 X52.591 Y76.662 E15.07038
G1 X53.242 Y76.624 E15.0921
G1 X53.906 Y76.507 E15.11456
G1 X54.552 Y76.316 E15.137
G1 X55.171 Y76.051 E15.15943
G1 X55.757 Y75.717 E15.18189
G1 X56.3 Y75.318 E15.20434
G1 X56.793 Y74.858 E15.2268
G1 X57.23 Y74.345 E15.24925
G1 X57.605 Y73.786 E15.27167
G1 X57.898 Y73.217 E15.29299
G1 X58.508 Y71.954 E15.33971
G1 X59.195 Y70.739 E15.3862
G1 X59.939 Y69.601 E15.43149
G1 X60.769 Y68.495 E15.47756
G1 X61.67 Y67.445 E15.52364
G1 X62.64 Y66.453 E15.56986
G1 X63.653 Y65.542 E15.61524
G1 X64.744 Y64.682 E15.66152
G1 X65.88 Y63.901 E15.70744
G1 X67.051 Y63.203 E15.75285
G1 X68.29 Y62.568 E15.79922
G1 X69.554 Y62.021 E15.8451
G1 X70.842 Y61.561 E15.89066
G1 X72.175 Y61.178 E15.93686
G1 X73.53 Y60.885 E15.98304
G1 X74.88 Y60.681 E16.02852
G1 X76.249 Y60.566 E16.07428
G1 X77.643 Y60.538 E16.12072
G1 X79.014 Y60.6 E16.16644
G1 X80.387 Y60.752 E16.21245
G1 X81.729 Y60.989 E16.25785
G1 X83.073 Y61.316 E16.30392
G1 X84.403 Y61.734 E16.35036
G1 X85.668 Y62.224 E16.39555
G1 X86.937 Y62.81 E16.44211
G1 X88.148 Y63.471 E16.48807
G1 X89.306 Y64.202 E16.53368
G1 X90.228 Y64.872 E16.57165
G1 X90.389 Y64.989 E16.57828
G1 X90.444 Y65.042 E16.58082
G1 X90.472 Y65.104 E16.58309
G1 X90.471 Y65.174 E16.58542
G1 X90.436 Y65.237 E16.58782
G1 X90.407 Y65.261 E16.58907
G1 X90.354 Y65.288 E16.59105
G1 X90.164 Y65.346 E16.59767
G1 X89.597 Y65.521 E16.61744
G1 X88.815 Y65.678 E16.64401
G1 X87.987 Y65.76 E16.67172
G1 X87.175 Y65.759 E16.69877
G1 X86.38 Y65.678 E16.72539
G1 X86.281 Y65.642 E16.7289
G1 X85.137 Y65.061 E16.77164
G1 X83.919 Y64.548 E16.81566
G1 X82.666 Y64.123 E16.85973
G1 X81.386 Y63.789 E16.9038
G1 X80.086 Y63.547 E16.94785
G1 X78.771 Y63.4 E16.99192
G1 X77.451 Y63.346 E17.03593
G1 X76.13 Y63.387 E17.07995
G1 X74.814 Y63.522 E17.12402
G1 X73.513 Y63.752 E17.16803
G1 X72.229 Y64.074 E17.21212
G1 X70.973 Y64.487 E17.25617
G1 X69.75 Y64.989 E17.3002
G1 X68.565 Y65.576 E17.34425
G1 X67.425 Y66.248 E17.38833
G1 X66.337 Y67 E17.43239
G1 X65.305 Y67.826 E17.47642
G1 X64.335 Y68.725 E17.52047
G1 X63.431 Y69.691 E17.56454
G1 X62.599 Y70.719 E17.6086
G1 X61.844 Y71.804 E17.65263
G1 X61.166 Y72.941 E17.69673
G1 X60.573 Y74.123 E17.74078
G1 X60.065 Y75.343 E17.7848
G1 X59.646 Y76.598 E17.82887
G1 X59.318 Y77.879 E17.87292
G1 X59.082 Y79.181 E17.91699
G1 X58.941 Y80.495 E17.96101
G1 X58.894 Y81.816 E18.00504
G1 X58.941 Y83.137 E18.04908
G1 X59.082 Y84.452 E18.09313
G1 X59.318 Y85.753 E18.13717
G1 X59.646 Y87.034 E18.18122
G1 X60.065 Y88.29 E18.22533
G1 X60.573 Y89.509 E18.26932
G1 X61.166 Y90.691 E18.31337
G1 X61.844 Y91.829 E18.35749
G1 X62.599 Y92.914 E18.40152
G1 X63.431 Y93.941 E18.44555
G1 X64.335 Y94.907 E18.48962
G1 X65.305 Y95.806 E18.53367
G1 X66.337 Y96.633 E18.57772
G1 X67.425 Y97.384 E18.62176
G1 X68.565 Y98.056 E18.66584
G1 X69.75 Y98.644 E18.70991
G1 X70.973 Y99.145 E18.75393
G1 X72.229 Y99.559 E18.79798
G1 X73.513 Y99.881 E18.84208
G1 X74.814 Y100.111 E18.88609
G1 X76.13 Y100.246 E18.93015
G1 X77.451 Y100.286 E18.97418
G1 X78.771 Y100.233 E19.01818
G1 X80.086 Y100.085 E19.06226
G1 X81.385 Y99.843 E19.10628
G1 X82.666 Y99.51 E19.15037
G1 X83.919 Y99.085 E19.19444
G1 X85.137 Y98.571 E19.23848
G1 X86.342 Y97.964 E19.28342
G1 X86.383 Y97.953 E19.28483
G1 X87.175 Y97.873 E19.31135
G1 X87.987 Y97.872 E19.3384
G1 X88.813 Y97.954 E19.36605
G1 X89.596 Y98.112 E19.39265
G1 X90.163 Y98.287 E19.41242
G1 X90.356 Y98.346 E19.41914
G1 X90.409 Y98.373 E19.42112
G1 X90.457 Y98.425 E19.42348
G1 X90.471 Y98.459 E19.42471
G1 X90.472 Y98.527 E19.42697
G1 X90.444 Y98.59 E19.42927
G1 X90.391 Y98.642 E19.43174
G1 X90.228 Y98.76 E19.43723
G1 X89.308 Y99.429 E19.47512
G1 X88.142 Y100.165 E19.52105
G1 X86.929 Y100.826 E19.56707
G1 X85.666 Y101.411 E19.61343
G1 X84.409 Y101.897 E19.65833
G1 X83.074 Y102.316 E19.70493
G1 X81.729 Y102.643 E19.75104
G1 X80.387 Y102.88 E19.79644
G1 X79.014 Y103.032 E19.84245
G1 X77.643 Y103.094 E19.88817
G1 X76.249 Y103.066 E19.93461
G1 X74.877 Y102.951 E19.98047
G1 X73.532 Y102.748 E20.02578
G1 X72.175 Y102.454 E20.07203
G1 X70.847 Y102.073 E20.11805
G1 X69.552 Y101.61 E20.16386
G1 X68.28 Y101.06 E20.21003
G1 X67.061 Y100.435 E20.25566
G1 X65.88 Y99.731 E20.30146
G1 X64.744 Y98.95 E20.34738
G1 X63.653 Y98.09 E20.39365
G1 X62.638 Y97.177 E20.43913
G1 X61.67 Y96.188 E20.48523
G1 X60.769 Y95.137 E20.53134
G1 X59.946 Y94.042 E20.57697
G1 X59.186 Y92.878 E20.62327
G1 X58.508 Y91.678 E20.66918
G1 X57.898 Y90.415 E20.71591
G1 X57.605 Y89.846 E20.73722
G1 X57.23 Y89.286 E20.75967
G1 X56.793 Y88.775 E20.78207
G1 X56.299 Y88.314 E20.80458
G0 F2625 X55.98 Y88.7
;TYPE:WALL-OUTER
G1 F900 X55.483 Y88.336 E20.8251
G1 X54.949 Y88.03 E20.8456
G1 X54.382 Y87.787 E20.86615
G1 X53.791 Y87.612 E20.88668
G1 X53.184 Y87.506 E20.90721
G1 X52.577 Y87.471 E20.92746
G1 X38.455 Y87.475 E21.39787
G1 X38.205 Y87.475 E21.40619
G1 X38.205 Y87.225 E21.41158
G1 X38.21 Y80.616 E21.63173
G1 X38.205 Y76.407 E21.77193
G1 X38.205 Y76.157 E21.78026
G1 X38.455 Y76.157 E21.78565
G1 X52.577 Y76.162 E22.25606
G1 X53.184 Y76.127 E22.27631
G1 X53.791 Y76.02 E22.29684
G1 X54.382 Y75.845 E22.31737
G1 X54.948 Y75.603 E22.33788
G1 X55.484 Y75.297 E22.35844
G1 X55.98 Y74.932 E22.37895
G1 X56.431 Y74.512 E22.39948
G1 X56.831 Y74.043 E22.42001
G1 X57.174 Y73.531 E22.44054
G1 X57.451 Y72.994 E22.46067
G1 X58.066 Y71.72 E22.50779
G1 X58.768 Y70.478 E22.55531
G1 X59.531 Y69.311 E22.60176
G1 X60.378 Y68.183 E22.64875
G1 X61.302 Y67.107 E22.69599
G1 X62.293 Y66.092 E22.74324
G1 X63.338 Y65.153 E22.79004
G1 X64.438 Y64.286 E22.8367
G1 X65.607 Y63.482 E22.88396
G1 X66.815 Y62.762 E22.9308
G1 X68.08 Y62.114 E22.97814
G1 X69.367 Y61.557 E23.02486
G1 X70.694 Y61.083 E23.0718
G1 X72.052 Y60.693 E23.11886
G1 X73.429 Y60.395 E23.16579
G1 X74.823 Y60.184 E23.21275
G1 X76.228 Y60.066 E23.25972
G1 X77.64 Y60.038 E23.30676
G1 X79.061 Y60.102 E23.35414
G1 X80.452 Y60.256 E23.40076
G1 X81.839 Y60.501 E23.44768
G1 X83.206 Y60.834 E23.49455
G1 X84.567 Y61.261 E23.54206
G1 X85.868 Y61.765 E23.58854
G1 X87.163 Y62.364 E23.63606
G1 X88.4 Y63.039 E23.683
G1 X89.58 Y63.783 E23.72947
G1 X90.716 Y64.609 E23.77626
G1 X90.838 Y64.729 E23.78196
G1 X90.917 Y64.856 E23.78694
G1 X90.965 Y65.006 E23.79219
