;Generated by Cura LulzBot Edition GCodeWriter Version: 3.6.20
;FLAVOR:Marlin
;TIME:4445
;Filament used: 1.89114m
;Layer height: 0.25
;Generated with Cura_SteamEngine 3.6.20
M82 ;absolute extrusion mode
;This G-Code has been generated specifically for the LulzBot Mini 2 with SE 0.5mm Tool Head
M73 P0                  ; clear GLCD progress bar
M75 					; Start GLCD Print Timer
G26 					; clear potential 'probe fail' condition
M107 					; disable fans
M420 S0                 ; disable leveling matrix
G90 					; absolute positioning
M82 					; set extruder to absolute mode
G92 E0 					; set extruder position to 0
M140 S60.0 ; start bed heating up
G28 					; home all axes
G0 X0 Y187 Z156 F200 			; move away from endstops
M117 Mini 2 Wiping...			; progress indicator message on LCD
M109 R140 	; soften filament before retraction
G1 E-15 F75 				; retract filament
M109 R140 	; wait for extruder to reach wiping temp
G1 X45 Y176 F11520 			; move above wiper pad
G1 Z0 F1200 				; push nozzle into wiper
G1 X45 Y178 Z-.5 F4000		; wiping
G1 X55 Y176 Z-.5 F4000		; wiping
G1 X45 Y177 Z0 F4000		; wiping
G1 X55 Y176 F4000		; wiping
G1 X45 Y178 F4000		; wiping
G1 X55 Y176 F4000		; wiping
G1 X45 Y178 F4000		; wiping
G1 X55 Y176 F4000		; wiping
G1 X60 Y178 F4000		; wiping
G1 X80 Y176 F4000		; wiping
G1 X60 Y178 F4000		; wiping
G1 X80 Y176 F4000		; wiping
G1 X60 Y178 F4000		; wiping
G1 X90 Y176 F4000		; wiping
G1 X80 Y178 F4000		; wiping
G1 X100 Y176 F4000		; wiping
G1 X80 Y178 F4000		; wiping
G1 X100 Y176 F4000		; wiping
G1 X80 Y178 F4000		; wiping
G1 X100 Y176 F4000		; wiping
G1 X110 Y178 F4000		; wiping
G1 X100 Y176 F4000		; wiping
G1 X110 Y178 F4000		; wiping
G1 X100 Y176 F4000		; wiping
G1 X110 Y178 F4000		; wiping
G1 X115 Y176 Z-0.5 F1000	; wiping
G1 Z10					; raise extruder
G28 X0 Y0				; home X and Y
M109 R140	; wait for extruder to reach probe temp
M204 S300				; set probing acceleration
G29					; start auto-leveling sequence
M420 S1                     ; enable leveling matrix
M425 Z			     		; use measured Z backlash for compensation
M425 Z F0		     		; turn off measured Z backlash compensation. (if activated in the quality settings, this command will automatically be ignored)
M204 S2000				; restore standard acceleration
G1 X5 Y15 Z10 F5000			; move up off last probe point
G4 S1					; pause
M400					; wait for moves to finish
M117 Heating...				; progress indicator message on LCD
M109 R210 ; wait for extruder to reach initial printing temp
M190 R60.0 ; wait for bed to reach printing temp
G1 Z2 E0 F75				; prime tiny bit of filment into the nozzle
M117 Mini 2 Printing...		; progress indicator message on LCD

M221 S100 T0
G92 E0
G1 F600 E-1.75
;LAYER_COUNT:60
;LAYER:0
M107
G0 F2625 X34.596 Y48.591 Z0.425
;TYPE:SKIRT
G1 F600 E0
G1 F900 X35.031 Y48.325 E0.01698
G1 X35.501 Y48.129 E0.03395
G1 X35.996 Y48.01 E0.05091
G1 X36.509 Y47.969 E0.06805
G1 X125.491 Y47.97 E3.03207
G1 X125.999 Y48.01 E3.04904
G1 X126.494 Y48.129 E3.066
G1 X126.965 Y48.324 E3.08298
G1 X127.4 Y48.59 E3.09997
G1 X127.787 Y48.92 E3.11691
G1 X128.119 Y49.307 E3.13389
G1 X128.385 Y49.742 E3.15088
G1 X128.581 Y50.212 E3.16784
G1 X128.7 Y50.707 E3.1848
G1 X128.741 Y51.22 E3.20194
G1 X128.741 Y110.781 E5.18594
G1 X128.701 Y111.289 E5.20292
G1 X128.582 Y111.784 E5.21987
G1 X128.387 Y112.255 E5.23685
G1 X128.121 Y112.69 E5.25384
G1 X127.791 Y113.077 E5.27078
G1 X127.404 Y113.409 E5.28776
G1 X126.969 Y113.675 E5.30475
G1 X126.499 Y113.871 E5.32171
G1 X126.004 Y113.99 E5.33867
G1 X125.491 Y114.031 E5.35581
G1 X36.509 Y114.031 E8.31984
G1 X36.001 Y113.991 E8.33681
G1 X35.506 Y113.872 E8.35377
G1 X35.035 Y113.677 E8.37075
G1 X34.6 Y113.411 E8.38773
G1 X34.213 Y113.081 E8.40467
G1 X33.881 Y112.694 E8.42166
G1 X33.615 Y112.259 E8.43864
G1 X33.419 Y111.789 E8.45561
G1 X33.3 Y111.294 E8.47256
G1 X33.259 Y110.781 E8.48971
G1 X33.259 Y51.219 E10.47374
G1 X33.299 Y50.711 E10.49071
G1 X33.418 Y50.216 E10.50767
G1 X33.613 Y49.745 E10.52465
G1 X33.879 Y49.31 E10.54164
G1 X34.209 Y48.923 E10.55858
G1 X34.596 Y48.591 E10.57556
G1 F600 E8.82556
;MESH:
G0 F2625 X37.264 Y50.545
G0 X37.264 Y51.974
G0 X46.241 Y73.999
G0 X46.329 Y74.046
;TYPE:WALL-INNER
G1 F600 E10.57556
G1 F900 X45.712 Y75.354 E10.62374
G1 X45.223 Y76.718 E10.672
G1 X44.872 Y78.122 E10.72021
G1 X44.659 Y79.554 E10.76844
G1 X44.588 Y81 E10.81666
G1 X44.659 Y82.446 E10.86489
G1 X44.872 Y83.878 E10.91311
G1 X45.223 Y85.282 E10.96132
G1 X45.712 Y86.646 E11.00958
G1 X46.329 Y87.954 E11.05776
G1 X47.074 Y89.195 E11.10597
G1 X47.937 Y90.359 E11.15424
G1 X48.909 Y91.43 E11.20242
G1 X49.981 Y92.402 E11.25062
G1 X51.144 Y93.265 E11.29886
G1 X52.386 Y94.01 E11.3471
G1 X53.693 Y94.627 E11.39525
G1 X55.057 Y95.116 E11.44352
G1 X56.461 Y95.467 E11.49172
G1 X57.893 Y95.68 E11.53995
G1 X59.339 Y95.751 E11.58817
G1 X60.785 Y95.68 E11.6364
G1 X62.217 Y95.467 E11.68462
G1 X63.621 Y95.116 E11.73283
G1 X64.985 Y94.627 E11.7811
G1 X66.293 Y94.01 E11.82927
G1 X67.534 Y93.265 E11.87749
G1 X68.698 Y92.402 E11.92575
G1 X69.77 Y91.43 E11.97396
G1 X70.741 Y90.359 E12.02211
G1 X71.604 Y89.195 E12.07038
G1 X72.349 Y87.954 E12.11859
G1 X72.966 Y86.646 E12.16677
G1 X73.455 Y85.282 E12.21503
G1 X73.806 Y83.878 E12.26324
G1 X74.019 Y82.446 E12.31147
G1 X74.09 Y81 E12.35969
G1 X74.019 Y79.554 E12.40792
G1 X73.806 Y78.122 E12.45614
G1 X73.455 Y76.718 E12.50435
G1 X72.966 Y75.354 E12.55262
G1 X72.349 Y74.046 E12.60079
G1 X71.604 Y72.805 E12.649
G1 X70.741 Y71.641 E12.69727
G1 X69.77 Y70.57 E12.74543
G1 X68.698 Y69.598 E12.79363
G1 X67.534 Y68.735 E12.8419
G1 X66.293 Y67.99 E12.89011
G1 X64.985 Y67.373 E12.93828
G1 X63.621 Y66.884 E12.98655
G1 X62.217 Y66.533 E13.03476
G1 X60.785 Y66.32 E13.08298
G1 X59.339 Y66.249 E13.13121
G1 X57.893 Y66.32 E13.17943
G1 X56.461 Y66.533 E13.22766
G1 X55.057 Y66.884 E13.27587
G1 X53.693 Y67.373 E13.32413
G1 X52.386 Y67.99 E13.37228
G1 X51.144 Y68.735 E13.42052
G1 X49.981 Y69.598 E13.46876
G1 X48.909 Y70.57 E13.51696
G1 X47.937 Y71.641 E13.56514
G1 X47.074 Y72.805 E13.61341
G1 X46.329 Y74.046 E13.66162
G0 F2625 X46.241 Y73.999
G0 X47.041 Y72.783
G0 X47.907 Y71.616
G0 X48.881 Y70.542
G0 X49.956 Y69.568
G0 X51.122 Y68.702
G0 X52.368 Y67.955
G0 X53.678 Y67.337
G0 X55.046 Y66.846
G0 X56.454 Y66.494
G0 X57.89 Y66.281
G0 X59.339 Y66.209
G0 X60.788 Y66.281
G0 X62.224 Y66.494
G0 X63.632 Y66.846
G0 X65 Y67.337
G0 X66.311 Y67.955
G0 X67.319 Y68.559
G0 X124.68 Y109.97
G0 X124.75 Y110.04
G1 F900 X37.25 Y110.04 E16.57628
G1 X37.25 Y51.96 E18.51095
G1 X124.75 Y51.96 E21.4256
G1 X124.75 Y110.04 E23.36027
G0 F2625 X125.25 Y110.54
;TYPE:WALL-OUTER
G1 F900 X36.75 Y110.54 E26.30823
G1 X36.75 Y51.46 E28.27621
G1 X125.25 Y51.46 E31.22418
G1 X125.25 Y110.54 E33.19215
G0 F2625 X125 Y110.54
G0 X124.68 Y109.97
G0 X67.556 Y68.702
G0 X66.311 Y67.955
G0 X65 Y67.337
G0 X63.632 Y66.846
G0 X62.224 Y66.494
G0 X60.788 Y66.281
G0 X59.339 Y66.209
G0 X57.89 Y66.281
G0 X57.484 Y66.34
G0 X55.001 Y66.798
G0 X55.202 Y67.363
G1 F900 X53.885 Y67.835 E33.23876
G1 X52.622 Y68.432 E33.28529
G1 X51.422 Y69.151 E33.33189
G1 X50.299 Y69.985 E33.37848
G1 X49.263 Y70.924 E33.42506
G1 X48.324 Y71.959 E33.47161
G1 X47.49 Y73.083 E33.51823
G1 X46.771 Y74.282 E33.5648
G1 X46.174 Y75.546 E33.61136
G1 X45.702 Y76.863 E33.65797
G1 X45.363 Y78.22 E33.70456
G1 X45.157 Y79.603 E33.75113
G1 X45.089 Y81 E33.79772
G1 X45.157 Y82.397 E33.84431
G1 X45.363 Y83.78 E33.89089
G1 X45.702 Y85.137 E33.93748
G1 X46.174 Y86.454 E33.98408
G1 X46.771 Y87.718 E34.03065
G1 X47.49 Y88.917 E34.07722
G1 X48.324 Y90.041 E34.12384
G1 X49.263 Y91.076 E34.17039
G1 X50.299 Y92.015 E34.21697
G1 X51.422 Y92.849 E34.26356
G1 X52.622 Y93.568 E34.31016
G1 X53.885 Y94.165 E34.35669
G1 X55.202 Y94.637 E34.40329
G1 X56.559 Y94.976 E34.44989
G1 X57.942 Y95.182 E34.49646
G1 X59.339 Y95.25 E34.54305
G1 X60.736 Y95.182 E34.58964
G1 X62.119 Y94.976 E34.63622
G1 X63.476 Y94.637 E34.68281
G1 X64.793 Y94.165 E34.72941
G1 X66.057 Y93.568 E34.77598
G1 X67.256 Y92.849 E34.82255
G1 X68.38 Y92.015 E34.86917
G1 X69.416 Y91.076 E34.91574
G1 X70.354 Y90.041 E34.96227
G1 X71.188 Y88.917 E35.00889
G1 X71.907 Y87.718 E35.05546
G1 X72.504 Y86.454 E35.10203
G1 X72.976 Y85.137 E35.14863
G1 X73.315 Y83.78 E35.19522
G1 X73.521 Y82.397 E35.2418
G1 X73.589 Y81 E35.28839
G1 X73.521 Y79.603 E35.33498
G1 X73.315 Y78.22 E35.38155
G1 X72.976 Y76.863 E35.42814
G1 X72.504 Y75.546 E35.47475
G1 X71.907 Y74.282 E35.52131
G1 X71.188 Y73.083 E35.56788
G1 X70.354 Y71.959 E35.6145
G1 X69.416 Y70.924 E35.66103
G1 X68.38 Y69.985 E35.70761
G1 X67.256 Y69.151 E35.75423
G1 X66.057 Y68.432 E35.8008
G1 X64.793 Y67.835 E35.84736
G1 X63.476 Y67.363 E35.89396
G1 X62.119 Y67.024 E35.94055
G1 X60.736 Y66.818 E35.98713
G1 X59.339 Y66.75 E36.03372
G1 X57.942 Y66.818 E36.08031
G1 X56.559 Y67.024 E36.12689
G1 X55.202 Y67.363 E36.17348
G0 F2625 X54.967 Y67.447
G0 X54.767 Y66.882
G0 X54.914 Y66.414
;TYPE:SKIN
G1 F900 X53.505 Y66.92 E36.22335
G1 X52.155 Y67.557 E36.27307
G1 X50.871 Y68.327 E36.32294
G1 X49.67 Y69.219 E36.37278
G1 X48.562 Y70.223 E36.42258
G1 X47.558 Y71.33 E36.47236
G1 X46.666 Y72.532 E36.52222
G1 X45.896 Y73.815 E36.57207
G1 X45.259 Y75.166 E36.62182
G1 X44.753 Y76.575 E36.67169
G1 X44.391 Y78.026 E36.7215
G1 X44.171 Y79.505 E36.77131
G1 X44.098 Y81 E36.82117
G1 X44.171 Y82.495 E36.87103
G1 X44.391 Y83.974 E36.92084
G1 X44.753 Y85.425 E36.97065
G1 X45.259 Y86.834 E37.02052
G1 X45.896 Y88.185 E37.07027
G1 X46.666 Y89.468 E37.12012
G1 X47.558 Y90.67 E37.16998
G1 X48.562 Y91.777 E37.21976
G1 X49.67 Y92.781 E37.26956
G1 X50.871 Y93.673 E37.3194
G1 X52.155 Y94.443 E37.36927
G1 X53.505 Y95.08 E37.41899
G1 X54.914 Y95.586 E37.46886
G1 X56.365 Y95.948 E37.51868
G1 X57.844 Y96.168 E37.56848
G1 X59.339 Y96.241 E37.61834
G1 X60.834 Y96.168 E37.6682
G1 X62.313 Y95.948 E37.71801
G1 X63.764 Y95.586 E37.76782
G1 X65.173 Y95.08 E37.81769
G1 X66.524 Y94.443 E37.86745
G1 X67.807 Y93.673 E37.91729
G1 X69.009 Y92.781 E37.96715
G1 X70.117 Y91.777 E38.01696
G1 X71.12 Y90.67 E38.06672
G1 X72.012 Y89.468 E38.11657
G1 X72.782 Y88.185 E38.16642
G1 X73.419 Y86.834 E38.21617
G1 X73.925 Y85.425 E38.26604
G1 X74.287 Y83.974 E38.31586
G1 X74.507 Y82.495 E38.36566
G1 X74.58 Y81 E38.41552
G1 X74.507 Y79.505 E38.46538
G1 X74.287 Y78.026 E38.51519
G1 X73.925 Y76.575 E38.565
G1 X73.419 Y75.166 E38.61487
G1 X72.782 Y73.815 E38.66463
G1 X72.012 Y72.532 E38.71447
G1 X71.12 Y71.33 E38.76433
G1 X70.117 Y70.223 E38.81409
G1 X69.009 Y69.219 E38.86389
G1 X67.807 Y68.327 E38.91375
G1 X66.524 Y67.557 E38.9636
G1 X65.173 Y66.92 E39.01335
G1 X63.764 Y66.414 E39.06322
G1 X62.313 Y66.052 E39.11303
G1 X60.834 Y65.832 E39.16284
G1 X59.339 Y65.759 E39.2127
G1 X57.844 Y65.832 E39.26256
G1 X56.365 Y66.052 E39.31237
G1 X54.914 Y66.414 E39.36218
G0 F2625 X37.74 Y52.45
G1 F900 X124.26 Y52.45 E42.24419
G1 X124.26 Y109.55 E44.14622
G1 X37.74 Y109.55 E47.02823
G1 X37.74 Y52.45 E48.93025
G0 F2625 X38.613 Y109.324
G1 F900 X37.964 Y108.675 E48.96082
G0 F2625 X37.964 Y107.968
G1 F900 X39.32 Y109.324 E49.0247
G0 F2625 X40.027 Y109.324
G1 F900 X37.964 Y107.261 E49.12189
G0 F2625 X37.964 Y106.553
G1 F900 X40.735 Y109.324 E49.25242
G0 F2625 X41.442 Y109.324
G1 F900 X37.964 Y105.846 E49.41626
G0 F2625 X37.964 Y105.139
G1 F900 X42.149 Y109.324 E49.61341
G0 F2625 X42.856 Y109.324
G1 F900 X37.964 Y104.432 E49.84386
G0 F2625 X37.964 Y103.725
G1 F900 X43.563 Y109.324 E50.10762
G0 F2625 X44.27 Y109.324
G1 F900 X37.964 Y103.018 E50.40468
G0 F2625 X37.964 Y102.311
G1 F900 X44.977 Y109.324 E50.73505
G0 F2625 X45.684 Y109.324
G1 F900 X37.964 Y101.604 E51.09872
G0 F2625 X37.964 Y100.897
G1 F900 X46.391 Y109.324 E51.4957
G0 F2625 X47.098 Y109.324
G1 F900 X37.964 Y100.189 E51.92601
G0 F2625 X37.964 Y99.482
G1 F900 X47.806 Y109.324 E52.38965
G0 F2625 X48.513 Y109.324
G1 F900 X37.964 Y98.775 E52.88659
G0 F2625 X37.964 Y98.068
G1 F900 X49.22 Y109.324 E53.41684
G0 F2625 X49.927 Y109.324
G1 F900 X37.964 Y97.361 E53.98039
G0 F2625 X37.964 Y96.654
G1 F900 X50.634 Y109.324 E54.57725
G0 F2625 X51.341 Y109.324
G1 F900 X37.964 Y95.947 E55.20741
G0 F2625 X37.964 Y95.24
G1 F900 X52.048 Y109.324 E55.87088
G0 F2625 X52.755 Y109.324
G1 F900 X37.964 Y94.533 E56.56765
G0 F2625 X37.964 Y93.825
G1 F900 X53.462 Y109.324 E57.29776
G0 F2625 X54.17 Y109.324
G1 F900 X37.964 Y93.118 E58.06119
G0 F2625 X37.964 Y92.411
G1 F900 X54.877 Y109.324 E58.85792
G0 F2625 X55.584 Y109.324
G1 F900 X37.964 Y91.704 E59.68797
G0 F2625 X37.964 Y90.997
G1 F900 X56.291 Y109.324 E60.55131
G0 F2625 X56.998 Y109.324
G1 F900 X37.964 Y90.29 E61.44797
G0 F2625 X37.964 Y89.583
G1 F900 X57.705 Y109.324 E62.37793
G0 F2625 X58.412 Y109.324
G1 F900 X37.964 Y88.876 E63.34119
G0 F2625 X37.964 Y88.169
G1 F900 X59.119 Y109.324 E64.33776
G0 F2625 X59.826 Y109.324
G1 F900 X37.964 Y87.462 E65.36763
G0 F2625 X37.964 Y86.754
G1 F900 X60.533 Y109.324 E66.43084
G0 F2625 X61.241 Y109.324
G1 F900 X37.964 Y86.047 E67.52737
G0 F2625 X37.964 Y85.34
G1 F900 X61.948 Y109.324 E68.6572
G0 F2625 X62.655 Y109.324
G1 F900 X37.964 Y84.633 E69.82035
G0 F2625 X37.964 Y83.926
G1 F900 X63.362 Y109.324 E71.0168
G0 F2625 X64.069 Y109.324
G1 F900 X37.964 Y83.219 E72.24655
G0 F2625 X37.964 Y82.512
G1 F900 X64.776 Y109.324 E73.50961
G0 F2625 X65.483 Y109.324
G1 F900 X37.964 Y81.805 E74.80597
G0 F2625 X37.964 Y81.098
G1 F900 X46.535 Y89.668 E75.20971
G1 X46.623 Y89.756
G0 F2625 X45.549 Y87.976
G1 F900 X37.964 Y80.39 E75.56705
G0 F2625 X37.964 Y79.683
G1 F900 X44.967 Y86.687 E75.89697
G1 X45.055 Y86.775
G0 F2625 X44.57 Y85.582
G1 F900 X37.964 Y78.976 E76.20816
G0 F2625 X37.964 Y78.269
G1 F900 X44.322 Y84.627 E76.50768
G0 F2625 X44.128 Y83.726
G1 F900 X37.964 Y77.562 E76.79805
G0 F2625 X37.964 Y76.855
G1 F900 X44.003 Y82.894 E77.08253
G0 F2625 X43.927 Y82.111
G1 F900 X37.964 Y76.148 E77.36344
G0 F2625 X37.964 Y75.441
G1 F900 X43.891 Y81.368 E77.64265
G0 F2625 X43.89 Y80.659
G1 F900 X37.964 Y74.734 E77.92179
G0 F2625 X37.964 Y74.027
G1 F900 X43.922 Y79.985 E78.20246
G0 F2625 X43.97 Y79.326
G1 F900 X37.964 Y73.319 E78.48541
G0 F2625 X37.964 Y72.612
G1 F900 X44.062 Y78.71 E78.77267
G0 F2625 X44.153 Y78.094
G1 F900 X37.964 Y71.905 E79.06423
G0 F2625 X37.964 Y71.198
G1 F900 X44.286 Y77.52 E79.36204
G0 F2625 X44.426 Y76.953
G1 F900 X37.964 Y70.491 E79.66645
G0 F2625 X37.964 Y69.784
G1 F900 X44.578 Y76.397 E79.978
G0 F2625 X44.764 Y75.877
G1 F900 X37.964 Y69.077 E80.29834
G0 F2625 X37.964 Y68.37
G1 F900 X44.952 Y75.357 E80.6275
G0 F2625 X45.157 Y74.855
G1 F900 X37.964 Y67.663 E80.96633
G0 F2625 X37.964 Y66.955
G1 F900 X45.383 Y74.374 E81.31582
G0 F2625 X45.609 Y73.894
G1 F900 X37.964 Y66.248 E81.67598
G0 F2625 X37.964 Y65.541
G1 F900 X45.86 Y73.437 E82.04795
G0 F2625 X46.125 Y72.995
G1 F900 X37.964 Y64.834 E82.4324
G0 F2625 X37.964 Y64.127
G1 F900 X46.391 Y72.554 E82.82938
G0 F2625 X46.68 Y72.136
G1 F900 X37.964 Y63.42 E83.23997
G0 F2625 X37.964 Y62.713
G1 F900 X46.981 Y71.73 E83.66474
G0 F2625 X47.282 Y71.324
G1 F900 X37.964 Y62.006 E84.10369
G0 F2625 X37.964 Y61.299
G1 F900 X47.607 Y70.941 E84.55793
G0 F2625 X47.943 Y70.57
G1 F900 X37.964 Y60.591 E85.02802
G0 F2625 X37.964 Y59.884
G1 F900 X48.279 Y70.2 E85.51396
G0 F2625 X48.636 Y69.85
G1 F900 X37.964 Y59.177 E86.01672
G0 F2625 X37.964 Y58.47
G1 F900 X49.008 Y69.514 E86.53699
G0 F2625 X49.379 Y69.178
G1 F900 X37.964 Y57.763 E87.07472
G0 F2625 X37.964 Y57.056
G1 F900 X49.771 Y68.863 E87.63093
G0 F2625 X50.177 Y68.561
G1 F900 X37.964 Y56.349 E88.20623
G0 F2625 X37.964 Y55.642
G1 F900 X50.582 Y68.26 E88.80064
G0 F2625 X51.009 Y67.98
G1 F900 X37.964 Y54.935 E89.41516
G0 F2625 X37.964 Y54.228
G1 F900 X51.451 Y67.714 E90.05049
G0 F2625 X51.893 Y67.449
G1 F900 X37.964 Y53.52 E90.70665
G0 F2625 X37.964 Y52.813
G1 F900 X52.361 Y67.21 E91.38487
G0 F2625 X52.841 Y66.983
G1 F900 X38.532 Y52.674 E92.05893
G0 F2625 X39.239 Y52.674
G1 F900 X53.322 Y66.757 E92.72235
G0 F2625 X53.834 Y66.562
G1 F900 X39.946 Y52.674 E93.37659
G0 F2625 X40.653 Y52.674
G1 F900 X54.353 Y66.374 E94.02197
G0 F2625 X54.876 Y66.19
G1 F900 X41.36 Y52.674 E94.65868
G0 F2625 X42.067 Y52.674
G1 F900 X55.442 Y66.049 E95.28875
G0 F2625 X56.008 Y65.908
G1 F900 X42.775 Y52.674 E95.91215
