;Generated by Cura LulzBot Edition GCodeWriter Version: 3.6.20
;FLAVOR:Marlin
;TIME:3155
;Filament used: 1.38316m
;Layer height: 0.25
;Generated with Cura_SteamEngine 3.6.20
M82 ;absolute extrusion mode
;This G-Code has been generated specifically for the LulzBot Mini 2 with SE 0.5mm Tool Head
M73 P0                  ; clear GLCD progress bar
M75 					; Start GLCD Print Timer
G26 					; clear potential 'probe fail' condition
M107 					; disable fans
M420 S0                 ; disable leveling matrix
G90 					; absolute positioning
M82 					; set extruder to absolute mode
G92 E0 					; set extruder position to 0
M140 S60.0 ; start bed heating up
G28 					; home all axes
G0 X0 Y187 Z156 F200 			; move away from endstops
M117 Mini 2 Wiping...			; progress indicator message on LCD
M109 R140 	; soften filament before retraction
G1 E-15 F75 				; retract filament
M109 R140 	; wait for extruder to reach wiping temp
G1 X45 Y176 F11520 			; move above wiper pad
G1 Z0 F1200 				; push nozzle into wiper
G1 X45 Y178 Z-.5 F4000		; wiping
G1 X55 Y176 Z-.5 F4000		; wiping
G1 X45 Y177 Z0 F4000		; wiping
G1 X55 Y176 F4000		; wiping
G1 X45 Y178 F4000		; wiping
G1 X55 Y176 F4000		; wiping
G1 X45 Y178 F4000		; wiping
G1 X55 Y176 F4000		; wiping
G1 X60 Y178 F4000		; wiping
G1 X80 Y176 F4000		; wiping
G1 X60 Y178 F4000		; wiping
G1 X80 Y176 F4000		; wiping
G1 X60 Y178 F4000		; wiping
G1 X90 Y176 F4000		; wiping
G1 X80 Y178 F4000		; wiping
G1 X100 Y176 F4000		; wiping
G1 X80 Y178 F4000		; wiping
G1 X100 Y176 F4000		; wiping
G1 X80 Y178 F4000		; wiping
G1 X100 Y176 F4000		; wiping
G1 X110 Y178 F4000		; wiping
G1 X100 Y176 F4000		; wiping
G1 X110 Y178 F4000		; wiping
G1 X100 Y176 F4000		; wiping
G1 X110 Y178 F4000		; wiping
G1 X115 Y176 Z-0.5 F1000	; wiping
G1 Z10					; raise extruder
G28 X0 Y0				; home X and Y
M109 R140	; wait for extruder to reach probe temp
M204 S300				; set probing acceleration
G29					; start auto-leveling sequence
M420 S1                     ; enable leveling matrix
M425 Z			     		; use measured Z backlash for compensation
M425 Z F0		     		; turn off measured Z backlash compensation. (if activated in the quality settings, this command will automatically be ignored)
M204 S2000				; restore standard acceleration
G1 X5 Y15 Z10 F5000			; move up off last probe point
G4 S1					; pause
M400					; wait for moves to finish
M117 Heating...				; progress indicator message on LCD
M109 R210 ; wait for extruder to reach initial printing temp
M190 R60.0 ; wait for bed to reach printing temp
G1 Z2 E0 F75				; prime tiny bit of filment into the nozzle
M117 Mini 2 Printing...		; progress indicator message on LCD

M221 S100 T0
G92 E0
G1 F600 E-1.75
;LAYER_COUNT:48
;LAYER:0
M107
G0 F2625 X41.329 Y51.433 Z0.425
;TYPE:SKIRT
G1 F600 E0
G1 F900 X41.808 Y51.046 E0.02051
G1 X42.334 Y50.724 E0.04106
G1 X42.896 Y50.473 E0.06156
G1 X43.487 Y50.297 E0.0821
G1 X44.095 Y50.199 E0.10261
G1 X44.547 Y50.177 E0.11769
G1 X45.033 Y50.177 E0.13388
G1 X45.648 Y50.217 E0.15441
G1 X46.252 Y50.336 E0.17491
G1 X46.836 Y50.533 E0.19544
G1 X47.39 Y50.803 E0.21597
G1 X47.904 Y51.143 E0.2365
G1 X48.37 Y51.546 E0.25702
G1 X48.779 Y52.006 E0.27753
G1 X49.126 Y52.516 E0.29807
G1 X49.403 Y53.066 E0.31859
G1 X49.607 Y53.647 E0.3391
G1 X49.735 Y54.25 E0.35963
G1 X49.778 Y55.146 E0.38951
G1 X49.672 Y57.435 E0.46584
G1 X49.77 Y58.591 E0.50449
G1 X49.782 Y59.207 E0.52501
G1 X49.714 Y59.819 E0.54552
G1 X49.568 Y60.417 E0.56602
G1 X49.345 Y60.992 E0.58657
G1 X49.05 Y61.533 E0.60709
G1 X48.687 Y62.031 E0.62762
G1 X48.263 Y62.478 E0.64814
G1 X47.784 Y62.866 E0.66868
G1 X47.26 Y63.189 E0.68918
G1 X46.698 Y63.441 E0.7097
G1 X46.108 Y63.619 E0.73023
G1 X45.5 Y63.718 E0.75075
G1 X45.037 Y63.741 E0.76619
G1 X44.548 Y63.741 E0.78248
G1 X43.933 Y63.701 E0.80301
G1 X43.329 Y63.582 E0.82351
G1 X42.745 Y63.385 E0.84404
G1 X42.191 Y63.115 E0.86457
G1 X41.677 Y62.775 E0.8851
G1 X41.211 Y62.372 E0.90562
G1 X40.802 Y61.912 E0.92613
G1 X40.455 Y61.402 E0.94667
G1 X40.178 Y60.852 E0.96719
G1 X39.974 Y60.271 E0.9877
G1 X39.816 Y59.403 E1.01709
G1 X39.69 Y57.957 E1.06544
G1 X39.677 Y57.318 E1.08673
G1 X39.802 Y54.7 E1.17403
G1 X39.872 Y54.088 E1.19455
G1 X40.02 Y53.49 E1.21507
G1 X40.244 Y52.916 E1.2356
G1 X40.54 Y52.376 E1.25611
G1 X40.904 Y51.879 E1.27663
G1 X41.329 Y51.433 E1.29715
G0 F2625 X41.81 Y51.676
G1 F900 X42.28 Y51.332 E1.31655
G1 X42.794 Y51.056 E1.33598
G1 X43.34 Y50.852 E1.3554
G1 X43.908 Y50.725 E1.37479
G1 X44.547 Y50.677 E1.39613
G1 X45.033 Y50.677 E1.41232
G1 X45.614 Y50.717 E1.43172
G1 X46.185 Y50.836 E1.45115
G1 X46.734 Y51.032 E1.47057
G1 X47.25 Y51.301 E1.48995
G1 X47.726 Y51.639 E1.5094
G1 X48.15 Y52.038 E1.52879
G1 X48.516 Y52.492 E1.54822
G1 X48.816 Y52.991 E1.56761
G1 X49.046 Y53.527 E1.58704
G1 X49.2 Y54.089 E1.60645
G1 X49.275 Y54.667 E1.62587
G1 X49.278 Y55.123 E1.64106
G1 X49.171 Y57.439 E1.71828
G1 X49.272 Y58.633 E1.7582
G1 X49.281 Y59.215 E1.77759
G1 X49.21 Y59.794 E1.79702
G1 X49.061 Y60.357 E1.81642
G1 X48.837 Y60.895 E1.83583
G1 X48.54 Y61.397 E1.85526
G1 X48.178 Y61.853 E1.87465
G1 X47.757 Y62.256 E1.89407
G1 X47.285 Y62.598 E1.91348
G1 X46.771 Y62.871 E1.93287
G1 X46.223 Y63.072 E1.95231
G1 X45.654 Y63.196 E1.97171
G1 X45.037 Y63.241 E1.99232
G1 X44.548 Y63.241 E2.00861
G1 X43.967 Y63.201 E2.02801
G1 X43.396 Y63.082 E2.04744
G1 X42.847 Y62.886 E2.06685
G1 X42.331 Y62.617 E2.08624
G1 X41.855 Y62.279 E2.10568
G1 X41.431 Y61.88 E2.12508
G1 X41.065 Y61.426 E2.1445
G1 X40.765 Y60.927 E2.1639
G1 X40.535 Y60.391 E2.18333
G1 X40.381 Y59.829 E2.20274
G1 X40.314 Y59.36 E2.21852
G1 X40.188 Y57.914 E2.26687
G1 X40.177 Y57.342 E2.28592
G1 X40.302 Y54.724 E2.37323
G1 X40.369 Y54.145 E2.39264
G1 X40.516 Y53.581 E2.41206
G1 X40.738 Y53.043 E2.43145
G1 X41.031 Y52.539 E2.45087
G1 X41.391 Y52.081 E2.47027
G1 X41.81 Y51.676 E2.48968
G0 F2625 X41.876 Y52.295
G1 F900 X42.288 Y51.934 E2.50793
G1 X42.748 Y51.637 E2.52617
G1 X43.246 Y51.41 E2.5444
G1 X43.772 Y51.258 E2.56264
G1 X44.547 Y51.177 E2.58859
G1 X45.033 Y51.177 E2.60478
G1 X45.579 Y51.217 E2.62302
G1 X46.113 Y51.336 E2.64124
G1 X46.624 Y51.531 E2.65946
G1 X47.102 Y51.799 E2.67771
G1 X47.535 Y52.134 E2.69595
G1 X47.915 Y52.528 E2.71418
G1 X48.234 Y52.973 E2.73242
G1 X48.484 Y53.46 E2.75066
G1 X48.661 Y53.978 E2.76889
G1 X48.76 Y54.516 E2.78711
G1 X48.779 Y55.1 E2.80658
G1 X48.67 Y57.451 E2.88497
G1 X48.774 Y58.675 E2.92589
G1 X48.78 Y59.222 E2.94411
G1 X48.706 Y59.765 E2.96237
G1 X48.555 Y60.291 E2.9806
G1 X48.328 Y60.789 E2.99883
G1 X48.031 Y61.249 E3.01707
G1 X47.671 Y61.661 E3.03529
G1 X47.254 Y62.015 E3.05351
G1 X46.79 Y62.306 E3.07176
G1 X46.289 Y62.526 E3.08998
G1 X45.761 Y62.67 E3.10821
G1 X45.037 Y62.741 E3.13245
G1 X44.548 Y62.741 E3.14874
G1 X44.002 Y62.701 E3.16697
G1 X43.468 Y62.582 E3.1852
G1 X42.957 Y62.387 E3.20341
G1 X42.479 Y62.119 E3.22167
G1 X42.046 Y61.784 E3.2399
G1 X41.666 Y61.39 E3.25814
G1 X41.347 Y60.945 E3.27638
G1 X41.097 Y60.458 E3.29461
G1 X40.92 Y59.94 E3.31285
G1 X40.812 Y59.317 E3.33391
G1 X40.686 Y57.871 E3.38226
G1 X40.676 Y57.366 E3.39908
G1 X40.801 Y54.748 E3.48639
G1 X40.867 Y54.205 E3.50461
G1 X41.012 Y53.677 E3.52285
G1 X41.231 Y53.175 E3.54109
G1 X41.521 Y52.711 E3.55932
G1 X41.876 Y52.295 E3.57753
G0 F2625 X42.359 Y52.524
G1 F900 X42.762 Y52.211 E3.59453
G1 X43.208 Y51.966 E3.61148
G1 X43.688 Y51.793 E3.62848
G1 X44.188 Y51.697 E3.64544
G1 X44.547 Y51.677 E3.65741
G1 X45.033 Y51.677 E3.6736
G1 X45.541 Y51.717 E3.69058
G1 X46.036 Y51.836 E3.70754
G1 X46.507 Y52.031 E3.72452
G1 X46.942 Y52.297 E3.7415
G1 X47.329 Y52.627 E3.75844
G1 X47.661 Y53.014 E3.77543
G1 X47.927 Y53.449 E3.79241
G1 X48.123 Y53.919 E3.80937
G1 X48.242 Y54.414 E3.82633
G1 X48.28 Y55.077 E3.84845
G1 X48.169 Y57.47 E3.92825
G1 X48.275 Y58.717 E3.96994
G1 X48.278 Y59.227 E3.98693
G1 X48.202 Y59.73 E4.00387
G1 X48.047 Y60.216 E4.02087
G1 X47.819 Y60.671 E4.03782
G1 X47.522 Y61.085 E4.05479
G1 X47.164 Y61.448 E4.07177
G1 X46.754 Y61.75 E4.08874
G1 X46.302 Y61.985 E4.1057
G1 X45.818 Y62.146 E4.1227
G1 X45.316 Y62.229 E4.13964
G1 X45.037 Y62.241 E4.14895
G1 X44.548 Y62.241 E4.16524
G1 X44.04 Y62.201 E4.18221
G1 X43.545 Y62.082 E4.19917
G1 X43.074 Y61.887 E4.21615
G1 X42.639 Y61.621 E4.23313
G1 X42.252 Y61.291 E4.25007
G1 X41.92 Y60.904 E4.26706
G1 X41.654 Y60.469 E4.28404
G1 X41.458 Y59.999 E4.30101
G1 X41.31 Y59.273 E4.32569
G1 X41.184 Y57.827 E4.37404
G1 X41.176 Y57.39 E4.3886
G1 X41.301 Y54.772 E4.4759
G1 X41.365 Y54.267 E4.49286
G1 X41.507 Y53.777 E4.50985
G1 X41.724 Y53.316 E4.52682
G1 X42.011 Y52.895 E4.5438
G1 X42.359 Y52.524 E4.56074
G0 F2625 X42.839 Y52.772
G1 F900 X43.23 Y52.513 E4.57636
G1 X43.659 Y52.324 E4.59198
G1 X44.114 Y52.211 E4.60759
G1 X44.547 Y52.177 E4.62206
G1 X45.033 Y52.177 E4.63825
G1 X45.5 Y52.217 E4.65386
G1 X45.953 Y52.336 E4.66947
G1 X46.38 Y52.529 E4.68507
G1 X46.767 Y52.793 E4.70068
G1 X47.105 Y53.118 E4.7163
G1 X47.382 Y53.496 E4.73191
G1 X47.59 Y53.916 E4.74752
G1 X47.725 Y54.365 E4.76314
G1 X47.78 Y55.054 E4.78616
G1 X47.668 Y57.473 E4.86683
G1 X47.777 Y58.759 E4.90982
G1 X47.777 Y59.228 E4.92544
G1 X47.697 Y59.69 E4.94106
G1 X47.54 Y60.131 E4.95665
G1 X47.31 Y60.539 E4.97225
G1 X47.014 Y60.903 E4.98788
G1 X46.66 Y61.211 E5.00351
G1 X46.26 Y61.454 E5.0191
G1 X45.824 Y61.626 E5.03471
G1 X45.365 Y61.721 E5.05033
G1 X45.037 Y61.741 E5.06127
G1 X44.548 Y61.741 E5.07756
G1 X44.081 Y61.701 E5.09317
G1 X43.628 Y61.582 E5.10878
G1 X43.201 Y61.389 E5.12439
G1 X42.814 Y61.125 E5.13999
G1 X42.476 Y60.8 E5.15561
G1 X42.199 Y60.422 E5.17122
G1 X41.991 Y60.002 E5.18683
G1 X41.856 Y59.553 E5.20245
G1 X41.808 Y59.23 E5.21333
G1 X41.682 Y57.784 E5.26168
G1 X41.675 Y57.414 E5.274
G1 X41.8 Y54.796 E5.36131
G1 X41.862 Y54.331 E5.37694
G1 X42.002 Y53.884 E5.39254
G1 X42.216 Y53.467 E5.40815
G1 X42.498 Y53.093 E5.42375
G1 X42.839 Y52.772 E5.43935
G0 F2625 X42.983 Y53.309
G1 F900 X43.314 Y53.045 E5.45346
G1 X43.689 Y52.847 E5.46758
G1 X44.094 Y52.723 E5.48169
G1 X44.547 Y52.677 E5.49686
G1 X45.033 Y52.677 E5.51305
G1 X45.455 Y52.717 E5.52717
G1 X45.862 Y52.835 E5.54128
G1 X46.239 Y53.028 E5.55539
G1 X46.574 Y53.288 E5.56952
G1 X46.854 Y53.606 E5.58363
G1 X47.07 Y53.971 E5.59776
G1 X47.213 Y54.37 E5.61188
G1 X47.279 Y54.788 E5.62597
G1 X47.281 Y55.031 E5.63407
G1 X47.168 Y57.485 E5.7159
G1 X47.279 Y58.801 E5.75989
G1 X47.275 Y59.225 E5.77401
G1 X47.191 Y59.641 E5.78815
G1 X47.031 Y60.033 E5.80225
G1 X46.8 Y60.388 E5.81636
G1 X46.507 Y60.694 E5.83047
G1 X46.162 Y60.94 E5.84459
G1 X45.776 Y61.116 E5.85872
G1 X45.365 Y61.217 E5.87282
G1 X45.037 Y61.241 E5.88377
G1 X44.548 Y61.241 E5.90006
G1 X44.126 Y61.201 E5.91418
G1 X43.719 Y61.083 E5.9283
G1 X43.342 Y60.89 E5.94241
G1 X43.007 Y60.63 E5.95653
G1 X42.727 Y60.312 E5.97064
G1 X42.511 Y59.947 E5.98477
G1 X42.368 Y59.548 E5.99889
G1 X42.306 Y59.186 E6.01112
G1 X42.18 Y57.74 E6.05947
G1 X42.175 Y57.438 E6.06954
G1 X42.3 Y54.82 E6.15684
G1 X42.36 Y54.4 E6.17097
G1 X42.497 Y53.999 E6.18509
G1 X42.707 Y53.631 E6.1992
G1 X42.983 Y53.309 E6.21333
G0 F2625 X43.464 Y53.553
G1 F900 X43.78 Y53.354 E6.22577
G1 X44.132 Y53.227 E6.23823
G1 X44.547 Y53.177 E6.25216
G1 X45.033 Y53.177 E6.26835
G1 X45.404 Y53.217 E6.28078
G1 X45.759 Y53.335 E6.29324
G1 X46.081 Y53.525 E6.30569
G1 X46.354 Y53.779 E6.31811
G1 X46.568 Y54.086 E6.33058
G1 X46.711 Y54.431 E6.34302
G1 X46.778 Y54.799 E6.35548
G1 X46.781 Y55.008 E6.36244
G1 X46.666 Y57.489 E6.44517
G1 X46.781 Y58.844 E6.49047
G1 X46.772 Y59.217 E6.5029
G1 X46.685 Y59.58 E6.51533
G1 X46.522 Y59.917 E6.5278
G1 X46.292 Y60.211 E6.54024
G1 X46.004 Y60.449 E6.55268
G1 X45.673 Y60.621 E6.56511
G1 X45.312 Y60.719 E6.57757
G1 X45.037 Y60.741 E6.58676
G1 X44.548 Y60.741 E6.60305
G1 X44.177 Y60.701 E6.61548
G1 X43.822 Y60.583 E6.62794
G1 X43.5 Y60.393 E6.64039
G1 X43.227 Y60.139 E6.65281
G1 X43.013 Y59.832 E6.66528
G1 X42.87 Y59.487 E6.67772
G1 X42.805 Y59.143 E6.68938
G1 X42.679 Y57.697 E6.73773
G1 X42.674 Y57.462 E6.74556
G1 X42.799 Y54.844 E6.83286
G1 X42.857 Y54.474 E6.84534
G1 X42.991 Y54.126 E6.85776
G1 X43.197 Y53.814 E6.87021
G1 X43.464 Y53.553 E6.88265
G0 F2625 X43.683 Y54.024
G1 F900 X43.936 Y53.836 E6.89315
G1 X44.229 Y53.718 E6.90367
G1 X44.547 Y53.677 E6.91435
G1 X45.033 Y53.677 E6.93054
G1 X45.346 Y53.717 E6.94105
G1 X45.639 Y53.834 E6.95156
G1 X45.894 Y54.02 E6.96208
G1 X46.093 Y54.265 E6.97259
G1 X46.225 Y54.552 E6.98311
G1 X46.282 Y54.985 E6.99766
G1 X46.166 Y57.501 E7.08156
G1 X46.283 Y58.886 E7.12786
G1 X46.269 Y59.201 E7.13836
G1 X46.177 Y59.503 E7.14888
G1 X46.013 Y59.772 E7.15937
G1 X45.786 Y59.992 E7.1699
G1 X45.512 Y60.147 E7.18039
G1 X45.207 Y60.229 E7.19091
G1 X45.037 Y60.241 E7.19659
G1 X44.548 Y60.241 E7.21287
G1 X44.235 Y60.201 E7.22339
G1 X43.942 Y60.084 E7.23389
G1 X43.687 Y59.898 E7.24441
G1 X43.488 Y59.653 E7.25492
G1 X43.356 Y59.366 E7.26544
G1 X43.303 Y59.1 E7.27448
G1 X43.177 Y57.654 E7.32283
G1 X43.173 Y57.485 E7.32846
G1 X43.298 Y54.867 E7.41577
G1 X43.353 Y54.557 E7.42625
G1 X43.484 Y54.269 E7.43679
G1 X43.683 Y54.024 E7.44731
G0 F2625 X43.974 Y54.443
G1 F900 X44.16 Y54.285 E7.45544
G1 X44.387 Y54.194 E7.46358
G1 X44.547 Y54.177 E7.46894
G1 X45.033 Y54.177 E7.48513
G1 X45.274 Y54.217 E7.49327
G1 X45.489 Y54.332 E7.50139
G1 X45.656 Y54.51 E7.50952
G1 X45.757 Y54.732 E7.51764
G1 X45.782 Y54.962 E7.52535
G1 X45.664 Y57.509 E7.61028
G1 X45.784 Y58.928 E7.65772
G1 X45.765 Y59.171 E7.66584
G1 X45.669 Y59.395 E7.67396
G1 X45.505 Y59.577 E7.68212
G1 X45.292 Y59.696 E7.69024
G1 X45.037 Y59.741 E7.69887
G1 X44.548 Y59.741 E7.71516
G1 X44.307 Y59.701 E7.7233
G1 X44.092 Y59.586 E7.73142
G1 X43.925 Y59.408 E7.73955
G1 X43.824 Y59.186 E7.74767
G1 X43.801 Y59.056 E7.75207
G1 X43.675 Y57.61 E7.80042
G1 X43.673 Y57.509 E7.80378
G1 X43.798 Y54.891 E7.89109
G1 X43.849 Y54.653 E7.8992
G1 X43.974 Y54.443 E7.90734
G0 F2625 X44.343 Y54.783
G1 F900 X44.452 Y54.696 E7.91198
G1 X44.547 Y54.677 E7.91521
G1 X45.033 Y54.677 E7.9314
G1 X45.167 Y54.716 E7.93605
G1 X45.26 Y54.822 E7.94075
G1 X45.283 Y54.939 E7.94472
G1 X45.164 Y57.523 E8.03088
G1 X45.286 Y58.97 E8.07925
G1 X45.258 Y59.107 E8.08391
G1 X45.161 Y59.208 E8.08858
G1 X45.037 Y59.241 E8.09285
G1 X44.548 Y59.241 E8.10914
G1 X44.414 Y59.202 E8.11379
G1 X44.321 Y59.096 E8.11849
G1 X44.299 Y59.013 E8.12135
G1 X44.173 Y57.567 E8.1697
G1 X44.172 Y57.533 E8.17083
G1 X44.297 Y54.915 E8.25813
G1 X44.343 Y54.783 E8.26279
G1 F600 E6.51279
G0 F2625 X36.883 Y51.197
G1 F600 E8.26279
G1 F900 X36.882 Y62.722 E8.64669
G1 X36.842 Y63.337 E8.66722
G1 X36.723 Y63.942 E8.68776
G1 X36.526 Y64.526 E8.70829
G1 X36.256 Y65.079 E8.72879
G1 X35.916 Y65.593 E8.74932
G1 X35.479 Y66.092 E8.77141
G1 X35.332 Y66.238 E8.77831
G1 X34.868 Y66.643 E8.79883
G1 X34.355 Y66.984 E8.81935
G1 X33.802 Y67.257 E8.83989
G1 X33.219 Y67.455 E8.8604
G1 X32.615 Y67.576 E8.88092
G1 X31.985 Y67.618 E8.90195
G1 X21.489 Y67.618 E9.25158
G1 X20.874 Y67.578 E9.27211
G1 X20.27 Y67.459 E9.29261
G1 X19.686 Y67.262 E9.31314
G1 X19.132 Y66.992 E9.33367
G1 X18.618 Y66.652 E9.3542
G1 X18.119 Y66.215 E9.3763
G1 X17.973 Y66.068 E9.3832
G1 X17.568 Y65.604 E9.40371
G1 X17.227 Y65.091 E9.42423
G1 X16.954 Y64.538 E9.44478
G1 X16.756 Y63.955 E9.46528
G1 X16.635 Y63.351 E9.4858
G1 X16.593 Y62.721 E9.50684
G1 X16.594 Y51.196 E9.89074
G1 X16.634 Y50.581 E9.91127
G1 X16.753 Y49.976 E9.93181
G1 X16.95 Y49.392 E9.95234
G1 X17.22 Y48.839 E9.97284
G1 X17.56 Y48.325 E9.99336
G1 X17.997 Y47.826 E10.01546
G1 X18.144 Y47.68 E10.02236
G1 X18.608 Y47.275 E10.04288
G1 X19.121 Y46.934 E10.06339
G1 X19.674 Y46.661 E10.08394
G1 X20.257 Y46.463 E10.10445
G1 X20.861 Y46.342 E10.12497
G1 X21.491 Y46.3 E10.146
G1 X31.987 Y46.3 E10.49562
G1 X32.602 Y46.34 E10.51615
G1 X33.206 Y46.459 E10.53666
G1 X33.79 Y46.656 E10.55719
G1 X34.344 Y46.926 E10.57772
G1 X34.858 Y47.266 E10.59825
G1 X35.357 Y47.703 E10.62034
G1 X35.503 Y47.85 E10.62724
G1 X35.908 Y48.314 E10.64776
G1 X36.249 Y48.827 E10.66828
G1 X36.522 Y49.38 E10.68882
G1 X36.72 Y49.963 E10.70933
G1 X36.841 Y50.567 E10.72985
G1 X36.883 Y51.197 E10.75088
G0 F2625 X36.383 Y51.197
G1 F900 X36.382 Y62.722 E11.13478
G1 X36.342 Y63.304 E11.15422
G1 X36.223 Y63.874 E11.17361
