;Generated by Cura LulzBot Edition GCodeWriter Version: 3.6.10
;FLAVOR:Marlin
;TIME:1824
;Filament used: 0.453m
;Layer height: 0.25
;Generated with Cura_SteamEngine 3.6.10
M82 ;absolute extrusion mode
;This G-Code has been generated specifically for the LulzBot redgum
M73 P0 ; clear GLCD progress bar
M75 ; start GLCD timer
G26 ; clear potential 'probe fail' condition
M107 ; disable fans
M420 S0 ; disable previous leveling matrix
G90 ; absolute positioning
M82 ; set extruder to absolute mode
G92 E0 ; set extruder position to 0
M140 S60 ; start bed heating up
M109 R140 ; soften filament before homing Z
G28 ; Home all axis
G1 E-30 F100 ; retract filament
M109 R140 ; wait for extruder to reach wiping temp
G1 X-15 Y100 F3000 ; move above wiper pad
G1 Z1 ; push nozzle into wiper
G1 X-17 Y95 F1000 ; slow wipe
G1 X-17 Y90 F1000 ; slow wipe
G1 X-17 Y85 F1000 ; slow wipe
G1 X-15 Y90 F1000 ; slow wipe
G1 X-17 Y80 F1000 ; slow wipe
G1 X-15 Y95 F1000 ; slow wipe
G1 X-17 Y75 F2000 ; fast wipe
G1 X-15 Y65 F2000 ; fast wipe
G1 X-17 Y70 F2000 ; fast wipe
G1 X-15 Y60 F2000 ; fast wipe
G1 X-17 Y55 F2000 ; fast wipe
G1 X-15 Y50 F2000 ; fast wipe
G1 X-17 Y40 F2000 ; fast wipe
G1 X-15 Y45 F2000 ; fast wipe
G1 X-17 Y35 F2000 ; fast wipe
G1 X-15 Y40 F2000 ; fast wipe
G1 X-17 Y70 F2000 ; fast wipe
G1 X-15 Y30 Z2 F2000 ; fast wipe
G1 X-17 Y35 F2000 ; fast wipe
G1 X-15 Y25 F2000 ; fast wipe
G1 X-17 Y30 F2000 ; fast wipe
G1 X-15 Y25 Z1.5 F1000 ; slow wipe
G1 X-17 Y23 F1000 ; slow wipe
G1 Z10 ; raise extruder
M109 R140 ; wait for extruder to reach probe temp
G1 X-9 Y-9 ; move above first probe point
M204 S100 ; set probing acceleration
G29 ; start auto-leveling sequence
M420 S1 ; activate bed level matrix
M425 Z			     ; use measured Z backlash for compensation
M425 Z F0		     ; turn off measured Z backlash compensation. (if activated in the quality settings, this command will automatically be ignored)
M204 S500 ; restore standard acceleration
G1 X0 Y0 Z15 F5000 ; move up off last probe point
G4 S1 ; pause
M400 ; wait for moves to finish
M117 Heating... ; progress indicator message on LCD
M109 R225 ; wait for extruder to reach printing temp
M190 S60 ; wait for bed to reach printing temp
G1 Z2 E0 F75 ; prime tiny bit of filament into the nozzle
M117 TAZ Workhorse Printing... ; progress indicator message on LCD

M221 S100 T0
G92 E0
G1 F600 E-1.75
;LAYER_COUNT:40
;LAYER:0
M107
G0 F2625 X66.517 Y61.701 Z0.4
;TYPE:SKIRT
G1 F600 E0
G1 F900 X68.34 Y59.93 E0.07968
G1 X70.218 Y58.217 E0.15937
G1 X72.149 Y56.565 E0.23904
G1 X74.131 Y54.974 E0.31872
G1 X76.162 Y53.446 E0.39841
G1 X78.241 Y51.983 E0.4781
G1 X80.364 Y50.586 E0.55778
G1 X82.53 Y49.257 E0.63745
G1 X84.737 Y47.996 E0.71714
G1 X86.983 Y46.806 E0.79683
G1 X89.264 Y45.687 E0.87648
G1 X91.58 Y44.64 E0.95616
G1 X93.928 Y43.666 E1.03586
G1 X97.293 Y42.419 E1.14836
G1 X98.428 Y42.027 E1.18601
G1 X99.852 Y41.465 E1.234
G1 X103.444 Y39.795 E1.35819
G1 X105.765 Y38.76 E1.43786
G1 X108.118 Y37.798 E1.51756
G1 X110.499 Y36.911 E1.59722
G1 X112.908 Y36.099 E1.67692
G1 X115.341 Y35.364 E1.7566
G1 X117.795 Y34.705 E1.83626
G1 X120.27 Y34.124 E1.91596
G1 X122.761 Y33.621 E1.99563
G1 X125.267 Y33.197 E2.07532
G1 X127.785 Y32.852 E2.155
G1 X130.313 Y32.587 E2.23468
G1 X132.847 Y32.401 E2.31434
G1 X135.387 Y32.294 E2.39404
G1 X137.786 Y32.268 E2.46926
G1 X144.858 Y32.294 E2.69097
G1 X147.399 Y32.343 E2.77065
G1 X149.937 Y32.472 E2.85032
G1 X152.47 Y32.681 E2.93
G1 X154.995 Y32.97 E3.00968
G1 X157.51 Y33.338 E3.08937
G1 X160.012 Y33.785 E3.16905
G1 X162.499 Y34.311 E3.24875
G1 X164.968 Y34.914 E3.32843
G1 X167.416 Y35.595 E3.40809
G1 X169.842 Y36.353 E3.48777
G1 X172.243 Y37.186 E3.56745
G1 X174.617 Y38.095 E3.64714
G1 X176.961 Y39.078 E3.72683
G1 X178.818 Y39.919 E3.79074
G1 X181.911 Y41.368 E3.89782
G1 X183.322 Y41.935 E3.9455
G1 X184.904 Y42.487 E3.99803
G1 X187.29 Y43.362 E4.0777
G1 X189.647 Y44.311 E4.15736
G1 X191.974 Y45.334 E4.23705
G1 X194.267 Y46.43 E4.31673
G1 X196.525 Y47.598 E4.39643
G1 X198.744 Y48.836 E4.47609
G1 X200.924 Y50.143 E4.55578
G1 X203.061 Y51.519 E4.63546
G1 X205.154 Y52.961 E4.71515
G1 X207.201 Y54.467 E4.79482
G1 X209.199 Y56.038 E4.8745
G1 X211.147 Y57.671 E4.95419
G1 X213.042 Y59.364 E5.03386
G1 X215.46 Y61.689 E5.13903
G1 X220.433 Y66.672 E5.35974
G1 X222.2 Y68.499 E5.43942
G1 X223.908 Y70.38 E5.51908
G1 X225.557 Y72.315 E5.59878
G1 X227.144 Y74.3 E5.67846
G1 X228.667 Y76.335 E5.75814
G1 X230.126 Y78.416 E5.83782
G1 X231.518 Y80.542 E5.91749
G1 X232.843 Y82.711 E5.99717
G1 X234.099 Y84.921 E6.07687
G1 X235.284 Y87.169 E6.15654
G1 X236.399 Y89.453 E6.23622
G1 X237.441 Y91.771 E6.3159
G1 X238.409 Y94.121 E6.39558
G1 X239.605 Y97.358 E6.50376
G1 X239.982 Y98.449 E6.53995
G1 X240.535 Y99.852 E6.58723
G1 X242.205 Y103.444 E6.71142
G1 X243.24 Y105.765 E6.79109
G1 X244.202 Y108.118 E6.87079
G1 X245.089 Y110.499 E6.95045
G1 X245.901 Y112.908 E7.03014
G1 X246.636 Y115.341 E7.10983
G1 X247.295 Y117.795 E7.18949
G1 X247.876 Y120.27 E7.26919
G1 X248.379 Y122.761 E7.34886
G1 X248.803 Y125.267 E7.42854
G1 X249.148 Y127.785 E7.50822
G1 X249.413 Y130.313 E7.58791
G1 X249.599 Y132.847 E7.66757
G1 X249.706 Y135.387 E7.74727
G1 X249.733 Y137.408 E7.81064
G1 X249.74 Y144.415 E8.03031
G1 X249.703 Y146.957 E8.11002
G1 X249.585 Y149.495 E8.18967
G1 X249.388 Y152.029 E8.26935
G1 X249.111 Y154.556 E8.34905
G1 X248.755 Y157.072 E8.42872
G1 X248.319 Y159.576 E8.5084
G1 X247.805 Y162.065 E8.58808
G1 X247.214 Y164.537 E8.66776
G1 X246.544 Y166.989 E8.74745
G1 X245.798 Y169.418 E8.82711
G1 X244.975 Y171.823 E8.90681
G1 X244.078 Y174.201 E8.98649
G1 X243.106 Y176.549 E9.06616
G1 X241.606 Y179.816 E9.17886
G1 X241.094 Y180.868 E9.21554
G1 X240.217 Y182.886 E9.28452
G1 X239.513 Y184.904 E9.35153
G1 X238.638 Y187.29 E9.4312
G1 X237.689 Y189.647 E9.51086
G1 X236.666 Y191.974 E9.59055
G1 X235.57 Y194.267 E9.67023
G1 X234.402 Y196.525 E9.74993
G1 X233.164 Y198.744 E9.82959
G1 X231.857 Y200.924 E9.90928
G1 X230.481 Y203.061 E9.98896
G1 X229.039 Y205.154 E10.06865
G1 X227.533 Y207.201 E10.14832
G1 X225.962 Y209.199 E10.228
G1 X224.329 Y211.147 E10.3077
G1 X222.636 Y213.042 E10.38736
G1 X220.432 Y215.339 E10.48716
G1 X215.483 Y220.299 E10.70683
G1 X213.66 Y222.07 E10.78651
G1 X211.782 Y223.783 E10.8662
G1 X209.851 Y225.435 E10.94587
G1 X207.869 Y227.026 E11.02555
G1 X205.838 Y228.554 E11.10524
G1 X203.759 Y230.017 E11.18494
G1 X201.636 Y231.414 E11.26461
G1 X199.47 Y232.743 E11.34428
G1 X197.263 Y234.004 E11.42397
G1 X195.017 Y235.194 E11.50366
G1 X192.736 Y236.313 E11.58331
G1 X190.42 Y237.36 E11.66299
G1 X188.072 Y238.334 E11.74269
G1 X184.707 Y239.581 E11.85519
G1 X183.572 Y239.973 E11.89284
G1 X182.148 Y240.535 E11.94083
G1 X178.556 Y242.205 E12.06502
G1 X176.235 Y243.24 E12.1447
G1 X173.882 Y244.202 E12.22439
G1 X171.501 Y245.089 E12.30405
G1 X169.092 Y245.901 E12.38375
G1 X166.659 Y246.636 E12.46343
G1 X164.205 Y247.295 E12.54309
G1 X161.73 Y247.876 E12.62279
G1 X159.239 Y248.379 E12.70247
G1 X156.733 Y248.803 E12.78215
G1 X154.215 Y249.148 E12.86183
G1 X151.687 Y249.413 E12.94152
G1 X149.153 Y249.599 E13.02117
G1 X146.613 Y249.706 E13.10087
G1 X144.214 Y249.732 E13.17609
G1 X137.142 Y249.706 E13.39781
G1 X134.601 Y249.657 E13.47748
G1 X132.063 Y249.528 E13.55715
G1 X129.53 Y249.319 E13.63684
G1 X127.005 Y249.03 E13.71651
G1 X124.49 Y248.662 E13.7962
G1 X121.988 Y248.215 E13.87588
G1 X119.501 Y247.689 E13.95558
G1 X117.032 Y247.086 E14.03526
G1 X114.584 Y246.405 E14.11492
G1 X112.158 Y245.647 E14.1946
G1 X109.757 Y244.814 E14.27428
G1 X107.383 Y243.905 E14.35397
G1 X105.039 Y242.922 E14.43366
G1 X103.182 Y242.081 E14.49757
G1 X100.089 Y240.632 E14.60465
G1 X98.678 Y240.065 E14.65233
G1 X97.096 Y239.513 E14.70486
G1 X94.71 Y238.638 E14.78453
G1 X92.353 Y237.689 E14.86419
G1 X90.026 Y236.666 E14.94388
G1 X87.733 Y235.57 E15.02356
G1 X85.475 Y234.402 E15.10326
G1 X83.256 Y233.164 E15.18292
G1 X81.076 Y231.857 E15.26261
G1 X78.939 Y230.481 E15.34229
G1 X76.846 Y229.039 E15.42198
G1 X74.799 Y227.533 E15.50165
G1 X72.801 Y225.962 E15.58133
G1 X70.853 Y224.329 E15.66103
G1 X68.958 Y222.636 E15.74069
G1 X66.661 Y220.432 E15.84049
G1 X61.701 Y215.483 E16.06016
G1 X59.93 Y213.66 E16.13984
G1 X58.217 Y211.782 E16.21953
G1 X56.565 Y209.851 E16.2992
G1 X54.974 Y207.869 E16.37888
G1 X53.446 Y205.838 E16.45857
G1 X51.983 Y203.759 E16.53827
G1 X50.586 Y201.636 E16.61794
G1 X49.257 Y199.47 E16.69761
G1 X47.996 Y197.263 E16.7773
G1 X46.806 Y195.017 E16.85699
G1 X45.687 Y192.736 E16.93664
G1 X44.64 Y190.42 E17.01632
G1 X43.666 Y188.072 E17.09602
G1 X42.419 Y184.707 E17.20852
G1 X42.027 Y183.572 E17.24617
G1 X41.465 Y182.148 E17.29416
G1 X39.795 Y178.556 E17.41835
G1 X38.76 Y176.235 E17.49803
G1 X37.798 Y173.882 E17.57772
G1 X36.911 Y171.501 E17.65738
G1 X36.099 Y169.092 E17.73708
G1 X35.364 Y166.659 E17.81676
G1 X34.705 Y164.205 E17.89642
G1 X34.124 Y161.73 E17.97612
G1 X33.621 Y159.239 E18.0558
G1 X33.197 Y156.733 E18.13548
G1 X32.852 Y154.215 E18.21516
G1 X32.587 Y151.687 E18.29485
G1 X32.401 Y149.153 E18.3745
G1 X32.294 Y146.613 E18.4542
G1 X32.267 Y144.592 E18.51757
G1 X32.26 Y137.584 E18.73728
G1 X32.297 Y135.042 E18.81698
G1 X32.415 Y132.503 E18.89667
G1 X32.612 Y129.97 E18.97632
G1 X32.889 Y127.443 E19.05602
G1 X33.245 Y124.927 E19.13568
G1 X33.681 Y122.423 E19.21536
G1 X34.195 Y119.934 E19.29504
G1 X34.786 Y117.462 E19.37473
G1 X35.456 Y115.01 E19.45442
G1 X36.202 Y112.581 E19.53408
G1 X37.025 Y110.176 E19.61377
G1 X37.922 Y107.798 E19.69345
G1 X38.894 Y105.45 E19.77312
G1 X39.903 Y103.212 E19.85009
G1 X41.369 Y100.087 E19.9583
G1 X41.935 Y98.678 E20.00591
G1 X42.487 Y97.096 E20.05844
G1 X43.362 Y94.71 E20.13811
G1 X44.311 Y92.353 E20.21777
G1 X45.334 Y90.026 E20.29746
G1 X46.43 Y87.733 E20.37714
G1 X47.598 Y85.475 E20.45684
G1 X48.836 Y83.256 E20.5365
G1 X50.143 Y81.076 E20.61619
G1 X51.519 Y78.939 E20.69587
G1 X52.961 Y76.846 E20.77556
G1 X54.467 Y74.799 E20.85523
G1 X56.038 Y72.801 E20.93491
G1 X57.671 Y70.853 E21.0146
G1 X59.364 Y68.958 E21.09427
G1 X61.568 Y66.661 E21.19407
G1 X66.517 Y61.701 E21.41374
G0 F2625 X66.871 Y62.054
G1 F900 X68.688 Y60.289 E21.49316
G1 X70.561 Y58.582 E21.5726
G1 X72.486 Y56.935 E21.65203
G1 X74.463 Y55.35 E21.73147
G1 X76.488 Y53.828 E21.81089
G1 X78.561 Y52.37 E21.89034
G1 X80.679 Y50.979 E21.96978
G1 X82.839 Y49.655 E22.04921
G1 X85.04 Y48.4 E22.12864
G1 X87.28 Y47.216 E22.20808
G1 X89.556 Y46.102 E22.28752
G1 X91.866 Y45.061 E22.36696
G1 X94.207 Y44.094 E22.44636
G1 X97.457 Y42.891 E22.55501
G1 X98.61 Y42.492 E22.59326
G1 X100.037 Y41.93 E22.64134
G1 X103.654 Y40.248 E22.7664
G1 X105.969 Y39.216 E22.84586
G1 X108.314 Y38.258 E22.92528
G1 X110.689 Y37.374 E23.00473
G1 X113.09 Y36.566 E23.08415
G1 X115.516 Y35.834 E23.16359
G1 X117.963 Y35.179 E23.24301
G1 X120.43 Y34.601 E23.32245
G1 X122.914 Y34.102 E23.40188
G1 X125.412 Y33.681 E23.4813
G1 X127.923 Y33.339 E23.56075
G1 X130.443 Y33.077 E23.64018
G1 X132.97 Y32.894 E23.71961
G1 X135.502 Y32.792 E23.79905
G1 X137.784 Y32.768 E23.8706
G1 X144.856 Y32.794 E24.09231
G1 X147.389 Y32.843 E24.17174
G1 X149.92 Y32.972 E24.25119
G1 X152.445 Y33.181 E24.33063
G1 X154.962 Y33.47 E24.41005
G1 X157.469 Y33.838 E24.48949
G1 X159.963 Y34.285 E24.56893
G1 X162.441 Y34.81 E24.64834
G1 X164.902 Y35.414 E24.72779
G1 X167.343 Y36.095 E24.80723
G1 X169.76 Y36.852 E24.88664
G1 X172.153 Y37.686 E24.96609
G1 X174.518 Y38.594 E25.04551
G1 X176.854 Y39.577 E25.12497
G1 X178.605 Y40.372 E25.18525
G1 X181.7 Y41.822 E25.29241
G1 X183.149 Y42.404 E25.34136
G1 X184.739 Y42.959 E25.39416
G1 X187.118 Y43.831 E25.4736
G1 X189.468 Y44.778 E25.55303
G1 X191.787 Y45.799 E25.63246
G1 X194.072 Y46.892 E25.71187
G1 X196.322 Y48.057 E25.79131
G1 X198.535 Y49.293 E25.87078
G1 X200.707 Y50.597 E25.9502
G1 X202.836 Y51.97 E26.02962
G1 X204.922 Y53.409 E26.10907
G1 X206.96 Y54.913 E26.18848
G1 X208.951 Y56.481 E26.26793
G1 X210.891 Y58.111 E26.34737
G1 X212.778 Y59.801 E26.42679
G1 X215.106 Y62.042 E26.52809
G1 X220.079 Y67.025 E26.7488
G1 X221.841 Y68.846 E26.82824
G1 X223.543 Y70.722 E26.90766
G1 X225.186 Y72.651 E26.9871
G1 X226.767 Y74.631 E27.06653
G1 X228.285 Y76.66 E27.14597
G1 X229.738 Y78.735 E27.22539
G1 X231.125 Y80.856 E27.30484
G1 X232.444 Y83.019 E27.38427
G1 X233.694 Y85.223 E27.46371
G1 X234.874 Y87.465 E27.54313
G1 X235.983 Y89.743 E27.62257
G1 X237.019 Y92.056 E27.70202
G1 X237.982 Y94.399 E27.78144
G1 X239.133 Y97.521 E27.88576
G1 X239.519 Y98.638 E27.92281
G1 X240.07 Y100.037 E27.96995
G1 X241.752 Y103.654 E28.095
G1 X242.784 Y105.969 E28.17447
G1 X243.742 Y108.314 E28.25388
G1 X244.626 Y110.689 E28.33333
G1 X245.434 Y113.09 E28.41275
G1 X246.166 Y115.516 E28.4922
G1 X246.821 Y117.963 E28.57161
G1 X247.399 Y120.43 E28.65105
G1 X247.898 Y122.914 E28.73048
G1 X248.319 Y125.412 E28.8099
G1 X248.661 Y127.923 E28.88935
G1 X248.923 Y130.443 E28.96878
G1 X249.106 Y132.97 E29.04821
G1 X249.208 Y135.502 E29.12766
G1 X249.233 Y137.409 E29.18745
G1 X249.24 Y144.416 E29.40713
G1 X249.202 Y146.949 E29.48655
G1 X249.085 Y149.48 E29.56598
G1 X248.888 Y152.006 E29.64541
G1 X248.611 Y154.525 E29.72486
G1 X248.255 Y157.033 E29.80428
G1 X247.819 Y159.529 E29.88372
G1 X247.305 Y162.01 E29.96315
G1 X246.714 Y164.474 E30.04259
G1 X246.044 Y166.918 E30.12204
G1 X245.298 Y169.339 E30.20146
G1 X244.476 Y171.735 E30.28087
G1 X243.578 Y174.105 E30.36033
G1 X242.606 Y176.445 E30.43977
G1 X241.156 Y179.597 E30.54854
G1 X240.637 Y180.663 E30.58571
G1 X239.754 Y182.695 E30.65517
G1 X239.041 Y184.739 E30.72304
G1 X238.169 Y187.118 E30.80248
G1 X237.222 Y189.468 E30.88191
G1 X236.201 Y191.787 E30.96135
G1 X235.108 Y194.072 E31.04076
G1 X233.943 Y196.322 E31.12019
G1 X232.707 Y198.535 E31.19966
G1 X231.403 Y200.707 E31.27908
G1 X230.03 Y202.836 E31.3585
G1 X228.591 Y204.922 E31.43795
G1 X227.087 Y206.96 E31.51736
G1 X225.519 Y208.951 E31.59681
G1 X223.889 Y210.891 E31.67625
G1 X222.199 Y212.778 E31.75567
G1 X220.078 Y214.986 E31.85166
G1 X215.129 Y219.946 E32.07132
G1 X213.312 Y221.711 E32.15074
G1 X211.439 Y223.418 E32.23019
G1 X209.514 Y225.065 E32.30961
G1 X207.537 Y226.65 E32.38905
G1 X205.512 Y228.172 E32.46847
G1 X203.439 Y229.63 E32.54793
G1 X201.321 Y231.021 E32.62737
G1 X199.161 Y232.345 E32.7068
G1 X196.96 Y233.6 E32.78623
G1 X194.72 Y234.784 E32.86566
G1 X192.444 Y235.898 E32.9451
G1 X190.134 Y236.939 E33.02454
G1 X187.793 Y237.906 E33.10395
G1 X184.543 Y239.109 E33.21259
G1 X183.39 Y239.508 E33.25084
G1 X181.963 Y240.07 E33.29893
G1 X178.346 Y241.752 E33.42398
G1 X176.031 Y242.784 E33.50345
G1 X173.686 Y243.742 E33.58286
G1 X171.311 Y244.626 E33.66231
G1 X168.91 Y245.434 E33.74173
G1 X166.484 Y246.166 E33.82118
G1 X164.037 Y246.821 E33.90059
G1 X161.57 Y247.399 E33.98003
G1 X159.086 Y247.898 E34.05946
G1 X156.588 Y248.319 E34.13888
G1 X154.077 Y248.661 E34.21833
G1 X151.557 Y248.923 E34.29776
G1 X149.03 Y249.106 E34.37719
G1 X146.498 Y249.208 E34.45664
G1 X144.216 Y249.232 E34.52818
G1 X137.144 Y249.206 E34.7499
G1 X134.611 Y249.157 E34.82933
G1 X132.08 Y249.028 E34.90878
G1 X129.555 Y248.819 E34.98821
G1 X127.038 Y248.53 E35.06764
G1 X124.531 Y248.162 E35.14708
G1 X122.037 Y247.715 E35.22651
G1 X119.559 Y247.19 E35.30592
G1 X117.098 Y246.586 E35.38537
G1 X114.657 Y245.905 E35.46482
G1 X112.24 Y245.148 E35.54422
G1 X109.847 Y244.314 E35.62367
G1 X107.482 Y243.406 E35.70309
G1 X105.146 Y242.423 E35.78255
G1 X103.395 Y241.628 E35.84284
G1 X100.3 Y240.178 E35.94999
G1 X98.851 Y239.596 E35.99895
G1 X97.261 Y239.041 E36.05174
G1 X94.882 Y238.169 E36.13118
G1 X92.532 Y237.222 E36.21061
G1 X90.213 Y236.201 E36.29005
G1 X87.928 Y235.108 E36.36946
G1 X85.678 Y233.943 E36.44889
G1 X83.465 Y232.707 E36.52836
G1 X81.293 Y231.403 E36.60778
G1 X79.164 Y230.03 E36.68721
G1 X77.078 Y228.591 E36.76666
G1 X75.04 Y227.087 E36.84606
G1 X73.049 Y225.519 E36.92552
G1 X71.109 Y223.889 E37.00496
G1 X69.222 Y222.199 E37.08437
G1 X67.014 Y220.078 E37.18036
G1 X62.054 Y215.129 E37.40003
G1 X60.289 Y213.312 E37.47944
G1 X58.582 Y211.439 E37.55889
G1 X56.935 Y209.514 E37.63832
G1 X55.35 Y207.537 E37.71776
G1 X53.828 Y205.512 E37.79717
G1 X52.37 Y203.439 E37.87663
